%
(Header)
(Generated by gcodetools from Inkscape.)
(Using default header. To add your own header create file "header" in the output dir.)
M3
(Header end.)
G21 (All units in mm)

(Start cutting path id: path12)
(Change tool to Default tool)

G00 Z5.000000
G00 X-141.803545 Y374.838656

G01 Z-1.000000 F100.0(Penetrate)
G01 X-144.313516 Y374.761867 Z-1.000000 F400.000000
G01 X-146.773399 Y374.329204 Z-1.000000
G01 X-149.153606 Y373.537262 Z-1.000000
G01 X-151.424551 Y372.382634 Z-1.000000
G01 X-153.556647 Y370.861914 Z-1.000000
G01 X-155.520305 Y368.971696 Z-1.000000
G01 X-156.403123 Y367.840135 Z-1.000000
G01 X-157.285940 Y366.708574 Z-1.000000
G01 X-158.054952 Y365.388857 Z-1.000000
G01 X-158.823963 Y364.069140 Z-1.000000
G01 X-160.078192 Y361.560559 Z-1.000000
G01 X-161.332330 Y359.052158 Z-1.000000
G01 X-162.586521 Y356.543649 Z-1.000000
G01 X-163.840723 Y354.035120 Z-1.000000
G01 X-165.094820 Y351.526803 Z-1.000000
G01 X-166.348880 Y349.018558 Z-1.000000
G01 X-167.603037 Y346.510118 Z-1.000000
G01 X-168.857159 Y344.001749 Z-1.000000
G01 X-170.111359 Y341.493224 Z-1.000000
G01 X-171.365437 Y338.984943 Z-1.000000
G01 X-172.619499 Y336.476694 Z-1.000000
G01 X-173.873637 Y333.968294 Z-1.000000
G01 X-175.127857 Y331.459730 Z-1.000000
G01 X-176.381950 Y328.951417 Z-1.000000
G01 X-177.635964 Y326.443264 Z-1.000000
G01 X-178.890043 Y323.934981 Z-1.000000
G01 X-180.144053 Y321.426837 Z-1.000000
G01 X-181.398231 Y318.918355 Z-1.000000
G01 X-182.652358 Y316.409977 Z-1.000000
G01 X-183.906457 Y313.901653 Z-1.000000
G01 X-185.160502 Y311.393440 Z-1.000000
G01 X-186.414640 Y308.885038 Z-1.000000
G01 X-187.668774 Y306.376645 Z-1.000000
G01 X-188.922793 Y303.868483 Z-1.000000
G01 X-190.176829 Y301.360286 Z-1.000000
G01 X-191.430974 Y298.851871 Z-1.000000
G01 X-192.685128 Y296.343438 Z-1.000000
G01 X-193.939258 Y293.835051 Z-1.000000
G01 X-195.193394 Y291.326656 Z-1.000000
G01 X-196.447614 Y288.818091 Z-1.000000
G01 X-197.701770 Y286.309654 Z-1.000000
G01 X-198.955889 Y283.801290 Z-1.000000
G01 X-200.209898 Y281.293148 Z-1.000000
G01 X-201.464027 Y278.784765 Z-1.000000
G01 X-202.718259 Y276.276176 Z-1.000000
G01 X-203.972460 Y273.767648 Z-1.000000
G01 X-205.226657 Y271.259130 Z-1.000000
G01 X-206.480891 Y268.750537 Z-1.000000
G01 X-207.734944 Y266.242305 Z-1.000000
G01 X-208.989163 Y263.733743 Z-1.000000
G01 X-210.243352 Y261.225240 Z-1.000000
G01 X-211.497601 Y258.716617 Z-1.000000
G01 X-212.751733 Y256.208227 Z-1.000000
G01 X-214.005852 Y253.699865 Z-1.000000
G01 X-215.260061 Y251.191322 Z-1.000000
G01 X-216.514199 Y248.682921 Z-1.000000
G01 X-217.768375 Y246.174444 Z-1.000000
G01 X-219.022430 Y243.666208 Z-1.000000
G01 X-220.276474 Y241.157995 Z-1.000000
G01 X-221.530612 Y238.649596 Z-1.000000
G01 X-222.784680 Y236.141334 Z-1.000000
G01 X-224.038777 Y233.633015 Z-1.000000
G01 X-225.292993 Y231.124459 Z-1.000000
G01 X-226.547153 Y228.616013 Z-1.000000
G01 X-227.801336 Y226.107523 Z-1.000000
G01 X-229.055356 Y223.599356 Z-1.000000
G01 X-230.309528 Y221.090888 Z-1.000000
G01 X-231.563647 Y218.582524 Z-1.000000
G01 X-232.817754 Y216.074187 Z-1.000000
G01 X-234.071873 Y213.565823 Z-1.000000
G01 X-235.326018 Y211.057409 Z-1.000000
G01 X-236.580186 Y208.548947 Z-1.000000
G01 X-237.834362 Y206.040471 Z-1.000000
G01 X-239.088512 Y203.532045 Z-1.000000
G01 X-240.342591 Y201.023763 Z-1.000000
G01 X-241.596763 Y198.515294 Z-1.000000
G01 X-242.850942 Y196.006811 Z-1.000000
G01 X-244.105022 Y193.498526 Z-1.000000
G01 X-245.359104 Y190.990237 Z-1.000000
G01 X-246.613260 Y188.481800 Z-1.000000
G01 X-247.867317 Y185.973561 Z-1.000000
G01 X-249.121512 Y183.465045 Z-1.000000
G01 X-250.375619 Y180.956706 Z-1.000000
G01 X-251.629811 Y178.448199 Z-1.000000
G01 X-252.883806 Y175.940083 Z-1.000000
G01 X-254.137915 Y173.431739 Z-1.000000
G01 X-255.391995 Y170.923456 Z-1.000000
G01 X-256.646067 Y168.415186 Z-1.000000
G01 X-257.900306 Y165.906582 Z-1.000000
G01 X-259.154450 Y163.398171 Z-1.000000
G01 X-260.408580 Y160.889786 Z-1.000000
G01 X-261.662723 Y158.381374 Z-1.000000
G01 X-262.916852 Y155.872991 Z-1.000000
G01 X-264.171061 Y153.364448 Z-1.000000
G01 X-265.425201 Y150.856043 Z-1.000000
G01 X-266.679240 Y148.347841 Z-1.000000
G01 X-267.933246 Y145.839703 Z-1.000000
G01 X-269.187373 Y143.331323 Z-1.000000
G01 X-270.441518 Y140.822909 Z-1.000000
G01 X-271.695655 Y138.314510 Z-1.000000
G01 X-272.949822 Y135.806052 Z-1.000000
G01 X-274.203948 Y133.297674 Z-1.000000
G01 X-275.458007 Y130.789432 Z-1.000000
G01 X-276.712143 Y128.281035 Z-1.000000
G01 X-277.966353 Y125.772489 Z-1.000000
G01 X-279.220355 Y123.264361 Z-1.000000
G01 X-280.474405 Y120.756135 Z-1.000000
G01 X-281.728565 Y118.247691 Z-1.000000
G01 X-282.982696 Y115.739304 Z-1.000000
G01 X-284.236714 Y113.231143 Z-1.000000
G01 X-285.490793 Y110.722861 Z-1.000000
G01 X-286.744829 Y108.214663 Z-1.000000
G01 X-287.998898 Y105.706401 Z-1.000000
G01 X-289.252962 Y103.198147 Z-1.000000
G01 X-290.507053 Y100.689839 Z-1.000000
G01 X-291.761201 Y98.181419 Z-1.000000
G01 X-293.015364 Y95.672968 Z-1.000000
G01 X-294.269551 Y93.164468 Z-1.000000
G01 X-295.523718 Y90.656011 Z-1.000000
G01 X-296.777831 Y88.147659 Z-1.000000
G01 X-298.031899 Y85.639399 Z-1.000000
G01 X-299.285945 Y83.131181 Z-1.000000
G01 X-300.540094 Y80.622758 Z-1.000000
G01 X-301.794152 Y78.114517 Z-1.000000
G01 X-303.048403 Y75.605891 Z-1.000000
G01 X-304.302584 Y73.097402 Z-1.000000
G01 X-305.556758 Y70.588930 Z-1.000000
G01 X-306.810934 Y68.080453 Z-1.000000
G01 X-308.065105 Y65.571987 Z-1.000000
G01 X-309.319180 Y63.063712 Z-1.000000
G01 X-310.573391 Y60.555164 Z-1.000000
G01 X-311.827420 Y58.046982 Z-1.000000
G01 X-313.081584 Y55.538528 Z-1.000000
G01 X-314.335783 Y53.030005 Z-1.000000
G01 X-315.589765 Y50.521916 Z-1.000000
G01 X-316.843757 Y48.013807 Z-1.000000
G01 X-318.097901 Y45.505394 Z-1.000000
G01 X-319.352050 Y42.996972 Z-1.000000
G01 X-320.606222 Y40.488503 Z-1.000000
G01 X-321.575834 Y38.192421 Z-1.000000
G01 X-322.235651 Y35.820595 Z-1.000000
G01 X-322.587007 Y33.402838 Z-1.000000
G01 X-322.631237 Y30.968960 Z-1.000000
G01 X-322.369675 Y28.548773 Z-1.000000
G01 X-321.803657 Y26.172090 Z-1.000000
G01 X-320.934517 Y23.868721 Z-1.000000
G01 X-319.763590 Y21.668479 Z-1.000000
G01 X-318.319893 Y19.636764 Z-1.000000
G01 X-316.648929 Y17.828791 Z-1.000000
G01 X-314.776761 Y16.259094 Z-1.000000
G01 X-312.729451 Y14.942206 Z-1.000000
G01 X-310.533064 Y13.892662 Z-1.000000
G01 X-308.213661 Y13.124994 Z-1.000000
G01 X-305.797307 Y12.653737 Z-1.000000
G01 X-303.310064 Y12.493424 Z-1.000000
G01 X-300.493834 Y12.493424 Z-1.000000
G01 X-297.677333 Y12.493424 Z-1.000000
G01 X-294.861058 Y12.493424 Z-1.000000
G01 X-292.044536 Y12.493424 Z-1.000000
G01 X-289.228000 Y12.493424 Z-1.000000
G01 X-286.411630 Y12.493424 Z-1.000000
G01 X-283.595287 Y12.493424 Z-1.000000
G01 X-280.779055 Y12.493424 Z-1.000000
G01 X-277.962860 Y12.493424 Z-1.000000
G01 X-275.146650 Y12.493424 Z-1.000000
G01 X-272.330250 Y12.493424 Z-1.000000
G01 X-269.513904 Y12.493424 Z-1.000000
G01 X-266.697518 Y12.493424 Z-1.000000
G01 X-263.881333 Y12.493424 Z-1.000000
G01 X-261.064916 Y12.493424 Z-1.000000
G01 X-258.248619 Y12.493424 Z-1.000000
G01 X-255.432323 Y12.493424 Z-1.000000
G01 X-252.616000 Y12.493424 Z-1.000000
G01 X-249.799851 Y12.493424 Z-1.000000
G01 X-246.983649 Y12.493424 Z-1.000000
G01 X-244.167204 Y12.493424 Z-1.000000
G01 X-241.350823 Y12.493424 Z-1.000000
G01 X-238.534589 Y12.493424 Z-1.000000
G01 X-235.718409 Y12.493424 Z-1.000000
G01 X-232.902049 Y12.493424 Z-1.000000
G01 X-230.085556 Y12.493424 Z-1.000000
G01 X-227.269279 Y12.493424 Z-1.000000
G01 X-224.453125 Y12.493424 Z-1.000000
G01 X-221.636598 Y12.493424 Z-1.000000
G01 X-218.819946 Y12.493424 Z-1.000000
G01 X-216.003414 Y12.493424 Z-1.000000
G01 X-213.187258 Y12.493424 Z-1.000000
G01 X-210.371040 Y12.493424 Z-1.000000
G01 X-207.554388 Y12.493424 Z-1.000000
G01 X-204.737719 Y12.493424 Z-1.000000
G01 X-201.921511 Y12.493424 Z-1.000000
G01 X-199.104940 Y12.493424 Z-1.000000
G01 X-196.288683 Y12.493424 Z-1.000000
G01 X-193.472176 Y12.493424 Z-1.000000
G01 X-190.655679 Y12.493424 Z-1.000000
G01 X-187.839275 Y12.493424 Z-1.000000
G01 X-185.022894 Y12.493424 Z-1.000000
G01 X-182.206357 Y12.493424 Z-1.000000
G01 X-179.390015 Y12.493424 Z-1.000000
G01 X-176.573832 Y12.493424 Z-1.000000
G01 X-173.757450 Y12.493424 Z-1.000000
G01 X-170.940828 Y12.493424 Z-1.000000
G01 X-168.124252 Y12.493424 Z-1.000000
G01 X-165.307787 Y12.493424 Z-1.000000
G01 X-162.491351 Y12.493424 Z-1.000000
G01 X-159.674784 Y12.493424 Z-1.000000
G01 X-156.858424 Y12.493424 Z-1.000000
G01 X-154.042132 Y12.493424 Z-1.000000
G01 X-151.225904 Y12.493424 Z-1.000000
G01 X-148.409490 Y12.493424 Z-1.000000
G01 X-145.592984 Y12.493424 Z-1.000000
G01 X-142.776460 Y12.493424 Z-1.000000
G01 X-139.960126 Y12.493424 Z-1.000000
G01 X-137.143668 Y12.493424 Z-1.000000
G01 X-134.327316 Y12.493424 Z-1.000000
G01 X-131.510887 Y12.493424 Z-1.000000
G01 X-128.694516 Y12.493424 Z-1.000000
G01 X-125.878279 Y12.493424 Z-1.000000
G01 X-123.061707 Y12.493424 Z-1.000000
G01 X-120.245366 Y12.493424 Z-1.000000
G01 X-117.429047 Y12.493424 Z-1.000000
G01 X-114.612849 Y12.493424 Z-1.000000
G01 X-111.796292 Y12.493424 Z-1.000000
G01 X-108.980031 Y12.493424 Z-1.000000
G01 X-106.163758 Y12.493424 Z-1.000000
G01 X-103.347465 Y12.493424 Z-1.000000
G01 X-100.530888 Y12.493424 Z-1.000000
G01 X-97.714333 Y12.493424 Z-1.000000
G01 X-94.898001 Y12.493424 Z-1.000000
G01 X-92.081732 Y12.493424 Z-1.000000
G01 X-89.265172 Y12.493424 Z-1.000000
G01 X-86.448863 Y12.493424 Z-1.000000
G01 X-83.632707 Y12.493424 Z-1.000000
G01 X-80.816158 Y12.493424 Z-1.000000
G01 X-78.000020 Y12.493424 Z-1.000000
G01 X-75.268188 Y12.629783 Z-1.000000
G01 X-72.627520 Y13.153140 Z-1.000000
G01 X-70.113708 Y14.041439 Z-1.000000
G01 X-67.762446 Y15.272626 Z-1.000000
G01 X-65.609425 Y16.824647 Z-1.000000
G01 X-63.690339 Y18.675448 Z-1.000000
G01 X-62.040879 Y20.802972 Z-1.000000
G01 X-60.696738 Y23.185167 Z-1.000000
G01 X-59.615028 Y25.576936 Z-1.000000
G01 X-58.533432 Y27.968452 Z-1.000000
G01 X-57.451724 Y30.360215 Z-1.000000
G01 X-56.369969 Y32.752082 Z-1.000000
G01 X-55.401527 Y35.215229 Z-1.000000
G01 X-54.433188 Y37.678116 Z-1.000000
G01 X-53.464749 Y40.141256 Z-1.000000
G01 X-52.496267 Y42.604505 Z-1.000000
G01 X-51.640082 Y45.133818 Z-1.000000
G01 X-50.783988 Y47.662865 Z-1.000000
G01 X-49.927805 Y50.192172 Z-1.000000
G01 X-49.071585 Y52.721590 Z-1.000000
G01 X-48.326644 Y55.311858 Z-1.000000
G01 X-47.581782 Y57.901853 Z-1.000000
G01 X-46.836843 Y60.492115 Z-1.000000
G01 X-46.091871 Y63.082490 Z-1.000000
G01 X-45.457162 Y65.728502 Z-1.000000
G01 X-44.822520 Y68.374234 Z-1.000000
G01 X-44.187813 Y71.020239 Z-1.000000
G01 X-43.553077 Y73.666360 Z-1.000000
G01 X-43.027588 Y76.362903 Z-1.000000
G01 X-42.502153 Y79.059162 Z-1.000000
G01 X-41.976665 Y81.755698 Z-1.000000
G01 X-41.451154 Y84.452353 Z-1.000000
G01 X-41.033871 Y87.194216 Z-1.000000
G01 X-40.616632 Y89.935790 Z-1.000000
G01 X-40.199350 Y92.677646 Z-1.000000
G01 X-39.782050 Y95.419623 Z-1.000000
G01 X-39.471962 Y98.201595 Z-1.000000
G01 X-39.161907 Y100.983273 Z-1.000000
G01 X-38.851819 Y103.765237 Z-1.000000
G01 X-38.541718 Y106.547324 Z-1.000000
G01 X-38.378597 Y108.800769 Z-1.000000
G01 X-38.215463 Y111.054391 Z-1.000000
G01 X-38.052325 Y113.308060 Z-1.000000
G01 X-37.889197 Y115.561594 Z-1.000000
G01 X-37.726107 Y117.814609 Z-1.000000
G01 X-37.647120 Y120.091802 Z-1.000000
G01 X-37.568126 Y122.369173 Z-1.000000
G01 X-37.489131 Y124.646592 Z-1.000000
G01 X-37.410141 Y126.923875 Z-1.000000
G01 X-37.331168 Y129.200632 Z-1.000000
G01 X-37.335505 Y131.497404 Z-1.000000
G01 X-37.339842 Y133.794355 Z-1.000000
G01 X-37.344179 Y136.091354 Z-1.000000
G01 X-37.348516 Y138.388215 Z-1.000000
G01 X-37.352852 Y140.684548 Z-1.000000
G01 X-37.439703 Y142.996728 Z-1.000000
G01 X-37.526560 Y145.309090 Z-1.000000
G01 X-37.613420 Y147.621499 Z-1.000000
G01 X-37.700274 Y149.933770 Z-1.000000
G01 X-37.787108 Y152.245509 Z-1.000000
G01 X-37.955663 Y154.568929 Z-1.000000
G01 X-38.124231 Y156.892532 Z-1.000000
G01 X-38.292803 Y159.216182 Z-1.000000
G01 X-38.461365 Y161.539694 Z-1.000000
G01 X-38.629888 Y163.862670 Z-1.000000
G01 X-38.879337 Y166.193161 Z-1.000000
G01 X-39.128806 Y168.523834 Z-1.000000
G01 X-39.378280 Y170.854556 Z-1.000000
G01 X-39.627739 Y173.185138 Z-1.000000
G01 X-39.877141 Y175.515184 Z-1.000000
G01 X-40.206675 Y177.848576 Z-1.000000
G01 X-40.536234 Y180.182151 Z-1.000000
G01 X-40.865801 Y182.515775 Z-1.000000
G01 X-41.195348 Y184.849259 Z-1.000000
G01 X-41.524818 Y187.182205 Z-1.000000
G01 X-41.933627 Y189.514330 Z-1.000000
G01 X-42.342467 Y191.846637 Z-1.000000
G01 X-42.751316 Y194.178992 Z-1.000000
G01 X-43.160140 Y196.511208 Z-1.000000
G01 X-43.568871 Y198.842887 Z-1.000000
G01 X-44.056143 Y201.169575 Z-1.000000
G01 X-44.543455 Y203.496444 Z-1.000000
G01 X-45.030776 Y205.823362 Z-1.000000
G01 X-45.518068 Y208.150141 Z-1.000000
G01 X-46.005248 Y210.476384 Z-1.000000
G01 X-46.570175 Y212.793465 Z-1.000000
G01 X-47.135147 Y215.110728 Z-1.000000
G01 X-47.700131 Y217.428038 Z-1.000000
G01 X-48.265081 Y219.745211 Z-1.000000
G01 X-48.829901 Y222.061849 Z-1.000000
G01 X-49.471673 Y224.365155 Z-1.000000
G01 X-50.113496 Y226.668641 Z-1.000000
G01 X-50.755332 Y228.972174 Z-1.000000
G01 X-51.397130 Y231.275571 Z-1.000000
G01 X-52.038779 Y233.578436 Z-1.000000
G01 X-52.756587 Y235.863797 Z-1.000000
G01 X-53.474450 Y238.149337 Z-1.000000
G01 X-54.192329 Y240.434924 Z-1.000000
G01 X-54.910164 Y242.720375 Z-1.000000
G01 X-55.627835 Y245.005299 Z-1.000000
G01 X-56.420867 Y247.268546 Z-1.000000
G01 X-57.213962 Y249.531971 Z-1.000000
G01 X-58.007072 Y251.795442 Z-1.000000
G01 X-58.800136 Y254.058778 Z-1.000000
G01 X-59.593017 Y256.321592 Z-1.000000
G01 X-60.460464 Y258.558556 Z-1.000000
G01 X-61.327980 Y260.795695 Z-1.000000
G01 X-62.195513 Y263.032880 Z-1.000000
G01 X-63.062995 Y265.269932 Z-1.000000
G01 X-63.930277 Y267.506469 Z-1.000000
G01 X-64.871329 Y269.712980 Z-1.000000
G01 X-65.812456 Y271.919664 Z-1.000000
G01 X-66.753601 Y274.126394 Z-1.000000
G01 X-67.694691 Y276.332992 Z-1.000000
G01 X-68.635564 Y278.539082 Z-1.000000
G01 X-69.649412 Y280.710972 Z-1.000000
G01 X-70.663339 Y282.883032 Z-1.000000
G01 X-71.677288 Y285.055137 Z-1.000000
G01 X-72.691176 Y287.227112 Z-1.000000
G01 X-73.704830 Y289.398587 Z-1.000000
G01 X-74.790663 Y291.531686 Z-1.000000
G01 X-75.876582 Y293.664952 Z-1.000000
G01 X-76.962522 Y295.798262 Z-1.000000
G01 X-78.048399 Y297.931445 Z-1.000000
G01 X-79.134024 Y300.064136 Z-1.000000
G01 X-80.291033 Y302.154275 Z-1.000000
G01 X-81.448133 Y304.244577 Z-1.000000
G01 X-82.605256 Y306.334923 Z-1.000000
G01 X-83.762310 Y308.425144 Z-1.000000
G01 X-84.919098 Y310.514884 Z-1.000000
G01 X-86.146473 Y312.557893 Z-1.000000
G01 X-87.373943 Y314.601063 Z-1.000000
G01 X-88.601439 Y316.644275 Z-1.000000
G01 X-89.828862 Y318.687365 Z-1.000000
G01 X-91.056002 Y320.729984 Z-1.000000
G01 X-92.352932 Y322.721695 Z-1.000000
G01 X-93.649963 Y324.713562 Z-1.000000
G01 X-94.947022 Y326.705470 Z-1.000000
G01 X-96.244003 Y328.697260 Z-1.000000
G01 X-97.540685 Y330.688590 Z-1.000000
G01 X-98.906361 Y332.624833 Z-1.000000
G01 X-100.272144 Y334.561228 Z-1.000000
G01 X-101.637955 Y336.497663 Z-1.000000
G01 X-103.003684 Y338.433983 Z-1.000000
G01 X-104.369099 Y340.369856 Z-1.000000
G01 X-105.802711 Y342.246463 Z-1.000000
G01 X-107.236435 Y344.123216 Z-1.000000
G01 X-108.670189 Y346.000008 Z-1.000000
G01 X-110.103857 Y347.876688 Z-1.000000
G01 X-111.537195 Y349.752936 Z-1.000000
G01 X-113.037932 Y351.565736 Z-1.000000
G01 X-114.538787 Y353.378678 Z-1.000000
G01 X-116.039674 Y355.191658 Z-1.000000
G01 X-117.540470 Y357.004529 Z-1.000000
G01 X-119.040921 Y358.816983 Z-1.000000
G01 X-120.607975 Y360.561808 Z-1.000000
G01 X-122.175151 Y362.306769 Z-1.000000
G01 X-123.742360 Y364.051766 Z-1.000000
G01 X-125.309476 Y365.796660 Z-1.000000
G01 X-126.876230 Y367.541151 Z-1.000000
G01 X-128.584634 Y369.069311 Z-1.000000
G01 X-130.293038 Y370.597471 Z-1.000000
G01 X-132.143754 Y371.719372 Z-1.000000
G01 X-133.994471 Y372.841274 Z-1.000000
G01 X-135.931541 Y373.550333 Z-1.000000
G01 X-137.868612 Y374.259392 Z-1.000000
G01 X-139.836078 Y374.549024 Z-1.000000
G01 X-141.803545 Y374.838656 Z-1.000000
G01 X-141.803545 Y374.838656 Z-1.000000
G00 Z5.000000

(End cutting path id: path12)


(Start cutting path id: path12)
(Change tool to Default tool)

G00 Z5.000000
G00 X9.011272 Y672.206109

G01 Z-1.000000 F100.0(Penetrate)
G01 X6.650526 Y672.047902 Z-1.000000 F400.000000
G01 X4.294640 Y671.567061 Z-1.000000
G01 X1.971595 Y670.762516 Z-1.000000
G01 X-0.290631 Y669.633195 Z-1.000000
G01 X-2.464057 Y668.178027 Z-1.000000
G01 X-4.520705 Y666.395939 Z-1.000000
G01 X-5.476649 Y665.340900 Z-1.000000
G01 X-6.432593 Y664.285860 Z-1.000000
G01 X-7.302168 Y663.066290 Z-1.000000
G01 X-8.171743 Y661.846719 Z-1.000000
G01 X-9.538822 Y659.599202 Z-1.000000
G01 X-10.905778 Y657.351886 Z-1.000000
G01 X-12.272790 Y655.104479 Z-1.000000
G01 X-13.639816 Y652.857048 Z-1.000000
G01 X-15.006918 Y650.609492 Z-1.000000
G01 X-16.373862 Y648.362196 Z-1.000000
G01 X-17.648041 Y646.101302 Z-1.000000
G01 X-18.922105 Y643.840612 Z-1.000000
G01 X-20.196221 Y641.579829 Z-1.000000
G01 X-21.470351 Y639.319022 Z-1.000000
G01 X-22.744551 Y637.058089 Z-1.000000
G01 X-24.018604 Y634.797419 Z-1.000000
G01 X-25.201190 Y632.524827 Z-1.000000
G01 X-26.383670 Y630.252439 Z-1.000000
G01 X-27.566198 Y627.979959 Z-1.000000
G01 X-28.748738 Y625.707455 Z-1.000000
G01 X-29.931345 Y623.434824 Z-1.000000
G01 X-31.113814 Y621.162457 Z-1.000000
G01 X-32.206114 Y618.879845 Z-1.000000
G01 X-33.298317 Y616.597438 Z-1.000000
G01 X-34.390564 Y614.314939 Z-1.000000
G01 X-35.482822 Y612.032415 Z-1.000000
G01 X-36.575141 Y609.749764 Z-1.000000
G01 X-37.667334 Y607.467378 Z-1.000000
G01 X-38.670656 Y605.176425 Z-1.000000
G01 X-39.673888 Y602.885677 Z-1.000000
G01 X-40.677162 Y600.594836 Z-1.000000
G01 X-41.680445 Y598.303972 Z-1.000000
G01 X-42.683785 Y596.012979 Z-1.000000
G01 X-43.687008 Y593.722252 Z-1.000000
G01 X-44.602659 Y591.424635 Z-1.000000
G01 X-45.518228 Y589.127225 Z-1.000000
G01 X-46.433835 Y586.829721 Z-1.000000
G01 X-47.349451 Y584.532193 Z-1.000000
G01 X-48.265118 Y582.234537 Z-1.000000
G01 X-49.180679 Y579.937148 Z-1.000000
G01 X-50.009966 Y577.634546 Z-1.000000
G01 X-50.839179 Y575.332151 Z-1.000000
G01 X-51.668426 Y573.029662 Z-1.000000
G01 X-52.497682 Y570.727149 Z-1.000000
G01 X-53.326984 Y568.424508 Z-1.000000
G01 X-54.156190 Y566.122134 Z-1.000000
G01 X-54.900421 Y563.816225 Z-1.000000
G01 X-55.644585 Y561.510524 Z-1.000000
G01 X-56.388780 Y559.204728 Z-1.000000
G01 X-57.132983 Y556.898908 Z-1.000000
G01 X-57.877226 Y554.592960 Z-1.000000
G01 X-58.621384 Y552.287279 Z-1.000000
G01 X-59.281866 Y549.979742 Z-1.000000
G01 X-59.942289 Y547.672412 Z-1.000000
G01 X-60.602739 Y545.364988 Z-1.000000
G01 X-61.263195 Y543.057539 Z-1.000000
G01 X-61.923689 Y540.749963 Z-1.000000
G01 X-62.584106 Y538.442653 Z-1.000000
G01 X-63.162146 Y536.135165 Z-1.000000
G01 X-63.740134 Y533.827885 Z-1.000000
G01 X-64.318146 Y531.520510 Z-1.000000
G01 X-64.896164 Y529.213111 Z-1.000000
G01 X-65.474214 Y526.905584 Z-1.000000
G01 X-66.052197 Y524.598324 Z-1.000000
G01 X-66.549103 Y522.292564 Z-1.000000
G01 X-67.045964 Y519.987011 Z-1.000000
G01 X-67.542845 Y517.681364 Z-1.000000
G01 X-68.039731 Y515.375693 Z-1.000000
G01 X-68.536645 Y513.069893 Z-1.000000
G01 X-69.033502 Y510.764361 Z-1.000000
G01 X-69.533972 Y508.001670 Z-1.000000
G01 X-70.034481 Y505.238762 Z-1.000000
G01 X-70.534936 Y502.476149 Z-1.000000
G01 X-71.035373 Y499.713640 Z-1.000000
G01 X-71.535864 Y496.950833 Z-1.000000
G01 X-71.942114 Y494.194242 Z-1.000000
G01 X-72.348396 Y491.437436 Z-1.000000
G01 X-72.754634 Y488.680924 Z-1.000000
G01 X-73.160858 Y485.924515 Z-1.000000
G01 X-73.567125 Y483.167809 Z-1.000000
G01 X-73.880724 Y480.419333 Z-1.000000
G01 X-74.194348 Y477.670641 Z-1.000000
G01 X-74.507939 Y474.922243 Z-1.000000
G01 X-74.821517 Y472.173948 Z-1.000000
G01 X-75.135130 Y469.425358 Z-1.000000
G01 X-75.357647 Y466.687010 Z-1.000000
G01 X-75.580181 Y463.948448 Z-1.000000
G01 X-75.802692 Y461.210178 Z-1.000000
G01 X-76.025194 Y458.472010 Z-1.000000
G01 X-76.247721 Y455.733548 Z-1.000000
G01 X-76.380724 Y453.007342 Z-1.000000
G01 X-76.513738 Y450.280923 Z-1.000000
G01 X-76.646738 Y447.554795 Z-1.000000
G01 X-76.779733 Y444.828769 Z-1.000000
G01 X-76.912742 Y442.102449 Z-1.000000
G01 X-76.957800 Y439.390399 Z-1.000000
G01 X-77.002862 Y436.678137 Z-1.000000
G01 X-77.047920 Y433.966164 Z-1.000000
G01 X-77.092975 Y431.254293 Z-1.000000
G01 X-77.138036 Y428.542130 Z-1.000000
G01 X-77.096718 Y425.846249 Z-1.000000
G01 X-77.055397 Y423.150158 Z-1.000000
G01 X-77.014081 Y420.454354 Z-1.000000
G01 X-76.972766 Y417.758651 Z-1.000000
G01 X-76.931446 Y415.062659 Z-1.000000
G01 X-76.805321 Y412.384962 Z-1.000000
G01 X-76.679185 Y409.707055 Z-1.000000
G01 X-76.553064 Y407.029434 Z-1.000000
G01 X-76.426947 Y404.351914 Z-1.000000
G01 X-76.300816 Y401.674105 Z-1.000000
G01 X-76.091452 Y399.016605 Z-1.000000
G01 X-75.882071 Y396.358897 Z-1.000000
G01 X-75.672712 Y393.701473 Z-1.000000
G01 X-75.463362 Y391.044148 Z-1.000000
G01 X-75.253989 Y388.386538 Z-1.000000
G01 X-74.962954 Y385.751249 Z-1.000000
G01 X-74.671897 Y383.115753 Z-1.000000
G01 X-74.380870 Y380.480539 Z-1.000000
G01 X-74.089855 Y377.845424 Z-1.000000
G01 X-73.798808 Y375.210025 Z-1.000000
G01 X-73.427671 Y372.598961 Z-1.000000
G01 X-73.056506 Y369.987692 Z-1.000000
G01 X-72.685380 Y367.376702 Z-1.000000
G01 X-72.314268 Y364.765810 Z-1.000000
G01 X-71.943116 Y362.154637 Z-1.000000
G01 X-71.493447 Y359.569811 Z-1.000000
G01 X-71.043742 Y356.984783 Z-1.000000
G01 X-70.594085 Y354.400030 Z-1.000000
G01 X-70.144445 Y351.815375 Z-1.000000
G01 X-69.694757 Y349.230442 Z-1.000000
G01 X-69.168123 Y346.673868 Z-1.000000
G01 X-68.641448 Y344.117094 Z-1.000000
G01 X-68.114829 Y341.560593 Z-1.000000
G01 X-67.588230 Y339.004188 Z-1.000000
G01 X-67.061574 Y336.447508 Z-1.000000
G01 X-66.459545 Y333.921200 Z-1.000000
G01 X-65.857468 Y331.394695 Z-1.000000
G01 X-65.255455 Y328.868459 Z-1.000000
G01 X-64.653368 Y326.341908 Z-1.000000
G01 X-64.051411 Y323.815905 Z-1.000000
G01 X-63.375554 Y321.321877 Z-1.000000
G01 X-62.699644 Y318.827654 Z-1.000000
G01 X-62.023807 Y316.333697 Z-1.000000
G01 X-61.347885 Y313.839429 Z-1.000000
G01 X-60.672110 Y311.345702 Z-1.000000
G01 X-59.923994 Y308.885968 Z-1.000000
G01 X-59.175820 Y306.426041 Z-1.000000
G01 X-58.427727 Y303.966376 Z-1.000000
G01 X-57.679539 Y301.506405 Z-1.000000
G01 X-56.931514 Y299.046968 Z-1.000000
G01 X-56.112709 Y296.623541 Z-1.000000
G01 X-55.293840 Y294.199924 Z-1.000000
G01 X-54.475058 Y291.776566 Z-1.000000
G01 X-53.656174 Y289.352905 Z-1.000000
G01 X-52.837468 Y286.929770 Z-1.000000
G01 X-51.949542 Y284.544665 Z-1.000000
G01 X-51.061546 Y282.159372 Z-1.000000
G01 X-50.173645 Y279.774334 Z-1.000000
G01 X-49.285633 Y277.388998 Z-1.000000
G01 X-48.397814 Y275.004180 Z-1.000000
G01 X-47.442336 Y272.659409 Z-1.000000
G01 X-46.486782 Y270.314454 Z-1.000000
G01 X-45.531330 Y267.969750 Z-1.000000
G01 X-44.575760 Y265.624753 Z-1.000000
G01 X-43.620396 Y263.280264 Z-1.000000
G01 X-42.598933 Y260.977842 Z-1.000000
G01 X-41.577391 Y258.675239 Z-1.000000
G01 X-40.555957 Y256.372882 Z-1.000000
G01 X-39.534396 Y254.070238 Z-1.000000
G01 X-38.513057 Y251.768093 Z-1.000000
G01 X-37.427179 Y249.510033 Z-1.000000
G01 X-36.341216 Y247.251796 Z-1.000000
G01 X-35.255369 Y244.993800 Z-1.000000
G01 X-34.169387 Y242.735523 Z-1.000000
G01 X-33.083640 Y240.477735 Z-1.000000
G01 X-31.834822 Y237.980002 Z-1.000000
G01 X-30.586076 Y235.482415 Z-1.000000
G01 X-29.337215 Y232.984596 Z-1.000000
G01 X-28.088495 Y230.487061 Z-1.000000
G01 X-26.839687 Y227.989348 Z-1.000000
G01 X-25.590997 Y225.491872 Z-1.000000
G01 X-24.342183 Y222.994146 Z-1.000000
G01 X-23.093452 Y220.496590 Z-1.000000
G01 X-21.844708 Y217.999005 Z-1.000000
G01 X-20.595991 Y215.501475 Z-1.000000
G01 X-19.347212 Y213.003819 Z-1.000000
G01 X-18.098366 Y210.506032 Z-1.000000
G01 X-16.849503 Y208.008208 Z-1.000000
G01 X-15.600687 Y205.510481 Z-1.000000
G01 X-14.352045 Y203.013101 Z-1.000000
G01 X-13.103195 Y200.515305 Z-1.000000
G01 X-11.854439 Y198.017697 Z-1.000000
G01 X-10.605771 Y195.520264 Z-1.000000
G01 X-9.356927 Y193.022480 Z-1.000000
G01 X-8.108179 Y190.524888 Z-1.000000
G01 X-6.859447 Y188.027328 Z-1.000000
G01 X-5.610701 Y185.529739 Z-1.000000
G01 X-4.361985 Y183.032209 Z-1.000000
G01 X-3.113251 Y180.534647 Z-1.000000
G01 X-1.864567 Y178.037181 Z-1.000000
G01 X-0.615750 Y175.539451 Z-1.000000
G01 X0.633056 Y173.041743 Z-1.000000
G01 X1.881931 Y170.543897 Z-1.000000
G01 X3.130799 Y168.046064 Z-1.000000
G01 X4.379607 Y165.548353 Z-1.000000
G01 X5.628314 Y163.050842 Z-1.000000
G01 X6.877072 Y160.553231 Z-1.000000
G01 X8.125847 Y158.055583 Z-1.000000
G01 X9.374606 Y155.557970 Z-1.000000
G01 X10.623480 Y153.060124 Z-1.000000
G01 X11.872238 Y150.562513 Z-1.000000
G01 X13.120978 Y148.064936 Z-1.000000
G01 X14.369775 Y145.567246 Z-1.000000
G01 X15.618504 Y143.069692 Z-1.000000
G01 X16.867178 Y140.572248 Z-1.000000
G01 X18.115938 Y138.074631 Z-1.000000
G01 X19.364714 Y135.576983 Z-1.000000
G01 X20.613392 Y133.079530 Z-1.000000
G01 X21.862128 Y130.581962 Z-1.000000
G01 X23.110856 Y128.084411 Z-1.000000
G01 X24.359601 Y125.586824 Z-1.000000
G01 X25.608468 Y123.088992 Z-1.000000
G01 X26.857332 Y120.591169 Z-1.000000
G01 X28.105991 Y118.093755 Z-1.000000
G01 X29.354731 Y115.596178 Z-1.000000
G01 X30.603441 Y113.098663 Z-1.000000
G01 X31.852177 Y110.601094 Z-1.000000
G01 X33.100871 Y108.103609 Z-1.000000
G01 X34.349587 Y105.606082 Z-1.000000
G01 X35.598235 Y103.108689 Z-1.000000
G01 X36.847068 Y100.610927 Z-1.000000
G01 X38.095894 Y98.113179 Z-1.000000
G01 X39.344577 Y95.615715 Z-1.000000
G01 X40.593234 Y93.118306 Z-1.000000
G01 X41.841945 Y90.620787 Z-1.000000
G01 X43.090725 Y88.123131 Z-1.000000
G01 X44.339491 Y85.625503 Z-1.000000
G01 X45.588229 Y83.127931 Z-1.000000
G01 X46.836929 Y80.630435 Z-1.000000
G01 X48.085706 Y78.132785 Z-1.000000
G01 X49.334520 Y75.635059 Z-1.000000
G01 X50.583286 Y73.137431 Z-1.000000
G01 X51.831937 Y70.640034 Z-1.000000
G01 X53.080601 Y68.142609 Z-1.000000
G01 X54.329403 Y65.644909 Z-1.000000
G01 X55.578256 Y63.147107 Z-1.000000
G01 X56.826934 Y60.649654 Z-1.000000
G01 X58.075807 Y58.151812 Z-1.000000
G01 X59.324572 Y55.654185 Z-1.000000
G01 X60.573248 Y53.156736 Z-1.000000
G01 X61.822013 Y50.659110 Z-1.000000
G01 X63.070786 Y48.161468 Z-1.000000
G01 X64.319584 Y45.663776 Z-1.000000
G01 X65.568382 Y43.166085 Z-1.000000
G01 X66.817234 Y40.668283 Z-1.000000
G01 X68.066052 Y38.170551 Z-1.000000
G01 X69.314897 Y35.672765 Z-1.000000
G01 X70.563582 Y33.175299 Z-1.000000
G01 X71.812179 Y30.678008 Z-1.000000
G01 X73.060877 Y28.180516 Z-1.000000
G01 X74.309592 Y25.682990 Z-1.000000
G01 X75.558455 Y23.185167 Z-1.000000
G01 X76.941672 Y20.844741 Z-1.000000
G01 X78.612822 Y18.750723 Z-1.000000
G01 X80.539198 Y16.923332 Z-1.000000
G01 X82.688093 Y15.382786 Z-1.000000
G01 X85.026798 Y14.149304 Z-1.000000
G01 X87.522606 Y13.243104 Z-1.000000
G01 X90.142808 Y12.684404 Z-1.000000
G01 X92.854698 Y12.493424 Z-1.000000
G01 X95.670928 Y12.493424 Z-1.000000
G01 X98.487429 Y12.493424 Z-1.000000
G01 X101.303704 Y12.493424 Z-1.000000
G01 X104.120226 Y12.493424 Z-1.000000
G01 X106.936763 Y12.493424 Z-1.000000
G01 X109.753133 Y12.493424 Z-1.000000
G01 X112.569475 Y12.493424 Z-1.000000
G01 X115.385708 Y12.493424 Z-1.000000
G01 X118.201903 Y12.493424 Z-1.000000
G01 X121.018113 Y12.493424 Z-1.000000
G01 X123.834513 Y12.493424 Z-1.000000
G01 X126.650859 Y12.493424 Z-1.000000
G01 X129.467245 Y12.493424 Z-1.000000
G01 X132.283430 Y12.493424 Z-1.000000
G01 X135.099847 Y12.493424 Z-1.000000
G01 X137.916145 Y12.493424 Z-1.000000
G01 X140.732441 Y12.493424 Z-1.000000
G01 X143.548764 Y12.493424 Z-1.000000
G01 X146.364913 Y12.493424 Z-1.000000
G01 X149.181115 Y12.493424 Z-1.000000
G01 X151.997560 Y12.493424 Z-1.000000
G01 X154.813942 Y12.493424 Z-1.000000
G01 X157.630175 Y12.493424 Z-1.000000
G01 X160.446356 Y12.493424 Z-1.000000
G01 X163.262716 Y12.493424 Z-1.000000
G01 X166.079209 Y12.493424 Z-1.000000
G01 X168.895486 Y12.493424 Z-1.000000
G01 X171.711640 Y12.493424 Z-1.000000
G01 X174.528167 Y12.493424 Z-1.000000
G01 X177.344819 Y12.493424 Z-1.000000
G01 X180.161351 Y12.493424 Z-1.000000
G01 X182.977507 Y12.493424 Z-1.000000
G01 X185.793725 Y12.493424 Z-1.000000
G01 X188.610378 Y12.493424 Z-1.000000
G01 X191.427047 Y12.493424 Z-1.000000
G01 X194.243254 Y12.493424 Z-1.000000
G01 X197.059826 Y12.493424 Z-1.000000
G01 X199.876083 Y12.493424 Z-1.000000
G01 X202.692590 Y12.493424 Z-1.000000
G01 X205.509087 Y12.493424 Z-1.000000
G01 X208.325492 Y12.493424 Z-1.000000
G01 X211.141872 Y12.493424 Z-1.000000
G01 X213.958410 Y12.493424 Z-1.000000
G01 X216.774752 Y12.493424 Z-1.000000
G01 X219.590935 Y12.493424 Z-1.000000
G01 X222.407317 Y12.493424 Z-1.000000
G01 X225.223939 Y12.493424 Z-1.000000
G01 X228.040515 Y12.493424 Z-1.000000
G01 X230.856980 Y12.493424 Z-1.000000
G01 X233.673416 Y12.493424 Z-1.000000
G01 X236.489983 Y12.493424 Z-1.000000
G01 X239.306343 Y12.493424 Z-1.000000
G01 X242.122636 Y12.493424 Z-1.000000
G01 X244.938864 Y12.493424 Z-1.000000
G01 X247.755277 Y12.493424 Z-1.000000
G01 X250.571784 Y12.493424 Z-1.000000
G01 X253.388308 Y12.493424 Z-1.000000
G01 X256.204642 Y12.493424 Z-1.000000
G01 X259.021100 Y12.493424 Z-1.000000
G01 X261.837452 Y12.493424 Z-1.000000
G01 X264.653881 Y12.493424 Z-1.000000
G01 X267.470253 Y12.493424 Z-1.000000
G01 X270.286490 Y12.493424 Z-1.000000
G01 X273.103062 Y12.493424 Z-1.000000
G01 X275.919402 Y12.493424 Z-1.000000
G01 X278.735722 Y12.493424 Z-1.000000
G01 X281.551920 Y12.493424 Z-1.000000
G01 X284.368477 Y12.493424 Z-1.000000
G01 X287.184738 Y12.493424 Z-1.000000
G01 X290.001011 Y12.493424 Z-1.000000
G01 X292.817305 Y12.493424 Z-1.000000
G01 X295.633881 Y12.493424 Z-1.000000
G01 X298.450437 Y12.493424 Z-1.000000
G01 X301.266769 Y12.493424 Z-1.000000
G01 X304.083037 Y12.493424 Z-1.000000
G01 X306.899598 Y12.493424 Z-1.000000
G01 X309.715907 Y12.493424 Z-1.000000
G01 X312.532063 Y12.493424 Z-1.000000
G01 X315.348613 Y12.493424 Z-1.000000
G01 X318.164750 Y12.493424 Z-1.000000
G01 X320.651994 Y12.653737 Z-1.000000
G01 X323.068348 Y13.124994 Z-1.000000
G01 X325.387750 Y13.892662 Z-1.000000
G01 X327.584138 Y14.942206 Z-1.000000
G01 X329.631447 Y16.259094 Z-1.000000
G01 X331.503615 Y17.828791 Z-1.000000
G01 X333.174580 Y19.636764 Z-1.000000
G01 X334.618277 Y21.668479 Z-1.000000
G01 X335.789204 Y23.868721 Z-1.000000
G01 X336.658343 Y26.172090 Z-1.000000
G01 X337.224362 Y28.548773 Z-1.000000
G01 X337.485923 Y30.968960 Z-1.000000
G01 X337.441694 Y33.402838 Z-1.000000
G01 X337.090338 Y35.820595 Z-1.000000
G01 X336.430521 Y38.192421 Z-1.000000
G01 X335.460909 Y40.488503 Z-1.000000
G01 X334.202836 Y43.004721 Z-1.000000
G01 X332.944746 Y45.520973 Z-1.000000
G01 X331.686742 Y48.037053 Z-1.000000
G01 X330.428738 Y50.553134 Z-1.000000
G01 X329.170833 Y53.069016 Z-1.000000
G01 X327.912824 Y55.585105 Z-1.000000
G01 X326.654913 Y58.100999 Z-1.000000
G01 X325.396843 Y60.617212 Z-1.000000
G01 X324.138895 Y63.133180 Z-1.000000
G01 X322.880811 Y65.649422 Z-1.000000
G01 X321.622849 Y68.165417 Z-1.000000
G01 X320.364857 Y70.681473 Z-1.000000
G01 X319.106805 Y73.197650 Z-1.000000
G01 X317.848845 Y75.713642 Z-1.000000
G01 X316.590844 Y78.229715 Z-1.000000
G01 X315.332759 Y80.745959 Z-1.000000
G01 X314.074795 Y83.261959 Z-1.000000
G01 X312.816726 Y85.778169 Z-1.000000
G01 X311.558779 Y88.294136 Z-1.000000
G01 X310.300675 Y90.810416 Z-1.000000
G01 X309.042726 Y93.326386 Z-1.000000
G01 X307.784607 Y95.842696 Z-1.000000
G01 X306.526677 Y98.358628 Z-1.000000
G01 X305.268705 Y100.874644 Z-1.000000
G01 X304.010765 Y103.390597 Z-1.000000
G01 X302.752814 Y105.906570 Z-1.000000
G01 X301.494705 Y108.422862 Z-1.000000
G01 X300.236658 Y110.939028 Z-1.000000
G01 X298.978586 Y113.455243 Z-1.000000
G01 X297.720567 Y115.971355 Z-1.000000
G01 X296.462613 Y118.487335 Z-1.000000
G01 X295.204682 Y121.003269 Z-1.000000
G01 X293.946679 Y123.519348 Z-1.000000
G01 X292.688705 Y126.035368 Z-1.000000
G01 X291.430575 Y128.551700 Z-1.000000
G01 X290.172559 Y131.067804 Z-1.000000
G01 X288.914649 Y133.583696 Z-1.000000
G01 X287.656556 Y136.099955 Z-1.000000
G01 X286.398459 Y138.616220 Z-1.000000
G01 X285.140517 Y141.132177 Z-1.000000
G01 X283.882612 Y143.648060 Z-1.000000
G01 X282.624603 Y146.164150 Z-1.000000
G01 X281.366584 Y148.680261 Z-1.000000
G01 X280.108630 Y151.196240 Z-1.000000
G01 X278.850546 Y153.712481 Z-1.000000
G01 X277.592632 Y156.228380 Z-1.000000
G01 X276.334662 Y158.744392 Z-1.000000
G01 X275.076653 Y161.260483 Z-1.000000
G01 X273.818610 Y163.776642 Z-1.000000
G01 X272.560526 Y166.292882 Z-1.000000
G01 X271.302385 Y168.809237 Z-1.000000
G01 X270.044422 Y171.325235 Z-1.000000
G01 X268.786340 Y173.841471 Z-1.000000
G01 X267.528358 Y176.357507 Z-1.000000
G01 X266.270424 Y178.873447 Z-1.000000
G01 X265.012481 Y181.389407 Z-1.000000
G01 X263.754460 Y183.905519 Z-1.000000
G01 X262.496555 Y186.421401 Z-1.000000
G01 X261.238424 Y188.937737 Z-1.000000
G01 X259.980510 Y191.453638 Z-1.000000
G01 X258.722460 Y193.969809 Z-1.000000
G01 X257.464446 Y196.485909 Z-1.000000
G01 X256.206370 Y199.002134 Z-1.000000
G01 X254.948393 Y201.518160 Z-1.000000
G01 X253.690410 Y204.034198 Z-1.000000
G01 X252.432312 Y206.550467 Z-1.000000
G01 X251.174249 Y209.066665 Z-1.000000
G01 X249.916106 Y211.583022 Z-1.000000
G01 X248.658029 Y214.099249 Z-1.000000
G01 X247.399896 Y216.615587 Z-1.000000
G01 X246.141848 Y219.131757 Z-1.000000
G01 X244.883757 Y221.648009 Z-1.000000
G01 X243.625761 Y224.164074 Z-1.000000
G01 X242.367729 Y226.680210 Z-1.000000
G01 X241.109793 Y229.196155 Z-1.000000
G01 X239.851820 Y231.712174 Z-1.000000
G01 X238.593675 Y234.228536 Z-1.000000
G01 X237.335748 Y236.744462 Z-1.000000
G01 X236.077640 Y239.260750 Z-1.000000
G01 X234.819737 Y241.776628 Z-1.000000
G01 X233.561640 Y244.292895 Z-1.000000
G01 X232.303731 Y246.808786 Z-1.000000
G01 X231.045610 Y249.325098 Z-1.000000
G01 X229.787659 Y251.841073 Z-1.000000
G01 X228.529736 Y254.356992 Z-1.000000
G01 X227.271701 Y256.873133 Z-1.000000
G01 X226.013674 Y259.389261 Z-1.000000
G01 X224.755770 Y261.905140 Z-1.000000
G01 X223.497851 Y264.421051 Z-1.000000
G01 X222.239777 Y266.937272 Z-1.000000
G01 X220.981665 Y269.453568 Z-1.000000
G01 X219.723631 Y271.969707 Z-1.000000
G01 X218.465539 Y274.485965 Z-1.000000
G01 X217.207503 Y277.002109 Z-1.000000
G01 X215.949387 Y279.518413 Z-1.000000
G01 X214.691308 Y282.034643 Z-1.000000
G01 X213.433382 Y284.550568 Z-1.000000
G01 X212.175473 Y287.066458 Z-1.000000
G01 X210.917450 Y289.582576 Z-1.000000
G01 X209.659430 Y292.098688 Z-1.000000
G01 X208.401530 Y294.614559 Z-1.000000
G01 X207.143622 Y297.130448 Z-1.000000
G01 X205.885578 Y299.646609 Z-1.000000
G01 X204.627518 Y302.162801 Z-1.000000
G01 X203.369562 Y304.678785 Z-1.000000
G01 X202.111587 Y307.194807 Z-1.000000
G01 X200.853473 Y309.711109 Z-1.000000
G01 X199.595342 Y312.227443 Z-1.000000
G01 X198.337318 Y314.743563 Z-1.000000
G01 X197.079284 Y317.259702 Z-1.000000
G01 X195.821366 Y319.775611 Z-1.000000
G01 X194.563451 Y322.291513 Z-1.000000
G01 X193.305431 Y324.807625 Z-1.000000
G01 X192.047435 Y327.323690 Z-1.000000
G01 X190.789358 Y329.839915 Z-1.000000
G01 X189.531333 Y332.356038 Z-1.000000
G01 X188.273260 Y334.872257 Z-1.000000
G01 X187.015272 Y337.388304 Z-1.000000
G01 X185.757276 Y339.904370 Z-1.000000
G01 X184.499178 Y342.420637 Z-1.000000
G01 X183.241120 Y344.936825 Z-1.000000
G01 X181.983016 Y347.453107 Z-1.000000
G01 X180.725006 Y349.969198 Z-1.000000
G01 X179.467011 Y352.485260 Z-1.000000
G01 X178.208954 Y355.001446 Z-1.000000
G01 X176.950984 Y357.517460 Z-1.000000
G01 X175.693027 Y360.033445 Z-1.000000
G01 X174.435019 Y362.549533 Z-1.000000
G01 X173.176897 Y365.065850 Z-1.000000
G01 X171.918818 Y367.582080 Z-1.000000
G01 X170.660727 Y370.098335 Z-1.000000
G01 X169.402783 Y372.614295 Z-1.000000
G01 X168.144725 Y375.130484 Z-1.000000
G01 X166.886720 Y377.646566 Z-1.000000
G01 X165.628727 Y380.162624 Z-1.000000
G01 X164.370709 Y382.678731 Z-1.000000
G01 X163.112636 Y385.194950 Z-1.000000
G01 X161.854685 Y387.710925 Z-1.000000
G01 X160.596626 Y390.227114 Z-1.000000
G01 X159.338647 Y392.743146 Z-1.000000
G01 X158.080730 Y395.259051 Z-1.000000
G01 X156.822667 Y397.775249 Z-1.000000
G01 X155.564654 Y400.291348 Z-1.000000
G01 X154.306691 Y402.807346 Z-1.000000
G01 X153.048588 Y405.323625 Z-1.000000
G01 X151.790552 Y407.839769 Z-1.000000
G01 X150.532407 Y410.356130 Z-1.000000
G01 X149.274369 Y412.872279 Z-1.000000
G01 X148.016274 Y415.388541 Z-1.000000
G01 X146.758346 Y417.904471 Z-1.000000
G01 X145.500433 Y420.420367 Z-1.000000
G01 X144.242399 Y422.936508 Z-1.000000
G01 X142.984481 Y425.452416 Z-1.000000
G01 X141.726555 Y427.968341 Z-1.000000
G01 X140.468507 Y430.484509 Z-1.000000
G01 X139.210592 Y433.000412 Z-1.000000
G01 X137.952533 Y435.516602 Z-1.000000
G01 X136.694597 Y438.032547 Z-1.000000
G01 X135.436528 Y440.548757 Z-1.000000
G01 X134.178605 Y443.064674 Z-1.000000
G01 X132.920596 Y445.580766 Z-1.000000
G01 X131.662452 Y448.097126 Z-1.000000
G01 X130.404305 Y450.613491 Z-1.000000
G01 X129.146294 Y453.129586 Z-1.000000
G01 X127.888396 Y455.645455 Z-1.000000
G01 X126.630438 Y458.161443 Z-1.000000
G01 X125.372427 Y460.677538 Z-1.000000
G01 X124.114380 Y463.193703 Z-1.000000
G01 X122.856328 Y465.709879 Z-1.000000
G01 X121.598311 Y468.225986 Z-1.000000
G01 X120.340381 Y470.741918 Z-1.000000
G01 X119.082299 Y473.258155 Z-1.000000
G01 X117.824299 Y475.774227 Z-1.000000
G01 X116.566176 Y478.290545 Z-1.000000
G01 X115.308190 Y480.806589 Z-1.000000
G01 X114.050170 Y483.322701 Z-1.000000
G01 X112.792257 Y485.838600 Z-1.000000
G01 X111.534318 Y488.354551 Z-1.000000
G01 X110.276246 Y490.870766 Z-1.000000
G01 X109.018236 Y493.386858 Z-1.000000
G01 X107.760220 Y495.902963 Z-1.000000
G01 X106.502154 Y498.419167 Z-1.000000
G01 X105.244020 Y500.935508 Z-1.000000
G01 X103.986085 Y503.451449 Z-1.000000
G01 X102.728111 Y505.967469 Z-1.000000
G01 X101.470152 Y508.483460 Z-1.000000
G01 X100.212034 Y510.999768 Z-1.000000
G01 X98.954119 Y513.515671 Z-1.000000
G01 X97.696044 Y516.031893 Z-1.000000
G01 X96.437981 Y518.548092 Z-1.000000
G01 X95.179886 Y521.064353 Z-1.000000
G01 X93.921989 Y523.580220 Z-1.000000
G01 X92.664081 Y526.096108 Z-1.000000
G01 X91.406007 Y528.612328 Z-1.000000
G01 X90.148106 Y531.128203 Z-1.000000
G01 X88.890085 Y533.644317 Z-1.000000
G01 X87.631931 Y536.160698 Z-1.000000
G01 X86.373891 Y538.676849 Z-1.000000
G01 X85.115836 Y541.193032 Z-1.000000
G01 X83.857902 Y543.708972 Z-1.000000
G01 X82.599877 Y546.225093 Z-1.000000
G01 X81.341825 Y548.741271 Z-1.000000
G01 X80.083869 Y551.257255 Z-1.000000
G01 X78.825822 Y553.773421 Z-1.000000
G01 X77.567772 Y556.289593 Z-1.000000
G01 X76.309704 Y558.805802 Z-1.000000
G01 X75.051690 Y561.321901 Z-1.000000
G01 X73.793553 Y563.838249 Z-1.000000
G01 X72.535564 Y566.354299 Z-1.000000
G01 X71.277594 Y568.870312 Z-1.000000
G01 X70.019643 Y571.386286 Z-1.000000
G01 X68.761532 Y573.902580 Z-1.000000
G01 X67.503541 Y576.418633 Z-1.000000
G01 X66.245490 Y578.934808 Z-1.000000
G01 X64.987382 Y581.451096 Z-1.000000
G01 X63.729403 Y583.967127 Z-1.000000
G01 X62.471380 Y586.483245 Z-1.000000
G01 X61.213379 Y588.999318 Z-1.000000
G01 X59.955450 Y591.515250 Z-1.000000
G01 X58.697413 Y594.031396 Z-1.000000
G01 X57.439411 Y596.547472 Z-1.000000
G01 X56.181444 Y599.063479 Z-1.000000
G01 X54.923443 Y601.579552 Z-1.000000
G01 X53.665347 Y604.095816 Z-1.000000
G01 X52.407370 Y606.611842 Z-1.000000
G01 X51.149258 Y609.128139 Z-1.000000
G01 X49.891220 Y611.644289 Z-1.000000
G01 X48.633241 Y614.160318 Z-1.000000
G01 X47.375274 Y616.676325 Z-1.000000
G01 X46.117254 Y619.192437 Z-1.000000
G01 X44.859170 Y621.708677 Z-1.000000
G01 X43.601027 Y624.225035 Z-1.000000
G01 X42.342906 Y626.741350 Z-1.000000
G01 X41.084980 Y629.257273 Z-1.000000
G01 X39.826870 Y631.773565 Z-1.000000
G01 X38.568962 Y634.289455 Z-1.000000
G01 X37.310945 Y636.805560 Z-1.000000
G01 X36.052857 Y639.321809 Z-1.000000
G01 X34.794733 Y641.838129 Z-1.000000
G01 X33.536771 Y644.354126 Z-1.000000
G01 X32.278784 Y646.870172 Z-1.000000
G01 X31.020700 Y649.386412 Z-1.000000
G01 X29.762653 Y651.902578 Z-1.000000
G01 X28.504769 Y654.418419 Z-1.000000
G01 X27.246667 Y656.934695 Z-1.000000
G01 X25.988663 Y659.450774 Z-1.000000
G01 X24.730628 Y661.966918 Z-1.000000
G01 X23.333969 Y664.356108 Z-1.000000
G01 X21.719131 Y666.430340 Z-1.000000
G01 X19.914024 Y668.188622 Z-1.000000
G01 X17.946556 Y669.629964 Z-1.000000
G01 X15.844637 Y670.753374 Z-1.000000
G01 X13.636177 Y671.557863 Z-1.000000
G01 X11.349086 Y672.042438 Z-1.000000
G01 X9.011272 Y672.206109 Z-1.000000
G01 X9.011272 Y672.206109 Z-1.000000
G00 Z5.000000

(End cutting path id: path12)


(Footer)
M5
G00 X0.0000 Y0.0000
M2
(Using default footer. To add your own footer create file "footer" in the output dir.)
(end)
%