%
(Header)
(Generated by gcodetools from Inkscape.)
(Using default header. To add your own header create file "header" in the output dir.)
M3
(Header end.)
G21 (All units in mm)

(Start cutting path id: rect4136)
(Change tool to Default tool)

G00 Z5.000000
G00 X16.933333 Y150.787305

G01 Z-0.125000 F100.0(Penetrate)
G01 X19.745218 Y150.787305 Z-0.125000 F400.000000
G01 X22.557147 Y150.787305 Z-0.125000
G01 X25.369290 Y150.787305 Z-0.125000
G01 X28.181312 Y150.787305 Z-0.125000
G01 X30.993190 Y150.787305 Z-0.125000
G01 X33.804980 Y150.787305 Z-0.125000
G01 X36.616654 Y150.787305 Z-0.125000
G01 X39.428488 Y150.787305 Z-0.125000
G01 X42.240395 Y150.787305 Z-0.125000
G01 X45.052061 Y150.787305 Z-0.125000
G01 X47.863946 Y150.787305 Z-0.125000
G01 X50.675651 Y150.787305 Z-0.125000
G01 X53.487381 Y150.787305 Z-0.125000
G01 X56.299369 Y150.787305 Z-0.125000
G01 X59.111454 Y150.787305 Z-0.125000
G01 X61.923497 Y150.787305 Z-0.125000
G01 X64.735107 Y150.787305 Z-0.125000
G01 X67.546778 Y150.787305 Z-0.125000
G01 X70.358853 Y150.787305 Z-0.125000
G01 X73.170617 Y150.787305 Z-0.125000
G01 X75.982626 Y150.787305 Z-0.125000
G01 X78.794357 Y150.787305 Z-0.125000
G01 X81.606250 Y150.787305 Z-0.125000
G01 X84.417909 Y150.787305 Z-0.125000
G01 X87.229685 Y150.787305 Z-0.125000
G01 X90.041655 Y150.787305 Z-0.125000
G01 X92.853514 Y150.787305 Z-0.125000
G01 X95.665368 Y150.787305 Z-0.125000
G01 X98.477246 Y150.787305 Z-0.125000
G01 X101.289306 Y150.787305 Z-0.125000
G01 X104.101206 Y150.787305 Z-0.125000
G01 X106.913406 Y150.787305 Z-0.125000
G01 X109.725576 Y150.787305 Z-0.125000
G01 X112.537221 Y150.787305 Z-0.125000
G01 X115.349393 Y150.787305 Z-0.125000
G01 X118.161161 Y150.787305 Z-0.125000
G01 X120.973099 Y150.787305 Z-0.125000
G01 X123.785095 Y150.787305 Z-0.125000
G01 X126.596829 Y150.787305 Z-0.125000
G01 X126.596829 Y148.007757 Z-0.125000
G01 X126.596829 Y145.228068 Z-0.125000
G01 X126.596829 Y142.448218 Z-0.125000
G01 X126.596829 Y139.668248 Z-0.125000
G01 X126.596829 Y136.888265 Z-0.125000
G01 X126.596829 Y134.108582 Z-0.125000
G01 X126.596829 Y131.328937 Z-0.125000
G01 X126.596829 Y128.549316 Z-0.125000
G01 X126.596829 Y125.769626 Z-0.125000
G01 X126.596829 Y122.989597 Z-0.125000
G01 X126.596829 Y120.210063 Z-0.125000
G01 X126.596829 Y117.430511 Z-0.125000
G01 X126.596829 Y114.650636 Z-0.125000
G01 X126.596829 Y111.870905 Z-0.125000
G01 X126.596829 Y109.091162 Z-0.125000
G01 X126.596829 Y106.311358 Z-0.125000
G01 X126.596829 Y103.531507 Z-0.125000
G01 X126.596829 Y100.751961 Z-0.125000
G01 X126.596829 Y97.972080 Z-0.125000
G01 X126.596829 Y95.192218 Z-0.125000
G01 X126.596829 Y92.412467 Z-0.125000
G01 X126.596829 Y89.632567 Z-0.125000
G01 X126.596829 Y86.853032 Z-0.125000
G01 X126.596829 Y84.073101 Z-0.125000
G01 X126.596829 Y81.293302 Z-0.125000
G01 X126.596829 Y78.513510 Z-0.125000
G01 X126.596829 Y75.733701 Z-0.125000
G01 X126.596829 Y72.953903 Z-0.125000
G01 X126.596829 Y70.174000 Z-0.125000
G01 X126.596829 Y67.394348 Z-0.125000
G01 X126.596829 Y64.614781 Z-0.125000
G01 X126.596829 Y61.835001 Z-0.125000
G01 X126.596829 Y59.055140 Z-0.125000
G01 X126.596829 Y56.275154 Z-0.125000
G01 X126.596829 Y53.495492 Z-0.125000
G01 X126.596829 Y50.715595 Z-0.125000
G01 X126.596829 Y47.935764 Z-0.125000
G01 X126.596829 Y45.155563 Z-0.125000
G01 X123.784945 Y45.155563 Z-0.125000
G01 X120.973016 Y45.155563 Z-0.125000
G01 X118.160873 Y45.155563 Z-0.125000
G01 X115.348851 Y45.155563 Z-0.125000
G01 X112.536972 Y45.155563 Z-0.125000
G01 X109.725183 Y45.155563 Z-0.125000
G01 X106.913509 Y45.155563 Z-0.125000
G01 X104.101675 Y45.155563 Z-0.125000
G01 X101.289768 Y45.155563 Z-0.125000
G01 X98.478102 Y45.155563 Z-0.125000
G01 X95.666216 Y45.155563 Z-0.125000
G01 X92.854512 Y45.155563 Z-0.125000
G01 X90.042782 Y45.155563 Z-0.125000
G01 X87.230794 Y45.155563 Z-0.125000
G01 X84.418709 Y45.155563 Z-0.125000
G01 X81.606666 Y45.155563 Z-0.125000
G01 X78.795056 Y45.155563 Z-0.125000
G01 X75.983385 Y45.155563 Z-0.125000
G01 X73.171310 Y45.155563 Z-0.125000
G01 X70.359546 Y45.155563 Z-0.125000
G01 X67.547537 Y45.155563 Z-0.125000
G01 X64.735806 Y45.155563 Z-0.125000
G01 X61.923913 Y45.155563 Z-0.125000
G01 X59.112253 Y45.155563 Z-0.125000
G01 X56.300478 Y45.155563 Z-0.125000
G01 X53.488507 Y45.155563 Z-0.125000
G01 X50.676649 Y45.155563 Z-0.125000
G01 X47.864795 Y45.155563 Z-0.125000
G01 X45.052917 Y45.155563 Z-0.125000
G01 X42.240857 Y45.155563 Z-0.125000
G01 X39.428956 Y45.155563 Z-0.125000
G01 X36.616756 Y45.155563 Z-0.125000
G01 X33.804587 Y45.155563 Z-0.125000
G01 X30.992942 Y45.155563 Z-0.125000
G01 X28.180770 Y45.155563 Z-0.125000
G01 X25.369002 Y45.155563 Z-0.125000
G01 X22.557063 Y45.155563 Z-0.125000
G01 X19.745068 Y45.155563 Z-0.125000
G01 X16.933333 Y45.155563 Z-0.125000
G01 X16.933333 Y47.935112 Z-0.125000
G01 X16.933333 Y50.714801 Z-0.125000
G01 X16.933333 Y53.494650 Z-0.125000
G01 X16.933333 Y56.274620 Z-0.125000
G01 X16.933333 Y59.054604 Z-0.125000
G01 X16.933333 Y61.834286 Z-0.125000
G01 X16.933333 Y64.613931 Z-0.125000
G01 X16.933333 Y67.393552 Z-0.125000
G01 X16.933333 Y70.173242 Z-0.125000
G01 X16.933333 Y72.953271 Z-0.125000
G01 X16.933333 Y75.732805 Z-0.125000
G01 X16.933333 Y78.512357 Z-0.125000
G01 X16.933333 Y81.292232 Z-0.125000
G01 X16.933333 Y84.071963 Z-0.125000
G01 X16.933333 Y86.851706 Z-0.125000
G01 X16.933333 Y89.631510 Z-0.125000
G01 X16.933333 Y92.411361 Z-0.125000
G01 X16.933333 Y95.190907 Z-0.125000
G01 X16.933333 Y97.970788 Z-0.125000
G01 X16.933333 Y100.750650 Z-0.125000
G01 X16.933333 Y103.530401 Z-0.125000
G01 X16.933333 Y106.310302 Z-0.125000
G01 X16.933333 Y109.089836 Z-0.125000
G01 X16.933333 Y111.869768 Z-0.125000
G01 X16.933333 Y114.649567 Z-0.125000
G01 X16.933333 Y117.429358 Z-0.125000
G01 X16.933333 Y120.209167 Z-0.125000
G01 X16.933333 Y122.988965 Z-0.125000
G01 X16.933333 Y125.768868 Z-0.125000
G01 X16.933333 Y128.548520 Z-0.125000
G01 X16.933333 Y131.328088 Z-0.125000
G01 X16.933333 Y134.107868 Z-0.125000
G01 X16.933333 Y136.887728 Z-0.125000
G01 X16.933333 Y139.667714 Z-0.125000
G01 X16.933333 Y142.447376 Z-0.125000
G01 X16.933333 Y145.227273 Z-0.125000
G01 X16.933333 Y148.007104 Z-0.125000
G01 X16.933333 Y150.787305 Z-0.125000
G00 Z5.000000

(End cutting path id: rect4136)


(Footer)
M5
G00 X0.0000 Y0.0000
M2
(Using default footer. To add your own footer create file "footer" in the output dir.)
(end)
%