%
(Header)
(Generated by gcodetools from Inkscape.)
(Using default header. To add your own header create file "header" in the output dir.)
M3
(Header end.)
G21 (All units in mm)

(Start cutting path id: path12)
(Change tool to Default tool)

S80 (pen up)
G00 Z1
G00 X398.8536331432837 Y236.95400348740668

S83 (pen down)
G01 Z-1 F1000
G01 X399.94081307669353 Y235.23040417254538 Z-1 F1000
G01 X400.6826570045125 Y233.27137556977664 Z-1
G01 X401.06170543589485 Y231.09533937438619 Z-1
G01 X401.06075837276194 Y228.7205805040569 Z-1
G01 X400.6629042484641 Y226.1651779320498 Z-1
G01 X399.8515375714005 Y223.4469274396365 Z-1
G01 X399.2319135080213 Y222.01509641262078 Z-1
G01 X398.61037152398717 Y220.58325687291335 Z-1
G01 X397.76782936350264 Y219.08724603612268 Z-1
G01 X396.92343317071095 Y217.59114583546375 Z-1
G01 X395.2222405353725 Y214.8854007558557 Z-1
G01 X393.5155142565774 Y212.17933659158075 Z-1
G01 X391.80309150816595 Y209.4726465883648 Z-1
G01 X390.0850655325463 Y206.76542821476392 Z-1
G01 X388.36162843096145 Y204.05793575622943 Z-1
G01 X386.63271652022104 Y201.35002331616192 Z-1
G01 X384.8981778547625 Y198.6414060360869 Z-1
G01 X383.1582285145722 Y195.93237418022227 Z-1
G01 X381.41274253394874 Y193.222686589148 Z-1
G01 X379.6620303514072 Y190.51277903154119 Z-1
G01 X377.9059765641874 Y187.8024261658004 Z-1
G01 X376.14448440430056 Y185.09143346722954 Z-1
G01 X374.3775749075112 Y182.37979068080404 Z-1
G01 X372.60557125950595 Y179.6679509427695 Z-1
G01 X370.82844256235023 Y176.95581781600026 Z-1
G01 X369.0460139363154 Y174.24308183001563 Z-1
G01 X367.2585075204755 Y171.53003700542263 Z-1
G01 X365.4656127596619 Y168.81617168379466 Z-1
G01 X363.66767610131797 Y166.10196603265967 Z-1
G01 X361.8646916928112 Y163.38737062612813 Z-1
G01 X360.0567321433864 Y160.672448840784 Z-1
G01 X358.2436097817987 Y157.95688115374696 Z-1
G01 X356.42549781260436 Y155.24088378456986 Z-1
G01 X354.6025875362782 Y152.52470036784348 Z-1
G01 X352.7747153466238 Y149.80804670746147 Z-1
G01 X350.9417767046258 Y147.09072733145808 Z-1
G01 X349.10394628102244 Y144.37296194284067 Z-1
G01 X347.26129973525224 Y141.6548236188023 Z-1
G01 X345.41382756068083 Y138.93625493815762 Z-1
G01 X343.56143755339974 Y136.2170852574218 Z-1
G01 X341.70437862640483 Y133.49763992487988 Z-1
G01 X339.8426388985191 Y130.77786264934343 Z-1
G01 X337.97635863871824 Y128.05791701911858 Z-1
G01 X336.10522086545666 Y125.33730480603754 Z-1
G01 X334.2292786104724 Y122.6160664165875 Z-1
G01 X332.3487587876082 Y119.89449463046753 Z-1
G01 X330.4636515877477 Y117.17253598364255 Z-1
G01 X328.57391994272905 Y114.4501020013281 Z-1
G01 X326.6799204427841 Y111.72766869665224 Z-1
G01 X324.7811591496718 Y109.00448783006209 Z-1
G01 X322.8779563000136 Y106.2809853209285 Z-1
G01 X320.9702030201116 Y103.55696918438616 Z-1
G01 X319.0581946440127 Y100.83282575734847 Z-1
G01 X317.1418027343907 Y98.10833414164426 Z-1
G01 X315.22089314823734 Y95.38327088562187 Z-1
G01 X313.2957395954469 Y92.65798914199354 Z-1
G01 X311.3662010922725 Y89.93225465022351 Z-1
G01 X309.4325477306653 Y87.20641478248194 Z-1
G01 X307.49463831531284 Y84.48023456560418 Z-1
G01 X305.5523368144716 Y81.75348898429502 Z-1
G01 X303.6059179155126 Y79.02653324292692 Z-1
G01 X301.65525734511414 Y76.29915761556003 Z-1
G01 X299.70023963490337 Y73.57116875792713 Z-1
G01 X297.74115950744374 Y70.84294738440303 Z-1
G01 X295.7779224665917 Y68.11432712666237 Z-1
G01 X293.81084041504914 Y65.3857112342655 Z-1
G01 X291.839449656482 Y62.656421287081 Z-1
G01 X289.8640916998785 Y59.926901839512766 Z-1
G01 X287.8847313871645 Y57.19706984004188 Z-1
G01 X285.9013493705655 Y54.4668707323176 Z-1
G01 X283.91395214468105 Y51.73628013884604 Z-1
G01 X281.9225643622036 Y49.00530374818368 Z-1
G01 X279.9272372780231 Y46.27397951922467 Z-1
G01 X277.9280449041528 Y43.54238063590219 Z-1
G01 X275.9250867214628 Y40.8106104181752 Z-1
G01 X273.91812120865166 Y38.07831149162712 Z-1
G01 X271.9073096796395 Y35.34567409325359 Z-1
G01 X269.8928455623062 Y32.6129313425904 Z-1
G01 X267.87458999379464 Y29.87986531532124 Z-1
G01 X265.8524495489794 Y27.146321175560843 Z-1
G01 X263.82672590383754 Y24.412678069710637 Z-1
G01 X261.79705762220874 Y21.67842067046422 Z-1
G01 X259.7638344744504 Y18.944045232688723 Z-1
G01 X257.7267992024864 Y16.20917737532136 Z-1
G01 X255.68642759142654 Y13.474430186781092 Z-1
G01 X253.64223882685076 Y10.739129796638508 Z-1
G01 X251.59449030412782 Y8.003592355020373 Z-1
G01 X249.54316381904323 Y5.267769384617168 Z-1
G01 X247.4879968736143 Y2.531283335413036 Z-1
G01 X245.42944273388093 Y-0.2052899575101037 Z-1
G01 X243.36738539023577 Y-2.9421291573635244 Z-1
G01 X241.3018025544552 Y-5.679290514611921 Z-1
G01 X239.23276162657112 Y-8.416711674241014 Z-1
G01 X237.16012717648618 Y-11.154596741137311 Z-1
G01 X235.08416611660232 Y-13.89261862311082 Z-1
G01 X233.00495368441648 Y-16.6307047942621 Z-1
G01 X230.9223952740208 Y-19.36900419109952 Z-1
G01 X228.83625706445855 Y-22.107849758439215 Z-1
G01 X226.74673196594222 Y-24.847013271675678 Z-1
G01 X224.6538804526915 Y-27.586438511566485 Z-1
G01 X222.55766092242493 Y-30.326205174167626 Z-1
G01 X220.45820902015362 Y-33.0661587531979 Z-1
G01 X218.35559226553278 Y-35.806237570526946 Z-1
G01 X216.24958587837955 Y-38.546756876969994 Z-1
G01 X214.14021376492428 Y-41.287708468161554 Z-1
G01 X212.02797292629793 Y-44.028472016755586 Z-1
G01 X209.91244812956256 Y-46.76960841682035 Z-1
G01 X207.79355714089957 Y-49.51124845811182 Z-1
G01 X205.67155053314468 Y-52.253089014487614 Z-1
G01 X203.54659076876328 Y-54.99494399291848 Z-1
G01 X201.4184028978052 Y-57.73719140897424 Z-1
G01 X199.28717901379082 Y-60.479604603520784 Z-1
G01 X197.15281235400994 Y-63.22234505366578 Z-1
G01 X195.0153819551076 Y-65.9653312109931 Z-1
G01 X192.87485337436874 Y-68.70862994464619 Z-1
G01 X190.73119516544534 Y-71.45230378449764 Z-1
G01 X188.58449393772798 Y-74.19626167977208 Z-1
G01 X186.43475203078174 Y-76.94052180538074 Z-1
G01 X184.28206650551215 Y-79.68498324230586 Z-1
G01 X182.12650779351793 Y-82.42957476611969 Z-1
G01 X179.96808317927434 Y-85.17431063507638 Z-1
G01 X177.80676683800448 Y-87.91924282314108 Z-1
G01 X175.64236329364076 Y-90.6646411324623 Z-1
G01 X173.4752235085782 Y-93.4100802336568 Z-1
G01 X171.30487443689776 Y-96.15617964969897 Z-1
G01 X169.1317837942213 Y-98.90236532198924 Z-1
G01 X166.95586540770137 Y-101.6487690379281 Z-1
G01 X164.77711652832204 Y-104.39541223377478 Z-1
G01 X162.59556791972454 Y-107.14227660875872 Z-1
G01 X160.41139277685124 Y-109.88916301867698 Z-1
G01 X158.22420334509115 Y-112.63657824526058 Z-1
G01 X156.03457354354032 Y-115.38382197947749 Z-1
G01 X153.8419623473087 Y-118.13159043696783 Z-1
G01 X151.64656305050607 Y-120.87966087471682 Z-1
G01 X149.4488323464402 Y-123.6274805592659 Z-1
G01 X147.24838897224208 Y-126.37554551263975 Z-1
G01 X145.04499902720227 Y-129.1241656393886 Z-1
G01 X142.83893691615526 Y-131.87301673096795 Z-1
G01 X140.63018450797017 Y-134.62213852808418 Z-1
G01 X138.57100511588624 Y-137.02902761173755 Z-1
G01 X136.37511569957405 Y-139.30567039999232 Z-1
G01 X134.0728717012055 Y-141.42991989141956 Z-1
G01 X131.69440843773145 Y-143.379727090188 Z-1
G01 X129.26963539253916 Y-145.13310029022114 Z-1
G01 X126.82822604630155 Y-146.66807542366496 Z-1
G01 X124.39960363872478 Y-147.96268767737683 Z-1
G01 X122.01293812425365 Y-148.99494254455226 Z-1
G01 X119.73746871876278 Y-149.73131425366455 Z-1
G01 X117.63552677253324 Y-150.1559886150676 Z-1
G01 X115.72566082360481 Y-150.27336020626672 Z-1
G01 X114.0263771473301 Y-150.08762818916352 Z-1
G01 X112.55618746497521 Y-149.60279603486356 Z-1
G01 X111.33364149702356 Y-148.8226765141003 Z-1
G01 X110.3773684081084 Y-147.75090251504275 Z-1
G01 X109.70609977456638 Y-146.3909432625694 Z-1
G01 X109.11753058158911 Y-144.70913160412624 Z-1
G01 X108.52238816112776 Y-143.03076313309816 Z-1
G01 X107.9207873643204 Y-141.35614693670027 Z-1
G01 X107.31263715629143 Y-139.68501467022134 Z-1
G01 X106.6979971103176 Y-138.01751798896316 Z-1
G01 X106.07691728463669 Y-136.35377610101727 Z-1
G01 X105.44937802991558 Y-134.6937194857901 Z-1
G01 X104.81540896048227 Y-133.03741038568523 Z-1
G01 X104.17500443284439 Y-131.38481801991657 Z-1
G01 X103.52816328721087 Y-129.73592489382668 Z-1
G01 X102.87485529994865 Y-128.09064204656897 Z-1
G01 X102.21514736138874 Y-126.44912541665622 Z-1
G01 X101.54902833809433 Y-124.81133334945275 Z-1
G01 X100.87656669580565 Y-123.1774188619579 Z-1
G01 X100.19766993247094 Y-121.547144019386 Z-1
G01 X99.51243359264708 Y-119.9207260560986 Z-1
G01 X98.82084028613076 Y-118.29810929129962 Z-1
G01 X98.12289427948485 Y-116.6792909623939 Z-1
G01 X97.41865718729082 Y-115.06439965169102 Z-1
G01 X96.70808403249089 Y-113.45331831855697 Z-1
G01 X95.99113733527906 Y-111.84595228329295 Z-1
G01 X95.2679061742806 Y-110.24249056043777 Z-1
G01 X94.53842417468923 Y-108.64299343882817 Z-1
G01 X93.80267959442199 Y-107.04742118045056 Z-1
G01 X93.06062262470073 Y-105.45565499659915 Z-1
G01 X92.312276422992 Y-103.86773566176385 Z-1
G01 X91.55774588247641 Y-102.28387335369666 Z-1
G01 X90.79701916782687 Y-100.70402867357961 Z-1
G01 X90.0299734892767 Y-99.12793754000836 Z-1
G01 X89.25668683040976 Y-97.55575345812736 Z-1
G01 X88.477238596593 Y-95.98762689622231 Z-1
G01 X87.69171349096814 Y-94.42371305950996 Z-1
G01 X86.90000265838194 Y-92.86378179695498 Z-1
G01 X86.10201224189177 Y-91.30764190222953 Z-1
G01 X85.29787131950252 Y-89.75553854347686 Z-1
G01 X84.48773028504047 Y-88.2077480020996 Z-1
G01 X83.67136495487739 Y-86.66383106310195 Z-1
G01 X82.84898398885116 Y-85.12417282600995 Z-1
G01 X82.02043555641308 Y-83.58847873084255 Z-1
G01 X81.18580807921603 Y-82.05690501279742 Z-1
G01 X80.34513925879673 Y-80.52951055228232 Z-1
G01 X79.49842140405076 Y-79.00627112839652 Z-1
G01 X78.64561315660671 Y-77.4871042453724 Z-1
G01 X77.78683385910972 Y-75.97221318373158 Z-1
G01 X76.92208666261195 Y-74.46159186210934 Z-1
G01 X76.05127455581987 Y-72.95506242999181 Z-1
G01 X75.17439655862404 Y-71.45261805840505 Z-1
G01 X74.29155424345481 Y-69.95442588639821 Z-1
G01 X73.40278168740019 Y-68.46053430319898 Z-1
G01 X72.5080667115194 Y-66.97091368874771 Z-1
G01 X71.60737146673296 Y-65.48549386348986 Z-1
G01 X70.70081763006078 Y-64.00446714591317 Z-1
G01 X69.78837472240116 Y-62.5277740686297 Z-1
G01 X68.87005530444526 Y-61.055426507927905 Z-1
G01 X67.94579096074335 Y-59.58730834039898 Z-1
G01 X67.01562520256698 Y-58.12348352725485 Z-1
G01 X66.07959570425533 Y-56.6640051254285 Z-1
G01 X65.13778574928756 Y-55.208994879526244 Z-1
G01 X64.19010420240602 Y-53.75830479485194 Z-1
G01 X63.236642103003305 Y-52.31206778127421 Z-1
G01 X62.27735133332362 Y-50.87020421775492 Z-1
G01 X61.31229160212706 Y-49.43279770028107 Z-1
G01 X60.341503367164705 Y-47.999901020136576 Z-1
G01 X59.36483820501735 Y-46.5712905024202 Z-1
G01 X58.382505961782726 Y-45.14726797094022 Z-1
G01 X57.39444845027606 Y-43.72774165621718 Z-1
G01 X56.400714810977206 Y-42.312775640773 Z-1
G01 X55.401148953658094 Y-40.902143868396024 Z-1
G01 X54.3959971814927 Y-39.4961890962295 Z-1
G01 X53.385164502139105 Y-38.094771450685585 Z-1
G01 X52.36866205501974 Y-36.69790161670812 Z-1
G01 X51.346407778279854 Y-35.30546399537957 Z-1
G01 X50.31852611832096 Y-33.91762512412697 Z-1
G01 X49.28510536702038 Y-32.53449807936613 Z-1
G01 X48.24610190144767 Y-31.156018228077755 Z-1
G01 X47.20139870191224 Y-29.78202751899903 Z-1
G01 X46.15121097378733 Y-28.412805124316492 Z-1
G01 X45.09551768754682 Y-27.048317081110554 Z-1
G01 X44.03412779603127 Y-25.688314132679352 Z-1
G01 X42.96735869869303 Y-24.333199159801552 Z-1
G01 X42.05328561421857 Y-22.90343082590607 Z-1
G01 X41.52617296231665 Y-21.181302825755893 Z-1
G01 X41.379034593599954 Y-19.201947364736725 Z-1
G01 X41.60523079849486 Y-17.000557654299428 Z-1
G01 X42.1984654462467 Y-14.612432754308884 Z-1
G01 X43.15277681590305 Y-12.073030641165587 Z-1
G01 X44.46250846180283 Y-9.418023054510286 Z-1
G01 X46.122281675865 Y-6.6833507508010825 Z-1
G01 X47.8910166970029 Y-4.064510926057665 Z-1
G01 X49.656488578280005 Y-1.445973294926489 Z-1
G01 X51.41905315082863 Y1.1728093875119612 Z-1
G01 X53.17859108466632 Y3.791680229818894 Z-1
G01 X55.04584253428948 Y6.419558234227907 Z-1
G01 X56.91000355145093 Y9.047079962634143 Z-1
G01 X58.771448580253946 Y11.674792834277241 Z-1
G01 X60.63005491254762 Y14.302542533800988 Z-1
G01 X62.59183920190594 Y16.934990105600036 Z-1
G01 X64.55070132963215 Y19.567000232880673 Z-1
G01 X66.50703468443726 Y22.19912024465839 Z-1
G01 X68.46071075269128 Y24.831193285673407 Z-1
G01 X70.51302319138381 Y27.46358095829237 Z-1
G01 X72.56257632101006 Y30.09542141815973 Z-1
G01 X74.60978412679447 Y32.727262007707395 Z-1
G01 X76.65451108119396 Y35.358944602284055 Z-1
G01 X78.79332802866861 Y37.98648695701036 Z-1
G01 X80.92954440046947 Y40.61334535474839 Z-1
G01 X83.06359418923239 Y43.240065937877034 Z-1
G01 X85.19533667364999 Y45.86649093108963 Z-1
G01 X87.41661476951595 Y48.48425268430219 Z-1
G01 X89.63544950556457 Y51.10117065925965 Z-1
G01 X91.8522910856741 Y53.71778456897391 Z-1
G01 X94.0669962561849 Y56.33393765463302 Z-1
G01 X96.36667621003016 Y58.9368457653884 Z-1
G01 X98.66406680096816 Y61.53872260909634 Z-1
G01 X100.959634438497 Y64.1401052517856 Z-1
G01 X103.25323196032946 Y66.74083560172335 Z-1
G01 X105.62723943607739 Y69.32368309123649 Z-1
G01 X107.99910770702604 Y71.9052878804664 Z-1
G01 X110.36931918182836 Y74.48618264592028 Z-1
G01 X112.73772371224868 Y77.06620874060104 Z-1
G01 X114.69321273627565 Y79.1122240625889 Z-1
G01 X116.64774724386075 Y81.15762922857516 Z-1
G01 X118.60120851157058 Y83.20230235853137 Z-1
G01 X120.55343354543265 Y85.2460739685896 Z-1
G01 X122.50408456817672 Y87.28859201331784 Z-1
G01 X124.51246222043596 Y89.30995858982624 Z-1
G01 X126.51998574784784 Y91.33054725428678 Z-1
G01 X128.52653574198712 Y93.35023697763518 Z-1
G01 X130.53194462261035 Y95.36885998104594 Z-1
G01 X132.535863328093 Y97.38606685804416 Z-1
G01 X134.5938297169398 Y99.37834555749077 Z-1
G01 X136.65104074613987 Y101.36966449672286 Z-1
G01 X138.7073740790545 Y103.35990412083402 Z-1
G01 X140.7626583976862 Y105.34889742727455 Z-1
G01 X142.81653995650527 Y107.33630154550815 Z-1
G01 X144.92077853473188 Y109.2949753294788 Z-1
G01 X147.02435967389965 Y111.25249704478074 Z-1
G01 X149.12715675271033 Y113.20874455638545 Z-1
G01 X151.22899601068139 Y115.16355580628533 Z-1
G01 X153.32951534148515 Y117.11659118047578 Z-1
G01 X155.47669591569093 Y119.0370783866615 Z-1
G01 X157.62331327112042 Y120.95620731223971 Z-1
G01 X159.76923781437904 Y122.87385740792433 Z-1
G01 X161.91429420734994 Y124.7898687752388 Z-1
G01 X164.05811098458935 Y126.70390629831172 Z-1
G01 X166.24488422413538 Y128.58156683404263 Z-1
G01 X168.43118408745772 Y130.45765063957242 Z-1
G01 X170.61688153238947 Y132.33204228433965 Z-1
G01 X172.80179559763178 Y134.20458120355056 Z-1
G01 X174.98555160351043 Y136.07494118607156 Z-1
G01 X177.2085471146845 Y137.90508648288483 Z-1
G01 X179.43115703905505 Y139.73343012679834 Z-1
G01 X181.65325113257973 Y141.55985640972654 Z-1
G01 X183.87464541073473 Y143.3842087133803 Z-1
G01 X186.09495739827548 Y145.20616761174233 Z-1
G01 X188.3507825684012 Y146.98407550292404 Z-1
G01 X190.60630531841275 Y148.7599468145188 Z-1
G01 X192.86139368437466 Y150.53366808583655 Z-1
G01 X195.11586330204295 Y152.30508748925058 Z-1
G01 X197.36932742898261 Y154.07389232254718 Z-1
G01 X199.65455994280956 Y155.7948163159142 Z-1
G01 X201.93957083009195 Y157.5134610367811 Z-1
G01 X204.22422627008928 Y159.22971923106866 Z-1
G01 X206.5083397511828 Y160.9434404295166 Z-1
G01 X208.7915191856298 Y162.65432194509617 Z-1
G01 X211.1027075564516 Y164.31350282996777 Z-1
G01 X213.4137506642428 Y165.97016109087463 Z-1
G01 X215.72451163765913 Y167.62418793233792 Z-1
G01 X218.0348043160327 Y169.2754408031235 Z-1
G01 X220.3442303312056 Y170.9236246604878 Z-1
G01 X222.67788820849046 Y172.51630923941138 Z-1
G01 X225.0114700144527 Y174.10622221854646 Z-1
G01 X227.3448387950989 Y175.69325928702074 Z-1
G01 X229.67780744126458 Y177.27728189946174 Z-1
G01 X232.00997290571922 Y178.85800667829471 Z-1
G01 X234.36257160705372 Y180.37945756225895 Z-1
G01 X236.71515761652086 Y181.89788929656288 Z-1
G01 X239.06759485838074 Y183.41319924278696 Z-1
G01 X241.4196924415578 Y184.92525447060098 Z-1
G01 X243.771048020408 Y186.43378291046497 Z-1
G01 X246.13901123459073 Y187.87929880058527 Z-1
G01 X248.50702041787736 Y189.32154746633728 Z-1
G01 X250.87493564037686 Y190.7604317462467 Z-1
G01 X253.24256772603496 Y192.19582187058973 Z-1
G01 X255.6095102433004 Y193.62746107365842 Z-1
G01 X257.98920918367355 Y194.99238892462972 Z-1
G01 X260.3690024487812 Y196.35380488715828 Z-1
G01 X262.7487512018698 Y197.71161728514812 Z-1
G01 X265.12826505735904 Y199.06570311408086 Z-1
G01 X267.5071366487557 Y200.41581941805111 Z-1
G01 X269.8948796728864 Y201.69557269438906 Z-1
G01 X272.2827575475443 Y202.97157664040446 Z-1
G01 X274.67063109833384 Y204.24374507229118 Z-1
G01 X277.0583087297954 Y205.51196011884326 Z-1
G01 X279.44538243663203 Y206.77599447128478 Z-1
G01 X281.8374101836705 Y207.9660718613311 Z-1
G01 X284.2296015175315 Y209.15217169574112 Z-1
G01 X286.62181924370554 Y210.33421069176507 Z-1
G01 X289.0138698290126 Y211.51208096330583 Z-1
G01 X291.40534548370385 Y212.6855701504128 Z-1
G01 X293.7978165924625 Y213.78157164303047 Z-1
G01 X296.19047012970077 Y214.87337706265362 Z-1
G01 X298.58316695209385 Y215.96091095150155 Z-1
G01 X300.97571669192257 Y217.04407132219035 Z-1
G01 X303.3677083943546 Y218.1226633314659 Z-1
G01 X305.756693809073 Y219.1203081055619 Z-1
G01 X308.14586579643367 Y220.11355264298686 Z-1
G01 X310.53508731890247 Y221.1023283100419 Z-1
G01 X312.9241659576945 Y222.08654182721762 Z-1
G01 X315.31269484321217 Y223.06601482142355 Z-1
G01 X317.69416343366356 Y223.9611589267447 Z-1
G01 X320.0758094791314 Y224.85171737593896 Z-1
G01 X322.4574953909522 Y225.73762422096775 Z-1
G01 X324.83902970261556 Y226.61879704869398 Z-1
G01 X327.2200053738351 Y227.49507574084555 Z-1
G01 X329.58981442799654 Y228.2837316831003 Z-1
G01 X331.95977378938494 Y229.06763194576638 Z-1
G01 X334.32974726216094 Y229.84671853666418 Z-1
G01 X336.6995442193937 Y230.62092022632464 Z-1
G01 X339.06875831467414 Y231.39009435451362 Z-1
G01 X341.4226383820534 Y232.06844250986092 Z-1
G01 X343.77662414818667 Y232.74188707922326 Z-1
G01 X346.13057884431817 Y233.4103787396757 Z-1
G01 X348.48431312426226 Y234.0738551028062 Z-1
G01 X350.8374238758356 Y234.7321936853748 Z-1
G01 X353.1709668136159 Y235.29660268978773 Z-1
G01 X355.5045481473719 Y235.85598276078008 Z-1
G01 X357.8380335894466 Y236.4102932013518 Z-1
G01 X360.1712339881733 Y236.95948195933488 Z-1
G01 X362.50375066429956 Y237.5034492167838 Z-1
G01 X364.81239034188945 Y237.9504861710534 Z-1
G01 X367.1209806276346 Y238.3923952350326 Z-1
G01 X369.429387332495 Y238.82914360429209 Z-1
G01 X371.7374208949303 Y239.26069044989003 Z-1
G01 X374.04468795360003 Y239.68695759579896 Z-1
G01 X376.3236917065293 Y240.01340264286182 Z-1
G01 X378.6025304672954 Y240.3346477094758 Z-1
G01 X380.88107134703796 Y240.6506682076681 Z-1
G01 X383.1591296633826 Y240.96143521072213 Z-1
G01 X385.43631142785716 Y241.26689255444035 Z-1
G01 X387.5889294175373 Y241.3107775362514 Z-1
G01 X389.7408449743134 Y241.3495696951727 Z-1
G01 X391.5999105258767 Y240.98337739994554 Z-1
G01 X393.4575809771487 Y240.6127765214003 Z-1
G01 X394.98888491162415 Y239.87046474724002 Z-1
G01 X396.5180090316767 Y239.12456832345538 Z-1
G01 X397.68730157931043 Y238.0406283325965 Z-1
G01 X398.8536331432837 Y236.95400348740668 Z-1
G01 X398.8536331432837 Y236.95400348740668 Z-1
S80 (pen up)
G00 Z1

(End cutting path id: path12)


(Start cutting path id: path12)
(Change tool to Default tool)

S80 (pen up)
G00 Z1
G00 X541.0213605987433 Y554.5729223033156

S83 (pen down)
G01 Z-1 F1000
G01 X542.7038817107306 Y552.703959789141 Z-1 F1000
G01 X544.1670739864893 Y550.6219638183826 Z-1
G01 X545.3872701136354 Y548.3484480214283 Z-1
G01 X546.3407918703127 Y545.9047350547615 Z-1
G01 X547.004007794592 Y543.3118903677432 Z-1
G01 X547.3533930855435 Y540.5906407237724 Z-1
G01 X547.3608847611348 Y539.1759906396424 Z-1
G01 X547.3655809901427 Y537.7613049192865 Z-1
G01 X547.1930249997989 Y536.3025847128381 Z-1
G01 X547.0174173763469 Y534.8437070908437 Z-1
G01 X546.5122015120518 Y532.3311539772238 Z-1
G01 X545.9978587045666 Y529.8180086135678 Z-1
G01 X545.4743432831917 Y527.3039517512246 Z-1
G01 X544.9416889918946 Y524.7890673719273 Z-1
G01 X544.3998914438396 Y522.2732500093837 Z-1
G01 X543.849064722372 Y519.7569385023351 Z-1
G01 X543.2127058442342 Y517.2998846153534 Z-1
G01 X542.567734398138 Y514.8421313641438 Z-1
G01 X541.9140889753668 Y512.3833651445348 Z-1
G01 X541.2518126774379 Y509.9236690911796 Z-1
G01 X540.580897113948 Y507.4629419566386 Z-1
G01 X539.901483716298 Y505.0016141454821 Z-1
G01 X539.1402871674347 Y502.59913268547393 Z-1
G01 X538.3710104471486 Y500.1958424940801 Z-1
G01 X537.5935795176289 Y497.79144014945825 Z-1
G01 X536.8080423368557 Y495.3860073936943 Z-1
G01 X536.0143893875597 Y492.9794433734846 Z-1
G01 X535.2127829287542 Y490.57217254974523 Z-1
G01 X534.3331596396276 Y488.22334293896256 Z-1
G01 X533.446000744319 Y485.87359688620677 Z-1
G01 X532.5512179721106 Y483.52263960524374 Z-1
G01 X531.6488638507087 Y481.17055065819625 Z-1
G01 X530.7389257155814 Y478.8172337899674 Z-1
G01 X529.8215885936287 Y476.46310253339846 Z-1
G01 X528.8300020152475 Y474.16701701288355 Z-1
G01 X527.8314264430555 Y471.86990951546375 Z-1
G01 X526.8257619343154 Y469.57149075123607 Z-1
G01 X525.8130655743554 Y467.2718429906131 Z-1
G01 X524.7933193998336 Y464.9708688655354 Z-1
G01 X523.7667277406911 Y462.668976134904 Z-1
G01 X522.6696393908683 Y460.42474435392376 Z-1
G01 X521.5661083233956 Y458.1793874104841 Z-1
G01 X520.4560192618275 Y455.9326221371308 Z-1
G01 X519.339433590149 Y453.6845285185756 Z-1
G01 X518.2163292868175 Y451.43501498291675 Z-1
G01 X517.0869290758756 Y449.18447867952216 Z-1
G01 X515.8907564083144 Y446.991234146298 Z-1
G01 X514.6886774298905 Y444.7967618855339 Z-1
G01 X513.4805637364731 Y442.60078670396456 Z-1
G01 X512.2664802655638 Y440.403386291586 Z-1
G01 X511.0463997879069 Y438.2044726634857 Z-1
G01 X509.82056075053845 Y436.00443393242085 Z-1
G01 X508.53163544858285 Y433.8613351272211 Z-1
G01 X507.23732690394013 Y431.7169096595436 Z-1
G01 X505.93749341779494 Y429.57088728673864 Z-1
G01 X504.6322023198063 Y427.42334552327907 Z-1
G01 X503.32142092119375 Y425.2741998574654 Z-1
G01 X502.00540345782724 Y423.123828067245 Z-1
G01 X500.6299373754722 Y421.0300646614254 Z-1
G01 X499.249592550344 Y418.9348759450746 Z-1
G01 X497.86421591956116 Y416.83800066930837 Z-1
G01 X496.47387439084514 Y414.73951403919943 Z-1
G01 X495.07853431740284 Y412.639332788935 Z-1
G01 X493.6784586683566 Y410.5378280456845 Z-1
G01 X492.2225137778953 Y408.4926210401777 Z-1
G01 X490.76217449484375 Y406.4458947510326 Z-1
G01 X489.2972747471646 Y404.397392501491 Z-1
G01 X487.8278843337978 Y402.3471892910675 Z-1
G01 X486.35396164585313 Y400.29520442745593 Z-1
G01 X484.8757843381243 Y398.24180109362635 Z-1
G01 X483.34525372244093 Y396.24440754206717 Z-1
G01 X481.8107877954468 Y394.2454019977496 Z-1
G01 X480.27221026956227 Y392.2445357249941 Z-1
G01 X478.72959113976526 Y390.24188137921203 Z-1
G01 X477.1828834014958 Y388.23735933318073 Z-1
G01 X475.632377349325 Y386.2313263965235 Z-1
G01 X473.7127362436614 Y383.8908720647414 Z-1
G01 X471.78770150993523 Y381.5475345213222 Z-1
G01 X469.85766766622487 Y379.2017695386529 Z-1
G01 X467.9225406747437 Y376.8534355894527 Z-1
G01 X465.9820750929782 Y374.5022120769838 Z-1
G01 X463.9864287647546 Y372.217476156991 Z-1
G01 X461.9859617952918 Y369.92974340780154 Z-1
G01 X459.9810776110978 Y367.63945838912844 Z-1
G01 X457.97167355213173 Y365.3464829242454 Z-1
G01 X455.957490332176 Y363.05050629530876 Z-1
G01 X453.8921884207854 Y360.82074073686476 Z-1
G01 X451.82259736737285 Y358.5878665756767 Z-1
G01 X449.7491325867934 Y356.35231954261315 Z-1
G01 X447.6716807245713 Y354.1139673772724 Z-1
G01 X445.58997261434456 Y351.87250495639057 Z-1
G01 X443.461106800738 Y349.69701187675685 Z-1
G01 X441.32844581964764 Y347.51830541011213 Z-1
G01 X439.19241235662196 Y345.33680894326494 Z-1
G01 X437.0528857736946 Y343.152394001262 Z-1
G01 X434.90958467148016 Y340.9647642440075 Z-1
G01 X432.72298925955647 Y338.84290042673103 Z-1
G01 X430.53305377692664 Y336.71772054428425 Z-1
G01 X428.34020761539 Y334.5896392684267 Z-1
G01 X426.1443237403555 Y332.45853112445764 Z-1
G01 X423.9451068792333 Y330.32410749816756 Z-1
G01 X421.7063610723926 Y328.25528376490524 Z-1
G01 X419.4646912243687 Y326.1830461951463 Z-1
G01 X417.2205333119492 Y324.10779880319876 Z-1
G01 X414.97375343749104 Y322.02942172772487 Z-1
G01 X412.7240474422879 Y319.94763206616096 Z-1
G01 X410.4384785533814 Y317.9313144452167 Z-1
G01 X408.1503650539066 Y315.9114902455183 Z-1
G01 X405.86014778409594 Y313.88855286492117 Z-1
G01 X403.5676871723481 Y311.8623852128528 Z-1
G01 X401.27266968901415 Y309.8327146997916 Z-1
G01 X398.9453624040376 Y307.8684277725374 Z-1
G01 X396.61585164007215 Y305.9005449448607 Z-1
G01 X394.28458643668284 Y303.9294501332653 Z-1
G01 X391.9514208501706 Y301.95503020461763 Z-1
G01 X389.61603078935127 Y299.97701768239494 Z-1
G01 X387.25183166633747 Y298.0643431081751 Z-1
G01 X384.8857384365789 Y296.14798785740777 Z-1
G01 X382.5182029416296 Y294.22832743355787 Z-1
G01 X380.14907504642406 Y292.30524857702517 Z-1
G01 X377.7780246552501 Y290.37849463150724 Z-1
G01 X375.38155479748843 Y288.5170735415145 Z-1
G01 X372.9834670657274 Y286.6518899215919 Z-1
G01 X370.5842168269867 Y284.7833117375618 Z-1
G01 X368.1836502176335 Y282.9112289796533 Z-1
G01 X365.78142846837216 Y281.03539048894083 Z-1
G01 X363.357093642624 Y279.22492273545913 Z-1
G01 X360.9313864884858 Y277.41061632847936 Z-1
G01 X358.50476514388777 Y275.5928289978077 Z-1
G01 X356.0770713371327 Y273.7714551373591 Z-1
G01 X353.6479616960994 Y271.9462500105021 Z-1
G01 X351.19996243394576 Y270.1864939192568 Z-1
G01 X348.75080705999517 Y268.42282937089567 Z-1
G01 X346.3009557151919 Y266.65560116970244 Z-1
G01 X343.85024830683676 Y264.8847089717664 Z-1
G01 X341.39833592497905 Y263.10991415724527 Z-1
G01 X338.9306784281463 Y261.40069093684804 Z-1
G01 X336.46205442547875 Y259.6874910917629 Z-1
G01 X333.99292652386293 Y257.9706514516805 Z-1
G01 X331.5231302124654 Y256.25007307091755 Z-1
G01 X329.0523126666161 Y254.5255254833587 Z-1
G01 X326.56882235465946 Y252.86671503030743 Z-1
G01 X324.0845295183159 Y251.20386603785164 Z-1
G01 X321.5998976458163 Y249.53730386582527 Z-1
G01 X319.1143576467248 Y247.8666614304343 Z-1
G01 X316.62876242948903 Y246.19252979910993 Z-1
G01 X314.13309208511146 Y244.5840745116525 Z-1
G01 X311.6367596707654 Y242.97152096351329 Z-1
G01 X309.1402307629402 Y241.35518536754603 Z-1
G01 X306.6429305238603 Y239.73471319327382 Z-1
G01 X304.14571616692035 Y238.11067634092205 Z-1
G01 X301.6413594337745 Y236.5525781661811 Z-1
G01 X299.13645912514403 Y234.99032616362797 Z-1
G01 X296.6314815537828 Y233.4242272887359 Z-1
G01 X294.12584927590797 Y231.85393978484012 Z-1
G01 X291.62042180716844 Y230.28001699441847 Z-1
G01 X289.1107224127654 Y228.77233722098777 Z-1
G01 X286.60057799802064 Y227.2604535405369 Z-1
G01 X284.09045514567447 Y225.74466432166196 Z-1
G01 X281.57977403898315 Y224.2246350667201 Z-1
G01 X279.069395282575 Y222.70090389333518 Z-1
G01 X276.55755833367004 Y221.2437672140868 Z-1
G01 X274.0453553143501 Y219.7823797453225 Z-1
G01 X271.5332541063524 Y218.31703022275065 Z-1
G01 X269.02067343279555 Y216.84739600058515 Z-1
G01 X266.5084741942162 Y215.37399736834732 Z-1
G01 X263.99757304179525 Y213.9675858320113 Z-1
G01 X261.4863692407679 Y212.55688221539344 Z-1
G01 X258.97532978226 Y211.14216464482683 Z-1
G01 X256.46387367099055 Y209.72312048030835 Z-1
G01 X253.95285836226856 Y208.30025293185236 Z-1
G01 X251.44584751727325 Y206.9448122769711 Z-1
G01 X248.9385821651705 Y205.58503964004262 Z-1
G01 X246.43152648817158 Y204.22120482939044 Z-1
G01 X243.9241012380844 Y202.8530072947999 Z-1
G01 X241.41716288540147 Y201.4809305466456 Z-1
G01 X238.91688478254923 Y200.176762925832 Z-1
G01 X236.41638510063126 Y198.86822971721062 Z-1
G01 X233.9161268629175 Y197.55558888351834 Z-1
G01 X231.41553225832922 Y196.23855238685837 Z-1
G01 X228.91545395468938 Y194.91758554339367 Z-1
G01 X226.1262703053244 Y193.47683114262986 Z-1
G01 X223.3372314104106 Y192.03086620034992 Z-1
G01 X220.54791627756595 Y190.5794917710382 Z-1
G01 X217.75890028919434 Y189.12303009557036 Z-1
G01 X214.96966864198157 Y187.66123219040855 Z-1
G01 X212.18068417891232 Y186.19436302630766 Z-1
G01 X209.39140392239779 Y184.72215682427122 Z-1
G01 X206.60229556647482 Y183.24488349486774 Z-1
G01 X203.81313872713463 Y181.76244493984836 Z-1
G01 X201.0240263639164 Y180.27491309661968 Z-1
G01 X198.2347572071028 Y178.7822000836577 Z-1
G01 X195.44532457584387 Y177.28432429157874 Z-1
G01 X192.65583504001143 Y175.78136086616382 Z-1
G01 X189.86643690716824 Y174.27341294723624 Z-1
G01 X187.0774104805464 Y172.76065252361377 Z-1
G01 X184.28790352743817 Y171.2426381703608 Z-1
G01 X181.49859071314472 Y169.71975692437582 Z-1
G01 X178.70945788792778 Y168.1920222962649 Z-1
G01 X175.9199172396195 Y166.65913306441416 Z-1
G01 X173.13057556047124 Y165.12144224916779 Z-1
G01 X170.34125427843742 Y163.57887246866198 Z-1
G01 X167.55188562727108 Y162.0314062218381 Z-1
G01 X164.76256800348528 Y160.47911848474678 Z-1
G01 X161.97319866880343 Y158.92197432427315 Z-1
G01 X159.18392264463 Y157.36007201807 Z-1
G01 X156.39433651060403 Y155.79320763196847 Z-1
G01 X153.6047602843389 Y154.2215795499667 Z-1
G01 X150.8150153760057 Y152.6451068788674 Z-1
G01 X148.02527078384855 Y151.06390438253175 Z-1
G01 X145.23564762458182 Y149.4780621775535 Z-1
G01 X142.44623409858718 Y147.887649686033 Z-1
G01 X139.65669427125863 Y146.29249701159188 Z-1
G01 X136.86709982758566 Y144.69266265376405 Z-1
G01 X134.0775298260794 Y143.08821394486108 Z-1
G01 X131.2876864978889 Y141.47899648671796 Z-1
G01 X128.49809119698602 Y139.865332885792 Z-1
G01 X125.70852074283152 Y138.24711246660695 Z-1
G01 X122.91881031653702 Y136.62426004276608 Z-1
G01 X120.12923837426456 Y134.99695673446672 Z-1
G01 X117.33977597498165 Y133.36520572204313 Z-1
G01 X114.55010736461577 Y131.72884109680717 Z-1
G01 X111.76039075628273 Y130.08797514045818 Z-1
G01 X108.97087916188411 Y128.4427755826125 Z-1
G01 X106.18122593431735 Y126.79305810603341 Z-1
G01 X103.39157860393402 Y125.13892879581249 Z-1
G01 X100.60187879216778 Y123.48037091982042 Z-1
G01 X97.81189289843587 Y121.81726422431984 Z-1
G01 X95.02190375062969 Y120.1497970935925 Z-1
G01 X92.2323592035541 Y118.47825566703 Z-1
G01 X89.44262043322351 Y116.80227661206663 Z-1
G01 X86.65293812040409 Y115.12203011872793 Z-1
G01 X83.86318375149358 Y113.43745601798446 Z-1
G01 X81.0735110727594 Y111.74866658989617 Z-1
G01 X78.28377894219943 Y110.05559579954206 Z-1
G01 X75.49418500822821 Y108.35838086482977 Z-1
G01 X72.70416676807963 Y106.65669851196981 Z-1
G01 X69.91415236182934 Y104.9508269870505 Z-1
G01 X67.12444395401985 Y103.24096937843137 Z-1
G01 X64.33478461737263 Y101.5269891454393 Z-1
G01 X61.54499133368563 Y99.80879007604813 Z-1
G01 X58.75503329401454 Y98.08637181087238 Z-1
G01 X55.96509513048545 Y96.35986577109338 Z-1
G01 X53.17520819916672 Y94.62930957682738 Z-1
G01 X50.385394919464034 Y92.89473540316703 Z-1
G01 X47.59539844538676 Y91.15600125161905 Z-1
G01 X44.80530646611396 Y89.41317831157903 Z-1
G01 X42.01531245787805 Y87.66640669038748 Z-1
G01 X39.225565309682906 Y85.91579772217551 Z-1
G01 X36.43577650135421 Y84.16118739355852 Z-1
G01 X33.645669460834824 Y82.40241968255896 Z-1
G01 X30.855437755209095 Y80.6396328514054 Z-1
G01 X28.065585504891715 Y78.87316304671481 Z-1
G01 X25.27528788626637 Y77.10250601732378 Z-1
G01 X22.485220176524535 Y75.32810645729523 Z-1
G01 X19.69534087396528 Y73.54995649269244 Z-1
G01 X16.90525323568454 Y71.76782079872032 Z-1
G01 X14.115137425068951 Y69.98183076261853 Z-1
G01 X11.324955528343708 Y68.19197901626103 Z-1
G01 X8.534764344226687 Y66.39831922380131 Z-1
G01 X5.74443978804743 Y64.60078687823875 Z-1
G01 X2.954182917602111 Y62.799530036351825 Z-1
G01 X0.16385575842878097 Y60.994475752662765 Z-1
G01 X-2.626123816071413 Y59.18591166948204 Z-1
G01 X-5.41591748118276 Y57.3737504025562 Z-1
G01 X-8.205945699131007 Y55.55773607793935 Z-1
G01 X-10.996021603658392 Y53.73800597898935 Z-1
G01 X-13.786438701513589 Y51.91438406712905 Z-1
G01 X-16.503804053599424 Y50.28395249095411 Z-1
G01 X-19.144333936529165 Y48.9872202913009 Z-1
G01 X-21.67490946300586 Y48.029516281442966 Z-1
G01 X-24.0626605042537 Y47.416416926443844 Z-1
G01 X-26.274911527025324 Y47.15378012870019 Z-1
G01 X-28.279137841208012 Y47.24776683954792 Z-1
G01 X-30.04291933312743 Y47.704851907597 Z-1
G01 X-31.533901618271102 Y48.531828851488854 Z-1
G01 X-32.9136307733811 Y49.569280822713154 Z-1
G01 X-34.2981054160025 Y50.6012222939662 Z-1
G01 X-35.687066710136605 Y51.62745681102592 Z-1
G01 X-37.08073335623317 Y52.648142474198266 Z-1
G01 X-38.478976578937136 Y53.66318025616488 Z-1
G01 X-39.88169105468478 Y54.67249089140728 Z-1
G01 X-41.288930954850684 Y55.67611068231099 Z-1
G01 X-42.70064090610231 Y56.67399711290318 Z-1
G01 X-44.11684159250876 Y57.66616175565218 Z-1
G01 X-45.537545075404296 Y58.652609356393214 Z-1
G01 X-46.96282560735517 Y59.63338662564274 Z-1
G01 X-48.39254552865282 Y60.608394250868514 Z-1
G01 X-49.82673803753187 Y61.577650926925116 Z-1
G01 X-51.26526555938449 Y62.54106035723498 Z-1
G01 X-52.708334895700546 Y63.49875676081865 Z-1
G01 X-54.15575203582148 Y64.45060666089239 Z-1
G01 X-55.60756241373019 Y65.39663624161221 Z-1
G01 X-57.06376664354252 Y66.33684147435815 Z-1
G01 X-58.524246080727835 Y67.27114206439956 Z-1
G01 X-59.989103815524686 Y68.19960009280157 Z-1
G01 X-61.45842502866435 Y69.12226371061297 Z-1
G01 X-62.93203618347161 Y70.03901858823224 Z-1
G01 X-64.4098775023208 Y70.94982392187353 Z-1
G01 X-65.89198515629141 Y71.85469828652572 Z-1
G01 X-67.378466758483 Y72.75370212324583 Z-1
G01 X-68.86928451270614 Y73.64680642718145 Z-1
G01 X-70.36423929384591 Y74.53388750715771 Z-1
G01 X-71.86336552086459 Y75.41496249620627 Z-1
G01 X-73.36691363435034 Y76.29017259275224 Z-1
G01 X-74.87473822557763 Y77.1594260074753 Z-1
G01 X-76.38669403586437 Y78.02263402716835 Z-1
G01 X-77.90262844498056 Y78.8797067492169 Z-1
G01 X-79.42276246683446 Y79.730765505607 Z-1
G01 X-80.94728450079856 Y80.5759084942813 Z-1
G01 X-82.4759547412882 Y81.41499566902849 Z-1
G01 X-84.00849879422708 Y82.24787326019919 Z-1
G01 X-85.54535252398091 Y83.07477340522746 Z-1
G01 X-87.0861310625935 Y83.89548360785193 Z-1
G01 X-88.63112946752494 Y84.7101560908568 Z-1
G01 X-90.18019175016252 Y85.51870228761686 Z-1
G01 X-91.73325872961755 Y86.3210864706416 Z-1
G01 X-93.29035326670078 Y87.117315652162 Z-1
G01 X-94.85156301628513 Y87.90742873616341 Z-1
G01 X-96.41667789603707 Y88.69131420786061 Z-1
G01 X-97.98570396022205 Y89.46897126509862 Z-1
G01 X-99.55882703074144 Y90.24048643009314 Z-1
G01 X-101.13605724434501 Y91.00585734481183 Z-1
G01 X-102.7172211905629 Y91.76499357686748 Z-1
G01 X-104.30226840921387 Y92.5178661203422 Z-1
G01 X-105.89123114398694 Y93.26448542122853 Z-1
G01 X-107.48418629461162 Y94.00488168506581 Z-1
G01 X-109.08092898980726 Y94.73895451521253 Z-1
G01 X-110.68152451247693 Y95.46672958936733 Z-1
G01 X-112.2859602358908 Y96.1881962107725 Z-1
G01 X-113.89436537430811 Y96.90340643883656 Z-1
G01 X-115.50667510069047 Y97.6123247159237 Z-1
G01 X-117.1228321607864 Y98.31491984891386 Z-1
G01 X-118.74270405044967 Y99.01112942093687 Z-1
G01 X-120.3664578976825 Y99.70101998955283 Z-1
G01 X-121.99394782911281 Y100.38452394520459 Z-1
G01 X-123.62526625763076 Y101.06167466532679 Z-1
G01 X-125.26032236128026 Y101.73242880972771 Z-1
G01 X-126.89905725646076 Y102.39675747959973 Z-1
G01 X-128.54173164530403 Y103.05475996636073 Z-1
G01 X-130.18800189588478 Y103.70629264161175 Z-1
G01 X-131.83797830989602 Y104.35139467691329 Z-1
G01 X-133.49158776115132 Y104.99003254412605 Z-1
G01 X-135.14910009251298 Y105.62230393943446 Z-1
G01 X-136.81011694392396 Y106.24805112540912 Z-1
G01 X-138.47480642503865 Y106.86733311448802 Z-1
G01 X-140.14316096223638 Y107.48014145858383 Z-1
G01 X-141.81532283212277 Y108.08652167507262 Z-1
G01 X-143.49110035381432 Y108.68639769817878 Z-1
G01 X-145.17035882019468 Y109.2797168705199 Z-1
G01 X-146.85318025159904 Y109.866503934006 Z-1
G01 X-148.53976561261197 Y110.44682260089348 Z-1
G01 X-150.22977586958405 Y111.02055065314835 Z-1
G01 X-151.9232569339847 Y111.5876999767188 Z-1
G01 X-153.62052550505905 Y112.14837028980332 Z-1
G01 X-155.32108258642938 Y112.7023915069476 Z-1
G01 X-156.6983954631603 Y113.34352361852598 Z-1
G01 X-157.7885592613302 Y114.27125733489243 Z-1
G01 X-158.58786476908813 Y115.46713129125965 Z-1
G01 X-159.09244372458465 Y116.9127927573013 Z-1
G01 X-159.29824621894022 Y118.58997294599772 Z-1
G01 X-159.201037920486 Y120.48044846355288 Z-1
G01 X-158.79638862896695 Y122.56600688013418 Z-1
G01 X-158.07967262274178 Y124.82839926983183 Z-1
G01 X-157.06614351304916 Y127.20574556403949 Z-1
G01 X-155.78882026276005 Y129.62903455859896 Z-1
G01 X-154.26955017668047 Y132.06906745374067 Z-1
G01 X-152.5301435361307 Y134.4963906540379 Z-1
G01 X-150.5924115934872 Y136.881300571285 Z-1
G01 X-148.47818556820903 Y139.19385407885807 Z-1
G01 X-146.20935295704066 Y141.40387971213 Z-1
G01 X-143.80789502530024 Y143.48098141227047 Z-1
G01 X-141.05496363180077 Y145.71873623584906 Z-1
G01 X-138.30223281278654 Y147.95393683746966 Z-1
G01 X-135.54992930479216 Y150.186385001075 Z-1
G01 X-132.79786555614214 Y152.41621904258568 Z-1
G01 X-130.04626109112837 Y154.64324618822343 Z-1
G01 X-127.29467329391014 Y156.86781005481203 Z-1
G01 X-124.54354385696615 Y159.08953953695823 Z-1
G01 X-121.79231218468385 Y161.30887237079423 Z-1
G01 X-119.0415958080082 Y163.52529471088792 Z-1
G01 X-116.29082971104367 Y165.73924782846098 Z-1
G01 X-113.54058338340178 Y167.95025647452303 Z-1
G01 X-110.7905228629968 Y170.15857560881068 Z-1
G01 X-108.04058410391553 Y172.36424107781158 Z-1
G01 X-105.29110242082993 Y174.56696791545983 Z-1
G01 X-102.54178864045434 Y176.76697242829937 Z-1
G01 X-99.79254725392911 Y178.9643164498184 Z-1
G01 X-97.04383167039646 Y181.15862020664304 Z-1
G01 X-94.29514808238241 Y183.35026282742797 Z-1
G01 X-91.54699323558884 Y185.53883270926826 Z-1
G01 X-88.79876079019982 Y187.72479584641792 Z-1
G01 X-86.05113309999888 Y189.90759369069247 Z-1
G01 X-83.30340193373104 Y192.0877725584628 Z-1
G01 X-80.55635295631555 Y194.26469275939326 Z-1
G01 X-77.80948332066646 Y196.4387367646434 Z-1
G01 X-75.06295549165975 Y198.6097597227722 Z-1
G01 X-72.31667958078606 Y200.7778149661517 Z-1
G01 X-69.57033253180543 Y202.9431419547468 Z-1
G01 X-66.82440018759098 Y205.10533857035784 Z-1
G01 X-64.07869358031667 Y207.2645370440116 Z-1
G01 X-61.33338155445222 Y209.42058898239566 Z-1
G01 X-58.588495873706506 Y211.5734507429156 Z-1
G01 X-55.8439450681858 Y213.72317770463042 Z-1
G01 X-53.09952288199861 Y215.86991410877795 Z-1
G01 X-50.35545299559567 Y218.0134664858922 Z-1
G01 X-47.61133293606326 Y220.15413140680926 Z-1
G01 X-44.86775341820976 Y222.29143005552714 Z-1
G01 X-42.12469874590579 Y224.42535745298596 Z-1
G01 X-39.381539822307786 Y226.55638498625876 Z-1
G01 X-36.63867117503719 Y228.6841861748237 Z-1
G01 X-33.896438173472916 Y230.80847677690053 Z-1
G01 X-31.154586955800596 Y232.9294349361246 Z-1
G01 X-28.412812890883515 Y235.04727710028737 Z-1
G01 X-25.671321261218964 Y237.16182632451 Z-1
G01 X-22.93027973430526 Y239.27293354196127 Z-1
G01 X-20.189262311756465 Y241.38090914133227 Z-1
G01 X-17.448927634313804 Y243.4852261791109 Z-1
G01 X-14.70878300730078 Y245.58624533937495 Z-1
G01 X-11.968867498137797 Y247.68391697986772 Z-1
G01 X-9.229194813225604 Y249.77821049714248 Z-1
G01 X-6.489752542447832 Y251.8691151295135 Z-1
G01 X-3.7505063995145065 Y253.95663770723263 Z-1
G01 X-1.011971582198612 Y256.040365484031 Z-1
G01 X1.7264971567917655 Y258.1207700523423 Z-1
G01 X4.46442101610819 Y260.1974675001377 Z-1
G01 X7.201911102367831 Y262.27052245403763 Z-1
G01 X9.939090862993453 Y264.340008954067 Z-1
G01 X12.6761036356545 Y266.4060122507216 Z-1
G01 X15.412529791706902 Y268.4681974177505 Z-1
G01 X18.149111053297474 Y270.52710221034886 Z-1
G01 X20.884879344299407 Y272.5819762201721 Z-1
G01 X23.620599401830987 Y274.63337276860443 Z-1
G01 X26.355897208205533 Y276.6809909849769 Z-1
G01 X29.090983553591514 Y278.7249672597844 Z-1
G01 X31.825504618253262 Y280.7650151362093 Z-1
G01 X34.559687130172506 Y282.8012829714743 Z-1
G01 X37.293766370311914 Y284.8339241622016 Z-1
G01 X40.027412450567226 Y286.8626705037748 Z-1
G01 X42.760872855017624 Y288.8876834899912 Z-1
G01 X45.4938302741341 Y290.90870704190354 Z-1
G01 X48.22654502350201 Y292.92591027668516 Z-1
G01 X50.95871071181273 Y294.9390459304833 Z-1
G01 X53.69059830274887 Y296.94828895849696 Z-1
G01 X56.4219110149063 Y298.95340138541144 Z-1
G01 X59.15292773942792 Y300.95456382626287 Z-1
G01 X61.88336095045997 Y302.9515437005973 Z-1
G01 X64.61349604370776 Y304.94452651552785 Z-1
G01 X67.3436225726332 Y306.9336990646177 Z-1
G01 X70.07289245579295 Y308.9184206698378 Z-1
G01 X72.802168767392 Y310.89929559256984 Z-1
G01 X75.53061152492069 Y312.8756906401636 Z-1
G01 X78.25908425610373 Y314.84820795093503 Z-1
G01 X80.98675507191615 Y316.8162217525579 Z-1
G01 X83.71448632338615 Y318.7803288155959 Z-1
G01 X86.44145160124322 Y320.739912045412 Z-1
G01 X89.16795378225424 Y322.6951644366877 Z-1
G01 X91.89429196387596 Y324.6462747443909 Z-1
G01 X94.62020701304095 Y326.5930343469921 Z-1
G01 X97.34544243824325 Y328.5352334684985 Z-1
G01 X100.07029817716102 Y330.47306343216223 Z-1
G01 X102.79507299878219 Y332.4067099506582 Z-1
G01 X105.51950973715952 Y334.3359639036547 Z-1
G01 X108.24335427565438 Y336.26062012780267 Z-1
G01 X110.9669011236465 Y338.1808628707473 Z-1
G01 X113.68989672542239 Y340.09648561200754 Z-1
G01 X116.4126339125728 Y342.007669184173 Z-1
G01 X119.13485640782505 Y343.91420746953713 Z-1
G01 X121.85631098299041 Y345.8158983423316 Z-1
G01 X124.57728733284603 Y347.71291798793834 Z-1
G01 X127.29806637720276 Y349.6054357119508 Z-1
G01 X130.01839185045583 Y351.4932460831692 Z-1
G01 X132.73800687318226 Y353.3761443249733 Z-1
G01 X135.4571872607139 Y355.2542963196429 Z-1
G01 X138.17620486030592 Y357.1278611912826 Z-1
G01 X140.894796196161 Y358.9966289667558 Z-1
G01 X143.61269943579123 Y360.860393201903 Z-1
G01 X146.33017701653603 Y362.71930681805964 Z-1
G01 X149.04748617800237 Y364.57351809542547 Z-1
G01 X151.76435692700716 Y366.4228124813401 Z-1
G01 X154.48051959249233 Y368.2669797990359 Z-1
G01 X157.19622260444294 Y370.10616074162 Z-1
G01 X159.9111927563331 Y371.94014388425364 Z-1
G01 X162.62566820951383 Y373.7690611256535 Z-1
G01 X165.3398791159202 Y375.5930388325752 Z-1
G01 X168.05354423714175 Y377.4118592788051 Z-1
G01 X170.76688414369096 Y379.22563986790374 Z-1
G01 X173.47961126513178 Y381.0341608951511 Z-1
G01 X176.19193601643815 Y382.8375326732712 Z-1
G01 X178.9035664370349 Y384.63553117240156 Z-1
G01 X181.61470294972924 Y386.4282624145874 Z-1
G01 X184.32553977071098 Y388.215822048207 Z-1
G01 X187.03576999438042 Y389.99797929815156 Z-1
G01 X189.7455757092789 Y391.77482440284234 Z-1
G01 X192.45464775075152 Y393.5461227819684 Z-1
G01 X195.16315528239602 Y395.3119572379718 Z-1
G01 X197.87125928394016 Y397.07240169407646 Z-1
G01 X200.5786364482617 Y398.82721653356305 Z-1
G01 X203.28543829184332 Y400.576467839432 Z-1
G01 X205.9918013059048 Y402.32021455695406 Z-1
G01 X208.69785671799627 Y404.05850931549946 Z-1
G01 X211.4032610908173 Y405.7910991652035 Z-1
G01 X214.10812991390458 Y407.51802794736204 Z-1
G01 X216.81211564462092 Y409.23904245987035 Z-1
G01 X219.51577643116502 Y410.9544675653734 Z-1
G01 X222.21874746477442 Y412.66403895601945 Z-1
G01 X224.92111316668525 Y414.3677791523014 Z-1
G01 X227.62294777748957 Y416.06570257630904 Z-1
G01 X230.32431333141858 Y417.75781698682624 Z-1
G01 X233.0248237665994 Y419.4438479930617 Z-1
G01 X235.72496673564774 Y421.124066998413 Z-1
G01 X238.42433770832463 Y422.7981918716365 Z-1
G01 X241.12296628564582 Y424.4662067634903 Z-1
G01 X243.82129677426224 Y426.1283548128247 Z-1
G01 X246.51890389602 Y427.78434060346467 Z-1
G01 X249.21578138499763 Y429.43412716518264 Z-1
G01 X251.91233302897604 Y431.07792870900255 Z-1
G01 X254.60810866977727 Y432.7154362559361 Z-1
G01 X257.3034803783945 Y434.34684220589054 Z-1
G01 X259.99798251853406 Y435.971832606559 Z-1
G01 X262.6919590585576 Y437.5905803553451 Z-1
G01 X265.3849274305454 Y439.20276392671394 Z-1
G01 X268.0772035658331 Y440.8085372992721 Z-1
G01 X270.7690782402433 Y442.40804234403083 Z-1
G01 X273.460036079284 Y444.00093699113063 Z-1
G01 X276.1503384663838 Y445.58734349834833 Z-1
G01 X278.84022218310827 Y447.16736539487624 Z-1
G01 X281.52913794515837 Y448.74064665440176 Z-1
G01 X284.21767081281064 Y450.3074941366002 Z-1
G01 X286.9052459893487 Y451.86753902562907 Z-1
G01 X289.59240324748737 Y453.4210589736474 Z-1
G01 X292.2785409185078 Y454.96767146065827 Z-1
G01 X294.96415150608345 Y456.50762741100937 Z-1
G01 X297.64932992861645 Y458.04094232451155 Z-1
G01 X300.33378912024875 Y459.56741658802855 Z-1
G01 X303.01722876074814 Y461.08684661911707 Z-1
G01 X305.6996906035333 Y462.59922180018793 Z-1
G01 X308.3815367427103 Y464.1047108754899 Z-1
G01 X311.06274737387434 Y465.6032673024206 Z-1
G01 X313.74327774997494 Y467.094828473048 Z-1
G01 X316.4230575797677 Y468.5793206926593 Z-1
G01 X319.1019952624923 Y470.0566577494817 Z-1
G01 X321.7799722545309 Y471.5267385574748 Z-1
G01 X324.45749215108333 Y472.9898040939171 Z-1
G01 X327.13404881880217 Y474.4455403937617 Z-1
G01 X329.8100723765938 Y475.89414550908157 Z-1
G01 X332.4850030432667 Y477.3352804699846 Z-1
G01 X335.1591976565262 Y478.76910223573816 Z-1
G01 X337.8323503403582 Y480.19541168334365 Z-1
G01 X340.5047360766514 Y481.6143194991349 Z-1
G01 X343.1765735056774 Y483.0259032214208 Z-1
G01 X345.84744338902783 Y484.4299057967162 Z-1
G01 X348.5174828940941 Y485.8263633920674 Z-1
G01 X351.18677659679895 Y487.21528238970905 Z-1
G01 X353.855356563011 Y488.5966428935883 Z-1
G01 X356.52264699257137 Y489.9701100612049 Z-1
G01 X359.1891472221216 Y491.3359072179934 Z-1
G01 X361.85473509107464 Y492.69393498899547 Z-1
G01 X364.51976997135614 Y494.04433764470014 Z-1
G01 X367.1834786684859 Y495.38668807647923 Z-1
G01 X369.8466205399757 Y496.72133171989367 Z-1
G01 X372.50882470971146 Y498.0480456435603 Z-1
G01 X375.170174033007 Y499.36683285424624 Z-1
G01 X377.8301767513773 Y500.67741631953345 Z-1
G01 X380.4892646100295 Y501.9799723219937 Z-1
G01 X383.14775735027763 Y503.2746196347978 Z-1
G01 X385.8049308292042 Y504.56096943838816 Z-1
G01 X388.4613940219107 Y505.8392793705532 Z-1
G01 X391.11716677463255 Y507.1095208908872 Z-1
G01 X393.771716796187 Y508.3714011428714 Z-1
G01 X396.42531026622976 Y509.62501278422735 Z-1
G01 X399.0776493491063 Y510.8701780501841 Z-1
G01 X401.72917195002447 Y512.1070661865434 Z-1
G01 X404.37973657767304 Y513.3355753780123 Z-1
G01 X407.0290713676759 Y514.5555413706344 Z-1
G01 X409.6775620862413 Y515.7671062899227 Z-1
G01 X412.3250137936968 Y516.970143604499 Z-1
G01 X414.97144903795197 Y518.1646274183313 Z-1
G01 X417.6167045459506 Y519.3504466167665 Z-1
G01 X420.2611459334254 Y520.5277304932099 Z-1
G01 X422.90419016148314 Y521.6961811346971 Z-1
G01 X425.54610038082456 Y522.8558817810006 Z-1
G01 X428.18686499282796 Y524.0067906896388 Z-1
G01 X430.8268498567378 Y525.1490303867491 Z-1
G01 X433.465456174805 Y526.282305013316 Z-1
G01 X436.1030529602907 Y527.40673925183 Z-1
G01 X438.73962092653267 Y528.5222865408683 Z-1
G01 X441.37476083227773 Y529.6287440135962 Z-1
G01 X444.00882276289383 Y530.7262230447137 Z-1
G01 X446.64165731319076 Y531.8146257579103 Z-1
G01 X449.2731513647318 Y532.89387296602 Z-1
G01 X451.90366654431546 Y533.964075043631 Z-1
G01 X454.5328934941881 Y535.0250712996269 Z-1
G01 X457.1608212390605 Y536.0768235947983 Z-1
G01 X459.787579994711 Y537.1193478469388 Z-1
G01 X462.4132869162328 Y538.1526560088146 Z-1
G01 X465.0374825445622 Y539.1765325610609 Z-1
G01 X467.6606850188474 Y540.1911456338462 Z-1
G01 X470.28244597116907 Y541.1962869898814 Z-1
G01 X472.90278151658765 Y542.1919283082212 Z-1
G01 X475.5217801922562 Y543.1780725648681 Z-1
G01 X478.1395622585055 Y544.1547295066936 Z-1
G01 X480.75613793457103 Y545.1218686986457 Z-1
G01 X483.37148330058335 Y546.0794466825356 Z-1
G01 X485.9854170924947 Y547.0273640759768 Z-1
G01 X488.59756457747187 Y547.9654530349201 Z-1
G01 X491.20870092634914 Y548.8939608191821 Z-1
G01 X493.8180117051553 Y549.8125660383813 Z-1
G01 X496.4261246626912 Y550.7214560587432 Z-1
G01 X499.0329496399005 Y551.62056785183 Z-1
G01 X501.63839737715773 Y552.5098361918972 Z-1
G01 X504.24204462223975 Y553.3890874359063 Z-1
G01 X506.8442623801392 Y554.2584161234491 Z-1
G01 X509.4451848804947 Y555.1178351333193 Z-1
G01 X512.0445196478469 Y555.967216327643 Z-1
G01 X514.6419918200625 Y556.8064420866828 Z-1
G01 X517.2383709693336 Y557.635729155086 Z-1
G01 X519.83298879325 Y558.4548326938918 Z-1
G01 X522.4260979072025 Y559.2638053885323 Z-1
G01 X525.0405540797892 Y559.8746233322922 Z-1
G01 X527.6155348227611 Y560.1012201558666 Z-1
G01 X530.1299666253939 Y559.9643904655613 Z-1
G01 X532.5622201588868 Y559.4851952376409 Z-1
G01 X534.8901785753535 Y558.6849222620287 Z-1
G01 X537.091314407087 Y557.5850420861265 Z-1
G01 X539.1427555792548 Y556.2071518655672 Z-1
G01 X541.0213605987433 Y554.5729223033156 Z-1
G01 X541.0213605987433 Y554.5729223033156 Z-1
S80 (pen up)
G00 Z1

(End cutting path id: path12)


(Footer)
M5
G00 X0 Y0
M2
(Using default footer. To add your own footer create file "footer" in the output dir.)
(end)
%