%
(Header)
(Generated by gcodetools from Inkscape.)
(Using default header. To add your own header create file "header" in the output dir.)
M3
(Header end.)
G21 (All units in mm)

(Start cutting path id: rect4136)
(Change tool to Default tool)

S80 (pen up)
G00 Z1
G00 X126.20019580229291 Y142.43655501693434

S83 (pen down)
G01 Z-0.125 F1000
G01 X124.81683219151728 Y143.74873577251128 Z-0.125 F1000
G01 X123.42812829632658 Y145.05534072561431 Z-0.125
G01 X122.0340190709112 Y146.3564282242112 Z-0.125
G01 X120.63468994764617 Y147.65182311320268 Z-0.125
G01 X119.23017271348317 Y148.94149570615173 Z-0.125
G01 X117.820459616971 Y150.22545249563063 Z-0.125
G01 X116.40558480883146 Y151.50366141877385 Z-0.125
G01 X114.98542879775937 Y152.7762279134663 Z-0.125
G01 X113.5600543718831 Y154.04309199024647 Z-0.125
G01 X112.12964062927449 Y155.30409279003266 Z-0.125
G01 X110.69397304816039 Y156.55941677755663 Z-0.125
G01 X109.25327464893007 Y157.8088657989067 Z-0.125
G01 X107.80746019499657 Y159.05251152489973 Z-0.125
G01 X106.35642845927191 Y160.2904362289205 Z-0.125
G01 X104.90028088396002 Y161.52254802285597 Z-0.125
G01 X103.4391085933346 Y162.74876592986766 Z-0.125
G01 X101.97313529365806 Y163.96890104786485 Z-0.125
G01 X100.502123636124 Y165.18314904111185 Z-0.125
G01 X99.02591212469292 Y166.39163669014397 Z-0.125
G01 X97.54489501648595 Y167.59403655949086 Z-0.125
G01 X96.05879875947812 Y168.79056675935453 Z-0.125
G01 X94.56791892979686 Y169.9809850056531 Z-0.125
G01 X93.07204158757236 Y171.16545811662013 Z-0.125
G01 X91.57139660670305 Y172.34379969144425 Z-0.125
G01 X90.06581594042927 Y173.51613739964046 Z-0.125
G01 X88.55527650013687 Y174.6824825461099 Z-0.125
G01 X87.03996082384879 Y175.84268857619236 Z-0.125
G01 X85.51983096143613 Y176.9967798437924 Z-0.125
G01 X83.99489002191194 Y178.14474844889833 Z-0.125
G01 X82.46507059018131 Y179.28663849943723 Z-0.125
G01 X80.93057742373162 Y180.422291347571 Z-0.125
G01 X79.39117786006386 Y181.55187263385506 Z-0.125
G01 X77.84707054011528 Y182.67522925756657 Z-0.125
G01 X76.29854729192425 Y183.79214569829537 Z-0.125
G01 X74.74504731450565 Y184.90302025052483 Z-0.125
G01 X73.18710315488784 Y186.00746516617892 Z-0.125
G01 X71.62441586383261 Y187.1056871490057 Z-0.125
G01 X70.05706558581323 Y188.1976221789614 Z-0.125
G01 X68.48524960826467 Y189.2831272043627 Z-0.125
G01 X66.18108788101631 Y186.71722262027492 Z-0.125
G01 X63.874772045215195 Y184.15011657809328 Z-0.125
G01 X61.566297034180934 Y181.58179815390963 Z-0.125
G01 X59.25570836798215 Y179.01231271793904 Z-0.125
G01 X56.9431065350459 Y176.44176667468173 Z-0.125
G01 X54.628763839478324 Y173.87045711695123 Z-0.125
G01 X52.312474040776806 Y171.2981493165646 Z-0.125
G01 X49.99423699458498 Y168.72483772573833 Z-0.125
G01 X47.67398646746142 Y166.15044352874406 Z-0.125
G01 X45.35150795763889 Y163.5747236842201 Z-0.125
G01 X43.02750958724505 Y160.99845815991353 Z-0.125
G01 X40.70157407323927 Y158.42117883932883 Z-0.125
G01 X38.37345690669849 Y155.84260978030352 Z-0.125
G01 X36.043560004495475 Y153.2631910516211 Z-0.125
G01 X33.71176366539362 Y150.6827848845562 Z-0.125
G01 X31.378037555186438 Y148.1013526120571 Z-0.125
G01 X29.042404088184185 Y145.51891397496388 Z-0.125
G01 X26.705169969972303 Y142.9358028441793 Z-0.125
G01 X24.36580763746906 Y140.3514311090346 Z-0.125
G01 X22.02462522971632 Y137.76613432657564 Z-0.125
G01 X19.681710836008733 Y135.1800046803196 Z-0.125
G01 X17.336855685610317 Y132.5928067598054 Z-0.125
G01 X14.990503885489943 Y130.00502548259715 Z-0.125
G01 X12.642023271247353 Y127.41595871647723 Z-0.125
G01 X10.291869836554497 Y124.82610440649478 Z-0.125
G01 X7.939948161708799 Y122.2353524333871 Z-0.125
G01 X5.586247988736432 Y119.64368664020617 Z-0.125
G01 X3.2308030089188833 Y117.05113929001777 Z-0.125
G01 X0.8735247631768743 Y114.45760825883349 Z-0.125
G01 X-1.4852748802156839 Y111.86343180220774 Z-0.125
G01 X-3.845726688669174 Y109.26846115539524 Z-0.125
G01 X-6.208074128168846 Y106.67242399609336 Z-0.125
G01 X-8.57219563836702 Y104.07544935749729 Z-0.125
G01 X-10.93811923811586 Y101.47750188398118 Z-0.125
G01 X-13.305453097455938 Y98.87900705975085 Z-0.125
G01 X-15.674663754773292 Y96.27944810274744 Z-0.125
G01 X-18.045485435161936 Y93.67911210332636 Z-0.125
G01 X-20.41828092677747 Y91.07759672267343 Z-0.125
G01 X-18.956492142289335 Y90.08392053326929 Z-0.125
G01 X-17.4992313485227 Y89.08426935830539 Z-0.125
G01 X-16.04642730686487 Y88.0785976737684 Z-0.125
G01 X-14.59826904915144 Y87.06704040405339 Z-0.125
G01 X-13.154783018642547 Y86.04962175098285 Z-0.125
G01 X-11.715957215134722 Y85.02633875990864 Z-0.125
G01 X-10.281819725518744 Y83.99721669463156 Z-0.125
G01 X-8.852246213617263 Y82.96217031514743 Z-0.125
G01 X-7.427297331327054 Y81.92124650803135 Z-0.125
G01 X-6.007147642817017 Y80.87457765675231 Z-0.125
G01 X-4.591580129993417 Y79.82200786921408 Z-0.125
G01 X-3.1808131634604706 Y78.76370319102443 Z-0.125
G01 X-1.7747579057158873 Y77.69960152838507 Z-0.125
G01 X-0.3733149955182853 Y76.62962994799636 Z-0.125
G01 X1.0234184712876413 Y75.55386439209929 Z-0.125
G01 X2.415357339066759 Y74.4723736681292 Z-0.125
G01 X3.802293287113798 Y73.3853254297428 Z-0.125
G01 X5.184454947558152 Y72.2925456655912 Z-0.125
G01 X6.561993718308486 Y71.19391552480465 Z-0.125
G01 X7.934543070269456 Y70.08972996063494 Z-0.125
G01 X9.302358530148013 Y68.97978675228023 Z-0.125
G01 X10.665169722070004 Y67.86430837658577 Z-0.125
G01 X12.023174131637688 Y66.74313658745996 Z-0.125
G01 X13.3761650896206 Y65.61644507492679 Z-0.125
G01 X14.724294263042111 Y64.48411074136789 Z-0.125
G01 X16.067583556742875 Y63.346116058986354 Z-0.125
G01 X17.405869015228518 Y62.202601869686305 Z-0.125
G01 X18.73918668837223 Y61.05354024737676 Z-0.125
G01 X20.06753365328791 Y59.89893576066902 Z-0.125
G01 X21.390967844315128 Y58.73873901100228 Z-0.125
G01 X22.70931254973948 Y57.57310672042581 Z-0.125
G01 X24.022765948777305 Y56.40186473727704 Z-0.125
G01 X25.33115700843973 Y55.22516584742834 Z-0.125
G01 X26.63424166235245 Y54.04323409285098 Z-0.125
G01 X27.93249080228975 Y52.855643805940645 Z-0.125
G01 X29.22545809621738 Y51.66280395221179 Z-0.125
G01 X30.513392381097674 Y50.46448744022882 Z-0.125
G01 X31.79622415510653 Y49.26075880021881 Z-0.125
G01 X33.07379360547134 Y48.05177007108023 Z-0.125
G01 X35.550495331552156 Y50.5593926884826 Z-0.125
G01 X38.02600854625962 Y53.06594059886015 Z-0.125
G01 X40.50034278554199 Y55.57142408215282 Z-0.125
G01 X42.973455009420604 Y58.075800182949706 Z-0.125
G01 X45.445241743178485 Y60.57896473783853 Z-0.125
G01 X47.915413977320895 Y63.08062566109879 Z-0.125
G01 X50.38419913848065 Y65.58101387038641 Z-0.125
G01 X52.85160044135114 Y68.08013323620048 Z-0.125
G01 X55.31769196579694 Y70.57805941605875 Z-0.125
G01 X57.782704441111036 Y73.0750267725416 Z-0.125
G01 X60.245889915516045 Y75.57027827501065 Z-0.125
G01 X62.707694722656925 Y78.0642666643007 Z-0.125
G01 X65.1683800335677 Y80.55725718547205 Z-0.125
G01 X67.62752356110627 Y83.04882265842821 Z-0.125
G01 X70.0852545733128 Y85.5390946867974 Z-0.125
G01 X72.54160742779209 Y88.0281087327412 Z-0.125
G01 X74.99656069029811 Y90.51584373250694 Z-0.125
G01 X77.44979465372876 Y93.00197634093911 Z-0.125
G01 X79.90186504034841 Y95.48707038871794 Z-0.125
G01 X82.35245015450414 Y97.97080052864317 Z-0.125
G01 X84.80145973385675 Y100.45307592772701 Z-0.125
G01 X87.24911435707122 Y102.93412082716168 Z-0.125
G01 X89.69494958181986 Y105.41346509845494 Z-0.125
G01 X92.13962905826543 Y107.89178215616084 Z-0.125
G01 X94.58267605180254 Y110.36858939955937 Z-0.125
G01 X97.02419090338526 Y112.843989221215 Z-0.125
G01 X99.46418673364428 Y115.31799560388822 Z-0.125
G01 X101.90262829832386 Y117.79057349505501 Z-0.125
G01 X104.33960741314809 Y120.26181668895242 Z-0.125
G01 X106.77480217846141 Y122.73139943709293 Z-0.125
G01 X109.20834916734998 Y125.19946090608755 Z-0.125
G01 X111.64049732795343 Y127.66625428035081 Z-0.125
G01 X114.07112074239149 Y130.1316525704931 Z-0.125
G01 X116.50024919666384 Y132.59568670719295 Z-0.125
G01 X118.92747931874464 Y135.05794821061113 Z-0.125
G01 X121.35328889085054 Y137.51892245927888 Z-0.125
G01 X123.7774046017264 Y139.9783329052127 Z-0.125
G01 X126.20019580229291 Y142.43655501693434 Z-0.125
S80 (pen up)
G00 Z1

(End cutting path id: rect4136)


(Footer)
M5
G00 X0 Y0
M2
(Using default footer. To add your own footer create file "footer" in the output dir.)
(end)
%