%
(Header)
(Generated by gcodetools from Inkscape.)
(Using default header. To add your own header create file "header" in the output dir.)
M3
(Header end.)
G21 (All units in mm)

(Start cutting path id: path4136)
(Change tool to Default tool)

G00 Z5.000000
G00 X149.980956 Y211.263487

G01 Z-0.125000 F100.0(Penetrate)
G01 X149.721297 Y208.712103 Z-0.125000 F400.000000
G01 X149.461622 Y206.160558 Z-0.125000
G01 X149.201954 Y203.609080 Z-0.125000
G01 X148.942301 Y201.057756 Z-0.125000
G01 X148.682651 Y198.506460 Z-0.125000
G01 X148.423022 Y195.955367 Z-0.125000
G01 X148.163339 Y193.403749 Z-0.125000
G01 X147.903694 Y190.852496 Z-0.125000
G01 X147.644031 Y188.301074 Z-0.125000
G01 X147.384385 Y185.749810 Z-0.125000
G01 X146.556947 Y183.109470 Z-0.125000
G01 X145.729462 Y180.468980 Z-0.125000
G01 X144.901993 Y177.828539 Z-0.125000
G01 X144.074478 Y175.187954 Z-0.125000
G01 X143.247121 Y172.547872 Z-0.125000
G01 X142.419688 Y169.907549 Z-0.125000
G01 X141.592203 Y167.267057 Z-0.125000
G01 X140.764714 Y164.626554 Z-0.125000
G01 X139.937299 Y161.986288 Z-0.125000
G01 X138.628029 Y159.596968 Z-0.125000
G01 X137.318684 Y157.207513 Z-0.125000
G01 X136.009364 Y154.818103 Z-0.125000
G01 X134.699973 Y152.428562 Z-0.125000
G01 X133.390830 Y150.039475 Z-0.125000
G01 X132.081568 Y147.650172 Z-0.125000
G01 X130.772223 Y145.260715 Z-0.125000
G01 X129.462872 Y142.871249 Z-0.125000
G01 X128.153638 Y140.481996 Z-0.125000
G01 X126.419639 Y138.400260 Z-0.125000
G01 X124.685541 Y136.318406 Z-0.125000
G01 X122.951476 Y134.236591 Z-0.125000
G01 X121.217316 Y132.154662 Z-0.125000
G01 X119.483486 Y130.073130 Z-0.125000
G01 X117.749498 Y127.991408 Z-0.125000
G01 X116.015399 Y125.909552 Z-0.125000
G01 X114.281293 Y123.827688 Z-0.125000
G01 X112.547342 Y121.746010 Z-0.125000
G01 X110.445717 Y120.028421 Z-0.125000
G01 X108.343973 Y118.310735 Z-0.125000
G01 X106.242268 Y116.593080 Z-0.125000
G01 X104.140448 Y114.875332 Z-0.125000
G01 X102.039028 Y113.157910 Z-0.125000
G01 X99.937418 Y111.440332 Z-0.125000
G01 X97.835672 Y109.722644 Z-0.125000
G01 X95.733917 Y108.004949 Z-0.125000
G01 X93.632351 Y106.287408 Z-0.125000
G01 X91.220203 Y104.990528 Z-0.125000
G01 X88.807920 Y103.693575 Z-0.125000
G01 X86.395681 Y102.396646 Z-0.125000
G01 X83.983310 Y101.099646 Z-0.125000
G01 X81.571397 Y99.802892 Z-0.125000
G01 X79.159266 Y98.506021 Z-0.125000
G01 X76.746980 Y97.209067 Z-0.125000
G01 X74.334684 Y95.912107 Z-0.125000
G01 X71.922604 Y94.615264 Z-0.125000
G01 X69.257038 Y93.795657 Z-0.125000
G01 X66.591321 Y92.976003 Z-0.125000
G01 X63.925653 Y92.156364 Z-0.125000
G01 X61.259839 Y91.336681 Z-0.125000
G01 X58.594533 Y90.517154 Z-0.125000
G01 X55.928984 Y89.697552 Z-0.125000
G01 X53.263265 Y88.877897 Z-0.125000
G01 X50.597534 Y88.058239 Z-0.125000
G01 X47.932042 Y87.238655 Z-0.125000
G01 X45.356282 Y86.981454 Z-0.125000
G01 X42.780360 Y86.724236 Z-0.125000
G01 X40.204505 Y86.467025 Z-0.125000
G01 X37.628805 Y86.209830 Z-0.125000
G01 X35.053134 Y85.952637 Z-0.125000
G01 X32.477667 Y85.695465 Z-0.125000
G01 X29.901671 Y85.438240 Z-0.125000
G01 X27.326043 Y85.181052 Z-0.125000
G01 X24.750244 Y84.923847 Z-0.125000
G01 X22.174605 Y84.666657 Z-0.125000
G01 X19.598845 Y84.923859 Z-0.125000
G01 X17.022922 Y85.181076 Z-0.125000
G01 X14.447067 Y85.438287 Z-0.125000
G01 X11.871368 Y85.695483 Z-0.125000
G01 X9.295696 Y85.952675 Z-0.125000
G01 X6.720229 Y86.209847 Z-0.125000
G01 X4.144234 Y86.467072 Z-0.125000
G01 X1.568605 Y86.724260 Z-0.125000
G01 X-1.007193 Y86.981466 Z-0.125000
G01 X-3.582833 Y87.238655 Z-0.125000
G01 X-6.248399 Y88.058263 Z-0.125000
G01 X-8.914116 Y88.877916 Z-0.125000
G01 X-11.579784 Y89.697555 Z-0.125000
G01 X-14.245598 Y90.517238 Z-0.125000
G01 X-16.910904 Y91.336766 Z-0.125000
G01 X-19.576453 Y92.156367 Z-0.125000
G01 X-22.242172 Y92.976022 Z-0.125000
G01 X-24.907903 Y93.795680 Z-0.125000
G01 X-27.573395 Y94.615264 Z-0.125000
G01 X-29.985542 Y95.912144 Z-0.125000
G01 X-32.397826 Y97.209097 Z-0.125000
G01 X-34.810065 Y98.506026 Z-0.125000
G01 X-37.222436 Y99.803026 Z-0.125000
G01 X-39.634348 Y101.099779 Z-0.125000
G01 X-42.046479 Y102.396651 Z-0.125000
G01 X-44.458765 Y103.693605 Z-0.125000
G01 X-46.871061 Y104.990564 Z-0.125000
G01 X-49.283141 Y106.287408 Z-0.125000
G01 X-51.384766 Y108.004997 Z-0.125000
G01 X-53.486510 Y109.722684 Z-0.125000
G01 X-55.588215 Y111.440338 Z-0.125000
G01 X-57.690035 Y113.158087 Z-0.125000
G01 X-59.791455 Y114.875509 Z-0.125000
G01 X-61.893066 Y116.593086 Z-0.125000
G01 X-63.994812 Y118.310774 Z-0.125000
G01 X-66.096566 Y120.028469 Z-0.125000
G01 X-68.198132 Y121.746011 Z-0.125000
G01 X-69.932132 Y123.827747 Z-0.125000
G01 X-71.666229 Y125.909600 Z-0.125000
G01 X-73.400294 Y127.991415 Z-0.125000
G01 X-75.134454 Y130.073344 Z-0.125000
G01 X-76.868285 Y132.154877 Z-0.125000
G01 X-78.602272 Y134.236599 Z-0.125000
G01 X-80.336371 Y136.318454 Z-0.125000
G01 X-82.070477 Y138.400318 Z-0.125000
G01 X-83.804428 Y140.481996 Z-0.125000
G01 X-85.113699 Y142.871316 Z-0.125000
G01 X-86.423043 Y145.260770 Z-0.125000
G01 X-87.732363 Y147.650180 Z-0.125000
G01 X-89.041755 Y150.039722 Z-0.125000
G01 X-90.350897 Y152.428808 Z-0.125000
G01 X-91.660159 Y154.818112 Z-0.125000
G01 X-92.969504 Y157.207568 Z-0.125000
G01 X-94.278855 Y159.597035 Z-0.125000
G01 X-95.588089 Y161.986288 Z-0.125000
G01 X-96.415527 Y164.626628 Z-0.125000
G01 X-97.243012 Y167.267118 Z-0.125000
G01 X-98.070481 Y169.907558 Z-0.125000
G01 X-98.897996 Y172.548144 Z-0.125000
G01 X-99.725353 Y175.188226 Z-0.125000
G01 X-100.552785 Y177.828549 Z-0.125000
G01 X-101.380271 Y180.469041 Z-0.125000
G01 X-102.207760 Y183.109544 Z-0.125000
G01 X-103.035175 Y185.749810 Z-0.125000
G01 X-103.294833 Y188.301194 Z-0.125000
G01 X-103.554508 Y190.852739 Z-0.125000
G01 X-103.814177 Y193.404217 Z-0.125000
G01 X-104.073829 Y195.955540 Z-0.125000
G01 X-104.333479 Y198.506836 Z-0.125000
G01 X-104.593108 Y201.057930 Z-0.125000
G01 X-104.852791 Y203.609547 Z-0.125000
G01 X-105.112436 Y206.160800 Z-0.125000
G01 X-105.372099 Y208.712222 Z-0.125000
G01 X-105.631745 Y211.263487 Z-0.125000
G01 X-105.372087 Y213.814870 Z-0.125000
G01 X-105.112412 Y216.366415 Z-0.125000
G01 X-104.852743 Y218.917893 Z-0.125000
G01 X-104.593091 Y221.469217 Z-0.125000
G01 X-104.333441 Y224.020513 Z-0.125000
G01 X-104.073812 Y226.571606 Z-0.125000
G01 X-103.814129 Y229.123224 Z-0.125000
G01 X-103.554484 Y231.674477 Z-0.125000
G01 X-103.294821 Y234.225899 Z-0.125000
G01 X-103.035175 Y236.777163 Z-0.125000
G01 X-102.207737 Y239.417504 Z-0.125000
G01 X-101.380252 Y242.057993 Z-0.125000
G01 X-100.552783 Y244.698434 Z-0.125000
G01 X-99.725268 Y247.339019 Z-0.125000
G01 X-98.897911 Y249.979102 Z-0.125000
G01 X-98.070478 Y252.619424 Z-0.125000
G01 X-97.242993 Y255.259916 Z-0.125000
G01 X-96.415504 Y257.900419 Z-0.125000
G01 X-95.588089 Y260.540685 Z-0.125000
G01 X-94.278819 Y262.930005 Z-0.125000
G01 X-92.969474 Y265.319460 Z-0.125000
G01 X-91.660154 Y267.708870 Z-0.125000
G01 X-90.350762 Y270.098411 Z-0.125000
G01 X-89.041620 Y272.487498 Z-0.125000
G01 X-87.732358 Y274.876801 Z-0.125000
G01 X-86.423013 Y277.266258 Z-0.125000
G01 X-85.113662 Y279.655724 Z-0.125000
G01 X-83.804428 Y282.044977 Z-0.125000
G01 X-82.070429 Y284.126713 Z-0.125000
G01 X-80.336331 Y286.208567 Z-0.125000
G01 X-78.602266 Y288.290382 Z-0.125000
G01 X-76.868106 Y290.372311 Z-0.125000
G01 X-75.134276 Y292.453843 Z-0.125000
G01 X-73.400288 Y294.535565 Z-0.125000
G01 X-71.666189 Y296.617421 Z-0.125000
G01 X-69.932083 Y298.699285 Z-0.125000
G01 X-68.198132 Y300.780962 Z-0.125000
G01 X-66.096507 Y302.498552 Z-0.125000
G01 X-63.994763 Y304.216238 Z-0.125000
G01 X-61.893058 Y305.933893 Z-0.125000
G01 X-59.791238 Y307.651641 Z-0.125000
G01 X-57.689818 Y309.369063 Z-0.125000
G01 X-55.588208 Y311.086641 Z-0.125000
G01 X-53.486462 Y312.804329 Z-0.125000
G01 X-51.384707 Y314.522024 Z-0.125000
G01 X-49.283141 Y316.239565 Z-0.125000
G01 X-46.870994 Y317.536445 Z-0.125000
G01 X-44.458710 Y318.833398 Z-0.125000
G01 X-42.046471 Y320.130327 Z-0.125000
G01 X-39.634100 Y321.427327 Z-0.125000
G01 X-37.222188 Y322.724081 Z-0.125000
G01 X-34.810056 Y324.020952 Z-0.125000
G01 X-32.397770 Y325.317906 Z-0.125000
G01 X-29.985475 Y326.614866 Z-0.125000
G01 X-27.573395 Y327.911709 Z-0.125000
G01 X-24.907828 Y328.731316 Z-0.125000
G01 X-22.242111 Y329.550970 Z-0.125000
G01 X-19.576443 Y330.370609 Z-0.125000
G01 X-16.910630 Y331.190292 Z-0.125000
G01 X-14.245323 Y332.009819 Z-0.125000
G01 X-11.579775 Y332.829421 Z-0.125000
G01 X-8.914055 Y333.649076 Z-0.125000
G01 X-6.248325 Y334.468734 Z-0.125000
G01 X-3.582833 Y335.288318 Z-0.125000
G01 X-1.007072 Y335.545519 Z-0.125000
G01 X1.568850 Y335.802737 Z-0.125000
G01 X4.144705 Y336.059948 Z-0.125000
G01 X6.720405 Y336.317143 Z-0.125000
G01 X9.296076 Y336.574336 Z-0.125000
G01 X11.871543 Y336.831508 Z-0.125000
G01 X14.447539 Y337.088733 Z-0.125000
G01 X17.023167 Y337.345921 Z-0.125000
G01 X19.598965 Y337.603127 Z-0.125000
G01 X22.174605 Y337.860316 Z-0.125000
G01 X24.750365 Y337.603114 Z-0.125000
G01 X27.326288 Y337.345897 Z-0.125000
G01 X29.902143 Y337.088686 Z-0.125000
G01 X32.477842 Y336.831491 Z-0.125000
G01 X35.053513 Y336.574298 Z-0.125000
G01 X37.628980 Y336.317126 Z-0.125000
G01 X40.204976 Y336.059901 Z-0.125000
G01 X42.780604 Y335.802713 Z-0.125000
G01 X45.356403 Y335.545507 Z-0.125000
G01 X47.932042 Y335.288318 Z-0.125000
G01 X50.597609 Y334.468711 Z-0.125000
G01 X53.263326 Y333.649057 Z-0.125000
G01 X55.928994 Y332.829419 Z-0.125000
G01 X58.594807 Y332.009735 Z-0.125000
G01 X61.260114 Y331.190208 Z-0.125000
G01 X63.925662 Y330.370606 Z-0.125000
G01 X66.591382 Y329.550951 Z-0.125000
G01 X69.257112 Y328.731294 Z-0.125000
G01 X71.922604 Y327.911709 Z-0.125000
G01 X74.334752 Y326.614829 Z-0.125000
G01 X76.747036 Y325.317876 Z-0.125000
G01 X79.159275 Y324.020947 Z-0.125000
G01 X81.571646 Y322.723947 Z-0.125000
G01 X83.983558 Y321.427194 Z-0.125000
G01 X86.395689 Y320.130323 Z-0.125000
G01 X88.807975 Y318.833369 Z-0.125000
G01 X91.220271 Y317.536409 Z-0.125000
G01 X93.632351 Y316.239565 Z-0.125000
G01 X95.733976 Y314.521976 Z-0.125000
G01 X97.835720 Y312.804290 Z-0.125000
G01 X99.937425 Y311.086635 Z-0.125000
G01 X102.039245 Y309.368886 Z-0.125000
G01 X104.140665 Y307.651465 Z-0.125000
G01 X106.242276 Y305.933887 Z-0.125000
G01 X108.344022 Y304.216199 Z-0.125000
G01 X110.445776 Y302.498504 Z-0.125000
G01 X112.547342 Y300.780963 Z-0.125000
G01 X114.281342 Y298.699227 Z-0.125000
G01 X116.015439 Y296.617373 Z-0.125000
G01 X117.749504 Y294.535558 Z-0.125000
G01 X119.483664 Y292.453629 Z-0.125000
G01 X121.217495 Y290.372096 Z-0.125000
G01 X122.951482 Y288.290375 Z-0.125000
G01 X124.685581 Y286.208519 Z-0.125000
G01 X126.419687 Y284.126655 Z-0.125000
G01 X128.153638 Y282.044977 Z-0.125000
G01 X129.462909 Y279.655658 Z-0.125000
G01 X130.772253 Y277.266203 Z-0.125000
G01 X132.081573 Y274.876793 Z-0.125000
G01 X133.390965 Y272.487252 Z-0.125000
G01 X134.700107 Y270.098165 Z-0.125000
G01 X136.009369 Y267.708862 Z-0.125000
G01 X137.318714 Y265.319405 Z-0.125000
G01 X138.628065 Y262.929938 Z-0.125000
G01 X139.937299 Y260.540685 Z-0.125000
G01 X140.764737 Y257.900345 Z-0.125000
G01 X141.592222 Y255.259855 Z-0.125000
G01 X142.419691 Y252.619415 Z-0.125000
G01 X143.247206 Y249.978830 Z-0.125000
G01 X144.074563 Y247.338747 Z-0.125000
G01 X144.901996 Y244.698424 Z-0.125000
G01 X145.729481 Y242.057932 Z-0.125000
G01 X146.556970 Y239.417430 Z-0.125000
G01 X147.384385 Y236.777163 Z-0.125000
G01 X147.644044 Y234.225779 Z-0.125000
G01 X147.903719 Y231.674234 Z-0.125000
G01 X148.163387 Y229.122756 Z-0.125000
G01 X148.423040 Y226.571433 Z-0.125000
G01 X148.682689 Y224.020137 Z-0.125000
G01 X148.942319 Y221.469043 Z-0.125000
G01 X149.202001 Y218.917426 Z-0.125000
G01 X149.461647 Y216.366173 Z-0.125000
G01 X149.721309 Y213.814751 Z-0.125000
G01 X149.980956 Y211.263487 Z-0.125000
G01 X149.980956 Y211.263487 Z-0.125000
G00 Z5.000000

(End cutting path id: path4136)


(Footer)
M5
G00 X0.0000 Y0.0000
M2
(Using default footer. To add your own footer create file "footer" in the output dir.)
(end)
%