%
(Header)
(Generated by gcodetools from Inkscape.)
(Using default header. To add your own header create file "header" in the output dir.)
M3
(Header end.)
G21 (All units in mm)

(Start cutting path id: path12)
(Change tool to Default tool)

S80 (pen up)
G00 Z1
G00 X29.8343975775515 Y22.71077462301855

S83 (pen down)
G01 Z-1 F1000
G01 X29.951950269185318 Y22.318994437821402 Z-1 F1000
G01 X29.69069672739124 Y21.66834995103636 Z-1
G01 X28.848023329075886 Y20.29728809965377 Z-1
G01 X28.00449545987908 Y18.92636663274652 Z-1
G01 X27.160203426137514 Y17.555725092121975 Z-1
G01 X26.314736817218773 Y16.184697126457422 Z-1
G01 X25.468244003389145 Y14.813518870401822 Z-1
G01 X24.62115573326537 Y13.442886619688124 Z-1
G01 X23.77285160302472 Y12.071791032678448 Z-1
G01 X22.923953409379692 Y10.701235639627384 Z-1
G01 X22.074115951117847 Y9.330659193687097 Z-1
G01 X21.223016961934263 Y7.959537574592105 Z-1
G01 X20.371221287775825 Y6.588780841889275 Z-1
G01 X19.518164635806897 Y5.217477586271343 Z-1
G01 X18.664270349827802 Y3.846304886078997 Z-1
G01 X17.80971072168427 Y2.475535538794702 Z-1
G01 X16.954182733639755 Y1.1046816335165204 Z-1
G01 X16.097657267163868 Y-0.26630780526397757 Z-1
G01 X15.624829293660468 Y-0.8381585600845938 Z-1
G01 X15.03990280070866 Y-1.2667602075900959 Z-1
G01 X14.49104190627395 Y-1.4437652728079229 Z-1
G01 X14.11711024408055 Y-1.3244543152718506 Z-1
G01 X13.544385853004087 Y-0.7213952281435922 Z-1
G01 X12.970405060480743 Y-0.11947965608737832 Z-1
G01 X12.395181533148389 Y0.4812777674919744 Z-1
G01 X11.818731998729163 Y1.0808594402965355 Z-1
G01 X11.241130878139302 Y1.6791883766170486 Z-1
G01 X10.662317474663496 Y2.2763279301623243 Z-1
G01 X10.08231047353729 Y2.872259006218428 Z-1
G01 X9.501095479785818 Y3.466996575766643 Z-1
G01 X8.918590100903657 Y4.060624495417642 Z-1
G01 X8.334910554736098 Y4.653024061746692 Z-1
G01 X8.221589300118467 Y5.073707657227715 Z-1
G01 X8.471582881972608 Y5.691613636407055 Z-1
G01 X9.374309705979158 Y6.97362234507932 Z-1
G01 X10.276367431411472 Y8.25561926757473 Z-1
G01 X11.367444815083218 Y9.542463702723808 Z-1
G01 X12.458047044407522 Y10.829203400031702 Z-1
G01 X13.698145524403117 Y12.08748157770924 Z-1
G01 X14.937941190534502 Y13.345493393053175 Z-1
G01 X15.61305401884374 Y13.943827588745762 Z-1
G01 X16.287668259230713 Y14.541638155671308 Z-1
G01 X16.9622417839621 Y15.139330348647718 Z-1
G01 X17.63723235503153 Y15.737309100308948 Z-1
G01 X18.34741818163161 Y16.287764784880437 Z-1
G01 X19.057107850304646 Y16.837672469713425 Z-1
G01 X19.76678143524532 Y17.387403761864107 Z-1
G01 X20.476921673980087 Y17.937332491528196 Z-1
G01 X21.202378076530067 Y18.42307454799743 Z-1
G01 X21.92734176560998 Y18.90825433342843 Z-1
G01 X22.652302547209047 Y19.393200545388254 Z-1
G01 X23.377754659211405 Y19.878242195855137 Z-1
G01 X24.098605203063244 Y20.28245778936639 Z-1
G01 X24.818964608536362 Y20.68611175634328 Z-1
G01 X25.53932251949459 Y21.089479794163253 Z-1
G01 X26.260166302134166 Y21.49283368803094 Z-1
G01 X26.956444279744346 Y21.7987632502618 Z-1
G01 X27.65222999757748 Y22.104152260844558 Z-1
G01 X28.347996704684874 Y22.409208843964734 Z-1
G01 X29.0442135925814 Y22.714138852690212 Z-1
G01 X29.8343975775515 Y22.71077462301855 Z-1
G01 X29.8343975775515 Y22.71077462301855 Z-1
S80 (pen up)
G00 Z1

(End cutting path id: path12)


(Start cutting path id: path12)
(Change tool to Default tool)

S80 (pen up)
G00 Z1
G00 X42.04067865715092 Y42.92582037833563

S83 (pen down)
G01 Z-1 F1000
G01 X42.1509865059586 Y42.53633287526259 Z-1 F1000
G01 X41.93944884306302 Y41.90143787824081 Z-1
G01 X41.3981202328755 Y40.96437625868816 Z-1
G01 X40.85633410422747 Y40.027345347038136 Z-1
G01 X40.3140726219774 Y39.090313398206035 Z-1
G01 X39.77131788625752 Y38.15324866697733 Z-1
G01 X39.160408693210684 Y37.26294016935594 Z-1
G01 X38.548779524754764 Y36.37208031855812 Z-1
G01 X37.93680506842588 Y35.48121587237256 Z-1
G01 X37.324859919942355 Y34.59088914193103 Z-1
G01 X36.65704913724767 Y33.75235538635525 Z-1
G01 X35.988591669017296 Y32.91327848419314 Z-1
G01 X35.3198953651538 Y32.07417071362784 Z-1
G01 X34.65136999505853 Y31.23554488249897 Z-1
G01 X33.93937204886993 Y30.454005200597294 Z-1
G01 X33.22678653441176 Y29.671920222955123 Z-1
G01 X32.514046936968725 Y28.88976425787382 Z-1
G01 X31.801589405030654 Y28.108016697110997 Z-1
G01 X31.057511675869364 Y27.38816172697966 Z-1
G01 X30.31384809256383 Y26.668677232672735 Z-1
G01 X29.570096827408634 Y25.949076933218066 Z-1
G01 X28.825753110448886 Y25.228871539120746 Z-1
G01 X28.06252037153331 Y24.576327944598688 Z-1
G01 X27.299762831044745 Y23.924058564411325 Z-1
G01 X26.536961840180084 Y23.271620705746955 Z-1
G01 X25.773601337076798 Y22.618573914375247 Z-1
G01 X25.00357356984432 Y22.038464695672246 Z-1
G01 X24.234053402726886 Y21.458530682267565 Z-1
G01 X23.464518486781344 Y20.878377562643664 Z-1
G01 X22.694448703931585 Y20.29761356893323 Z-1
G01 X21.929879802184587 Y19.795085095856166 Z-1
G01 X21.165827292461245 Y19.292631642274046 Z-1
G01 X20.401774202219258 Y18.789912492758504 Z-1
G01 X19.637200920018813 Y18.28658705831276 Z-1
G01 X18.409777086488702 Y17.537159992556326 Z-1
G01 X17.182393227541525 Y16.787004825151826 Z-1
G01 X15.954861535354894 Y16.036008022341548 Z-1
G01 X14.727804902723392 Y15.28455195656852 Z-1
G01 X13.500461384000118 Y14.532172580696397 Z-1
G01 X12.273114461505656 Y13.779043699221575 Z-1
G01 X11.045755192759316 Y13.025161151565953 Z-1
G01 X9.81839746062792 Y12.270535839729746 Z-1
G01 X8.59119730610928 Y11.515264136872702 Z-1
G01 X7.363543016246695 Y10.75897098940959 Z-1
G01 X6.136273925373189 Y10.002175076731419 Z-1
G01 X4.908972803630149 Y9.244619377182971 Z-1
G01 X4.295170266602327 Y9.001554065562914 Z-1
G01 X3.8697153510665885 Y9.106181954309932 Z-1
G01 X3.2757639932663096 Y9.688239073080922 Z-1
G01 X2.6805838926379693 Y10.269122377309259 Z-1
G01 X2.0841896109454865 Y10.848817253651077 Z-1
G01 X1.486598442137847 Y11.4273066573312 Z-1
G01 X0.8878874701158566 Y12.004516267576719 Z-1
G01 X0.28799371140121366 Y12.580507160608704 Z-1
G01 X-0.31306352802494075 Y13.15526086836553 Z-1
G01 X-0.9152992255869776 Y13.728791780461734 Z-1
G01 X-1.5187987948745558 Y14.301180695627863 Z-1
G01 X-2.123441876527977 Y14.872313095414029 Z-1
G01 X-2.2434870297597627 Y15.24564912679216 Z-1
G01 X-2.067197219208765 Y15.79422677565708 Z-1
G01 X-1.6391112055368922 Y16.379254563367795 Z-1
G01 X-1.0674464275339233 Y16.852543578950872 Z-1
G01 X0.3370527022618717 Y17.731410886469575 Z-1
G01 X1.7411292003112067 Y18.60905705155278 Z-1
G01 X3.1451855565451297 Y19.485732098256904 Z-1
G01 X4.5495070900699375 Y20.361611560609845 Z-1
G01 X5.953749900011644 Y21.236479786548216 Z-1
G01 X7.358112987722961 Y22.110456947285684 Z-1
G01 X8.762276604753424 Y22.98334385865769 Z-1
G01 X10.166490293320066 Y23.855293423248213 Z-1
G01 X11.570742421350587 Y24.72629524635022 Z-1
G01 X12.975266886194959 Y25.596493445454826 Z-1
G01 X14.379503326313625 Y26.46553742043534 Z-1
G01 X15.783771053352439 Y27.333623708299456 Z-1
G01 X17.18782678900402 Y28.200601118909162 Z-1
G01 X18.59224787202629 Y29.066821478400698 Z-1
G01 X19.996541037699217 Y29.931980358967166 Z-1
G01 X21.400835081224614 Y30.79615483606699 Z-1
G01 X22.80539027325517 Y31.659501331119372 Z-1
G01 X24.2095823178322 Y32.521636617359945 Z-1
G01 X25.613800725011288 Y33.38279566706365 Z-1
G01 X27.01799228119353 Y34.24294483472295 Z-1
G01 X28.422502234722515 Y35.10229357380217 Z-1
G01 X29.82674384320171 Y35.96048040949563 Z-1
G01 X31.231140616897164 Y36.8177625574408 Z-1
G01 X32.63548415083187 Y37.67400955179596 Z-1
G01 X34.039868811056294 Y38.529277915661396 Z-1
G01 X35.44413494166429 Y39.38346806083564 Z-1
G01 X36.848487363666436 Y40.236702162881784 Z-1
G01 X38.25257904438968 Y41.08876818123372 Z-1
G01 X39.656720795381034 Y41.939852858099584 Z-1
G01 X41.06128782190558 Y42.79017993065099 Z-1
G01 X41.66024695128522 Y43.025288382203144 Z-1
G01 X42.04067865715092 Y42.92582037833563 Z-1
G01 X42.04067865715092 Y42.92582037833563 Z-1
S80 (pen up)
G00 Z1

(End cutting path id: path12)


(Footer)
M5
G00 X0 Y0
M2
(Using default footer. To add your own footer create file "footer" in the output dir.)
(end)
%