%
(Header)
(Generated by gcodetools from Inkscape.)
(Using default header. To add your own header create file "header" in the output dir.)
M3
(Header end.)
G21 (All units in mm)

(Start cutting path id: path12)
(Change tool to Default tool)

G00 Z5.000000
G00 X-54.780963 Y182.460923

G01 Z-1.000000 F100.0(Penetrate)
G01 X-59.253163 Y181.319292 Z-1.000000 F400.000000
G01 X-62.692685 Y177.454857 Z-1.000000
G01 X-67.393336 Y168.053083 Z-1.000000
G01 X-72.093504 Y158.652286 Z-1.000000
G01 X-76.792707 Y149.253414 Z-1.000000
G01 X-81.493245 Y139.851884 Z-1.000000
G01 X-86.194294 Y130.449314 Z-1.000000
G01 X-90.893469 Y121.050507 Z-1.000000
G01 X-95.594236 Y111.648522 Z-1.000000
G01 X-100.293151 Y102.250234 Z-1.000000
G01 X-104.992132 Y92.851797 Z-1.000000
G01 X-109.692989 Y83.449636 Z-1.000000
G01 X-114.392593 Y74.049965 Z-1.000000
G01 X-119.094068 Y64.646550 Z-1.000000
G01 X-123.795097 Y55.244022 Z-1.000000
G01 X-128.494741 Y45.844265 Z-1.000000
G01 X-133.194678 Y36.443941 Z-1.000000
G01 X-137.895077 Y27.042671 Z-1.000000
G01 X-138.836379 Y22.617633 Z-1.000000
G01 X-137.503395 Y18.294437 Z-1.000000
G01 X-134.233665 Y15.167813 Z-1.000000
G01 X-129.855181 Y14.029526 Z-1.000000
G01 X-119.382310 Y14.029526 Z-1.000000
G01 X-108.908798 Y14.029526 Z-1.000000
G01 X-98.434854 Y14.029526 Z-1.000000
G01 X-87.960768 Y14.029526 Z-1.000000
G01 X-77.487854 Y14.029526 Z-1.000000
G01 X-67.014980 Y14.029526 Z-1.000000
G01 X-56.542455 Y14.029526 Z-1.000000
G01 X-46.069973 Y14.029526 Z-1.000000
G01 X-35.596044 Y14.029526 Z-1.000000
G01 X-25.122713 Y14.029526 Z-1.000000
G01 X-20.363911 Y15.321406 Z-1.000000
G01 X-17.079506 Y18.999445 Z-1.000000
G01 X-13.685058 Y28.272325 Z-1.000000
G01 X-10.290614 Y37.545181 Z-1.000000
G01 X-8.535824 Y47.647225 Z-1.000000
G01 X-6.781037 Y57.749243 Z-1.000000
G01 X-6.605650 Y68.370346 Z-1.000000
G01 X-6.430269 Y78.991450 Z-1.000000
G01 X-7.102381 Y84.408335 Z-1.000000
G01 X-7.774044 Y89.821520 Z-1.000000
G01 X-8.445711 Y95.234726 Z-1.000000
G01 X-9.117823 Y100.651612 Z-1.000000
G01 X-10.519666 Y106.017932 Z-1.000000
G01 X-11.920555 Y111.380617 Z-1.000000
G01 X-13.321451 Y116.743280 Z-1.000000
G01 X-14.723285 Y122.109600 Z-1.000000
G01 X-16.824714 Y127.270262 Z-1.000000
G01 X-18.924715 Y132.427421 Z-1.000000
G01 X-21.024711 Y137.584581 Z-1.000000
G01 X-23.126140 Y142.745243 Z-1.000000
G01 X-25.897029 Y147.545137 Z-1.000000
G01 X-28.666038 Y152.341786 Z-1.000000
G01 X-31.435051 Y157.138460 Z-1.000000
G01 X-34.205940 Y161.938355 Z-1.000000
G01 X-37.616156 Y166.222409 Z-1.000000
G01 X-41.024066 Y170.503565 Z-1.000000
G01 X-44.431975 Y174.784718 Z-1.000000
G01 X-47.842191 Y179.068773 Z-1.000000
G01 X-54.780963 Y182.460923 Z-1.000000
G01 X-54.780963 Y182.460923 Z-1.000000
G00 Z5.000000

(End cutting path id: path12)


(Start cutting path id: path12)
(Change tool to Default tool)

G00 Z5.000000
G00 X15.323365 Y320.688263

G01 Z-1.000000 F100.0(Penetrate)
G01 X10.999497 Y319.492298 Z-1.000000 F400.000000
G01 X7.336063 Y315.872826 Z-1.000000
G01 X3.908344 Y309.553349 Z-1.000000
G01 X0.480744 Y303.234066 Z-1.000000
G01 X-2.946859 Y296.914808 Z-1.000000
G01 X-6.374569 Y290.595316 Z-1.000000
G01 X-8.808885 Y284.184842 Z-1.000000
G01 X-11.244686 Y277.770450 Z-1.000000
G01 X-13.680483 Y271.356052 Z-1.000000
G01 X-16.114796 Y264.945578 Z-1.000000
G01 X-17.615124 Y258.516936 Z-1.000000
G01 X-19.116371 Y252.084369 Z-1.000000
G01 X-20.617611 Y245.651805 Z-1.000000
G01 X-22.117939 Y239.223161 Z-1.000000
G01 X-22.742595 Y232.851218 Z-1.000000
G01 X-23.367620 Y226.475384 Z-1.000000
G01 X-23.992653 Y220.099543 Z-1.000000
G01 X-24.617304 Y213.727601 Z-1.000000
G01 X-24.424484 Y207.483211 Z-1.000000
G01 X-24.231787 Y201.243043 Z-1.000000
G01 X-24.039093 Y195.002881 Z-1.000000
G01 X-23.846265 Y188.758486 Z-1.000000
G01 X-22.893909 Y182.720649 Z-1.000000
G01 X-21.942197 Y176.686885 Z-1.000000
G01 X-20.990488 Y170.653137 Z-1.000000
G01 X-20.038129 Y164.615303 Z-1.000000
G01 X-18.384593 Y158.858941 Z-1.000000
G01 X-16.732173 Y153.106470 Z-1.000000
G01 X-15.079760 Y147.354002 Z-1.000000
G01 X-13.426220 Y141.597637 Z-1.000000
G01 X-11.129870 Y136.197651 Z-1.000000
G01 X-8.835067 Y130.801322 Z-1.000000
G01 X-6.540270 Y125.405013 Z-1.000000
G01 X-4.243913 Y120.005026 Z-1.000000
G01 X-0.035257 Y111.587396 Z-1.000000
G01 X4.173261 Y103.170030 Z-1.000000
G01 X8.382283 Y94.751666 Z-1.000000
G01 X12.589681 Y86.336547 Z-1.000000
G01 X16.798055 Y77.919483 Z-1.000000
G01 X21.006443 Y69.502397 Z-1.000000
G01 X25.214876 Y61.085202 Z-1.000000
G01 X29.423298 Y52.668049 Z-1.000000
G01 X33.631180 Y44.251961 Z-1.000000
G01 X37.840618 Y35.832771 Z-1.000000
G01 X42.048737 Y27.416206 Z-1.000000
G01 X46.256961 Y18.999445 Z-1.000000
G01 X49.571094 Y15.372601 Z-1.000000
G01 X54.296902 Y14.029526 Z-1.000000
G01 X64.769771 Y14.029526 Z-1.000000
G01 X75.243289 Y14.029526 Z-1.000000
G01 X85.717228 Y14.029526 Z-1.000000
G01 X96.191318 Y14.029526 Z-1.000000
G01 X106.664229 Y14.029526 Z-1.000000
G01 X117.137104 Y14.029526 Z-1.000000
G01 X127.609623 Y14.029526 Z-1.000000
G01 X138.082111 Y14.029526 Z-1.000000
G01 X148.556029 Y14.029526 Z-1.000000
G01 X159.029364 Y14.029526 Z-1.000000
G01 X163.407855 Y15.167813 Z-1.000000
G01 X166.677583 Y18.294437 Z-1.000000
G01 X168.010567 Y22.617633 Z-1.000000
G01 X167.069268 Y27.042671 Z-1.000000
G01 X162.253925 Y36.673636 Z-1.000000
G01 X157.440015 Y46.301684 Z-1.000000
G01 X152.626204 Y55.929623 Z-1.000000
G01 X147.811468 Y65.559357 Z-1.000000
G01 X142.997005 Y75.188550 Z-1.000000
G01 X138.182116 Y84.818586 Z-1.000000
G01 X133.367924 Y94.447238 Z-1.000000
G01 X128.553554 Y104.076257 Z-1.000000
G01 X123.739061 Y113.705516 Z-1.000000
G01 X118.923633 Y123.336657 Z-1.000000
G01 X114.109187 Y132.965805 Z-1.000000
G01 X109.294634 Y142.595171 Z-1.000000
G01 X104.480809 Y152.223109 Z-1.000000
G01 X99.665728 Y161.853513 Z-1.000000
G01 X94.851093 Y171.483074 Z-1.000000
G01 X90.036450 Y181.112637 Z-1.000000
G01 X85.220909 Y190.743979 Z-1.000000
G01 X80.406621 Y200.372825 Z-1.000000
G01 X75.592237 Y210.001869 Z-1.000000
G01 X70.777949 Y219.630719 Z-1.000000
G01 X65.962561 Y229.261755 Z-1.000000
G01 X61.148104 Y238.890949 Z-1.000000
G01 X56.333108 Y248.521215 Z-1.000000
G01 X51.518295 Y258.151103 Z-1.000000
G01 X46.703344 Y267.781279 Z-1.000000
G01 X41.888794 Y277.410647 Z-1.000000
G01 X37.073953 Y287.040606 Z-1.000000
G01 X32.260006 Y296.668770 Z-1.000000
G01 X27.445876 Y306.297277 Z-1.000000
G01 X22.630305 Y315.928712 Z-1.000000
G01 X19.476818 Y319.490771 Z-1.000000
G01 X15.323365 Y320.688263 Z-1.000000
G01 X15.323365 Y320.688263 Z-1.000000
G00 Z5.000000

(End cutting path id: path12)


(Footer)
M5
G00 X0.0000 Y0.0000
M2
(Using default footer. To add your own footer create file "footer" in the output dir.)
(end)
%