%
(Header)
(Generated by gcodetools from Inkscape.)
(Using default header. To add your own header create file "header" in the output dir.)
M3
(Header end.)
G21 (All units in mm)

(Start cutting path id: path4136)
(Change tool to Default tool)

S80 (pen up)
G00 Z1
G00 X135.12228876854078 Y245.15754335397241

S83 (pen down)
G01 Z-0.125 F1000
G01 X132.99760951745498 Y242.621881241118 Z-0.125 F1000
G01 X130.87110209736966 Y240.08592624551397 Z-0.125
G01 X128.74296538907493 Y237.5499058261048 Z-0.125
G01 X126.61328138001704 Y235.01390716311994 Z-0.125
G01 X124.48195343167981 Y232.4778061257291 Z-0.125
G01 X122.34913656678737 Y229.9417776217665 Z-0.125
G01 X120.21423090000803 Y227.40509857851316 Z-0.125
G01 X118.07798884944714 Y224.86865499454098 Z-0.125
G01 X115.93997277439917 Y222.33191643838472 Z-0.125
G01 X113.80046436092039 Y219.79520930562785 Z-0.125
G01 X111.8428414188154 Y217.03246102053822 Z-0.125
G01 X109.88202040207966 Y214.269535268377 Z-0.125
G01 X107.9181632521254 Y211.50664058167445 Z-0.125
G01 X105.95114152059591 Y208.74357478319507 Z-0.125
G01 X103.98145171536657 Y205.98101533976046 Z-0.125
G01 X102.00855402053458 Y203.21818367644642 Z-0.125
G01 X100.03251523261792 Y200.45515562752166 Z-0.125
G01 X98.05346826176083 Y197.6920962920251 Z-0.125
G01 X96.0716134569036 Y194.92926539344307 Z-0.125
G01 X94.52755021230587 Y192.29034117365563 Z-0.125
G01 X92.97938711660504 Y189.65087145201937 Z-0.125
G01 X91.42725477756903 Y187.0110580781684 Z-0.125
G01 X89.87105324755657 Y184.37070937376438 Z-0.125
G01 X88.31117976503538 Y181.73047408292882 Z-0.125
G01 X86.74721212027248 Y179.08961449273943 Z-0.125
G01 X85.1792037663754 Y176.4482021539818 Z-0.125
G01 X83.60726518244883 Y173.80639928405185 Z-0.125
G01 X82.0315569308666 Y171.16445427381063 Z-0.125
G01 X80.91363273335537 Y168.71226482844077 Z-0.125
G01 X79.79084521675782 Y166.25881374315964 Z-0.125
G01 X78.66329097946459 Y163.80429326020362 Z-0.125
G01 X77.53089987802741 Y161.3485297051759 Z-0.125
G01 X76.39396384624479 Y158.89213275758357 Z-0.125
G01 X75.25217532085549 Y156.43441691950352 Z-0.125
G01 X74.10557652226612 Y153.97545489918207 Z-0.125
G01 X72.9542495385042 Y151.51540186828174 Z-0.125
G01 X71.79831486578632 Y149.05449396418044 Z-0.125
G01 X71.12235989226724 Y146.84777204096486 Z-0.125
G01 X70.44096064823884 Y144.6388511769835 Z-0.125
G01 X69.75417566479678 Y142.42790761715423 Z-0.125
G01 X69.061964707799 Y140.21479236160485 Z-0.125
G01 X68.3645054987278 Y138.00005752008747 Z-0.125
G01 X67.66161197957967 Y135.78309294129167 Z-0.125
G01 X66.95331150113816 Y133.56396802220138 Z-0.125
G01 X66.23965447165074 Y131.34282691800445 Z-0.125
G01 X65.52071699351018 Y129.1198893089745 Z-0.125
G01 X65.30650609469853 Y127.2148203542697 Z-0.125
G01 X65.08647496993399 Y125.30647993444654 Z-0.125
G01 X64.86064330108843 Y123.39502499326431 Z-0.125
G01 X64.62899701367269 Y121.48033025460586 Z-0.125
G01 X64.39159688286736 Y119.56287908000672 Z-0.125
G01 X64.14838086310897 Y117.64214953048645 Z-0.125
G01 X63.89935737247197 Y115.71820568802968 Z-0.125
G01 X63.64454327013436 Y113.79117641021048 Z-0.125
G01 X63.383967987268306 Y111.86125843800119 Z-0.125
G01 X63.65563301684733 Y110.31265637993693 Z-0.125
G01 X63.921316705205754 Y108.75962774259233 Z-0.125
G01 X64.18099551895216 Y107.20230555901162 Z-0.125
G01 X64.43468537386184 Y105.64059283365987 Z-0.125
G01 X64.68232068902057 Y104.07488873527882 Z-0.125
G01 X64.92396858267034 Y102.50476882527869 Z-0.125
G01 X65.15961723085775 Y100.9302908172117 Z-0.125
G01 X65.3892500529621 Y99.35156504592578 Z-0.125
G01 X65.61284280228983 Y97.76875658802396 Z-0.125
G01 X66.32072260619589 Y96.74485579693714 Z-0.125
G01 X67.02380864416864 Y95.71637834721287 Z-0.125
G01 X67.72203123314989 Y94.68342760084943 Z-0.125
G01 X68.4153594183058 Y93.64605074102224 Z-0.125
G01 X69.10381842594529 Y92.60420727338965 Z-0.125
G01 X69.78735571361881 Y91.55798117280278 Z-0.125
G01 X70.46615633602119 Y90.50708420620276 Z-0.125
G01 X71.1399760978777 Y89.45189345552694 Z-0.125
G01 X71.8089486700992 Y88.39219960548212 Z-0.125
G01 X72.47297937884014 Y87.32814897717799 Z-0.125
G01 X73.61426803169752 Y86.74678703498034 Z-0.125
G01 X74.75139000325476 Y86.16034704325398 Z-0.125
G01 X75.88423366545953 Y85.56889028931187 Z-0.125
G01 X77.01274931846069 Y84.97244449901837 Z-0.125
G01 X78.1369808187635 Y84.37098566994996 Z-0.125
G01 X79.25684136990049 Y83.76456487954852 Z-0.125
G01 X80.37263736110594 Y83.15301561435376 Z-0.125
G01 X81.48396912191265 Y82.5365562017912 Z-0.125
G01 X82.59105813596375 Y81.91506794853422 Z-0.125
G01 X83.69375028605327 Y81.2886348488039 Z-0.125
G01 X85.35253957677037 Y81.15553119380274 Z-0.125
G01 X87.00743810387462 Y81.01629734529342 Z-0.125
G01 X88.65830813791172 Y80.87094776131585 Z-0.125
G01 X90.30525263590289 Y80.71947174004845 Z-0.125
G01 X91.94785457035255 Y80.56191184283034 Z-0.125
G01 X93.58655879335652 Y80.39822412981403 Z-0.125
G01 X95.22130687686013 Y80.22841725833564 Z-0.125
G01 X96.85198330866797 Y80.05250085585135 Z-0.125
G01 X98.4784192798395 Y79.87049497394491 Z-0.125
G01 X100.47340029061911 Y80.21879581169833 Z-0.125
G01 X102.46566893703516 Y80.56129657226734 Z-0.125
G01 X104.45506198417252 Y80.89796716091746 Z-0.125
G01 X106.44171145824725 Y81.22882717226275 Z-0.125
G01 X108.42511729413854 Y81.55379193641579 Z-0.125
G01 X110.40582509763385 Y81.872950557379 Z-0.125
G01 X112.3837653420942 Y82.18628638727591 Z-0.125
G01 X114.35880583898961 Y82.49377654803425 Z-0.125
G01 X116.33074938423306 Y82.79539011995666 Z-0.125
G01 X118.60640622572237 Y83.59783534617577 Z-0.125
G01 X120.88041021101753 Y84.39500872515941 Z-0.125
G01 X123.15257858322138 Y85.1868382271698 Z-0.125
G01 X125.42306978808529 Y85.97337354034448 Z-0.125
G01 X127.69131675630797 Y86.75441202590036 Z-0.125
G01 X129.9579465982165 Y87.53016327718206 Z-0.125
G01 X132.22288999155467 Y88.30059711496688 Z-0.125
G01 X134.48599943491058 Y89.06565639536961 Z-0.125
G01 X136.74705397179264 Y89.82526082854065 Z-0.125
G01 X139.24657031809375 Y91.05894117455318 Z-0.125
G01 X141.74532152573238 Y92.28805970807275 Z-0.125
G01 X144.24311590137972 Y93.51251100839181 Z-0.125
G01 X146.74013020092502 Y94.73237046043846 Z-0.125
G01 X149.23574743970335 Y95.94732625859479 Z-0.125
G01 X151.7306626986085 Y97.15770786167309 Z-0.125
G01 X154.22480359735505 Y98.36346695294151 Z-0.125
G01 X156.71801512399247 Y99.5645183141637 Z-0.125
G01 X159.21005808294944 Y100.76073627141864 Z-0.125
G01 X161.87438959411998 Y102.40675637757681 Z-0.125
G01 X164.53859645548027 Y104.0490815533999 Z-0.125
G01 X167.20247848519512 Y105.6875740097139 Z-0.125
G01 X169.86622988904878 Y107.32233934994883 Z-0.125
G01 X172.52919342092196 Y108.95296089913745 Z-0.125
G01 X175.19211867526428 Y110.57988383403335 Z-0.125
G01 X177.85492987072348 Y112.20304747943783 Z-0.125
G01 X180.51746798493127 Y113.82234031628082 Z-0.125
G01 X183.17948046864967 Y115.4375949633129 Z-0.125
G01 X185.94602889915654 Y117.48048169052527 Z-0.125
G01 X188.71273255020583 Y119.52065093928923 Z-0.125
G01 X191.4793817564987 Y121.55793402481459 Z-0.125
G01 X194.24618203534783 Y123.59246756629545 Z-0.125
G01 X197.01245221929366 Y125.62373718033473 Z-0.125
G01 X199.77897277025477 Y127.6523023466275 Z-0.125
G01 X202.5456686734583 Y129.67809197134306 Z-0.125
G01 X205.3123739428595 Y131.70097067212873 Z-0.125
G01 X208.07882891382746 Y133.72073394119684 Z-0.125
G01 X210.59965783645157 Y135.904980162456 Z-0.125
G01 X213.12045013778538 Y138.08787197143397 Z-0.125
G01 X215.64097930632897 Y140.26920605169516 Z-0.125
G01 X218.16115653736347 Y142.44890012240853 Z-0.125
G01 X220.681107518805 Y144.62705464703504 Z-0.125
G01 X223.20065774798468 Y146.80351270478445 Z-0.125
G01 X225.7205222143475 Y148.97888370572355 Z-0.125
G01 X228.23982307837286 Y151.1524037091949 Z-0.125
G01 X230.75908581056956 Y153.32451779386406 Z-0.125
G01 X233.2779866072358 Y155.49494076022097 Z-0.125
G01 X235.6477801242072 Y157.8952839532526 Z-0.125
G01 X238.01685860643306 Y160.295093655526 Z-0.125
G01 X240.38500374329578 Y162.6941504197032 Z-0.125
G01 X242.7521299249595 Y165.0923673773584 Z-0.125
G01 X245.11834787999464 Y167.48985978472706 Z-0.125
G01 X247.48349008310606 Y169.88645849230534 Z-0.125
G01 X249.84822530346605 Y172.2828433911011 Z-0.125
G01 X252.2117232772905 Y174.6781735902157 Z-0.125
G01 X254.5744724973449 Y177.07294691522452 Z-0.125
G01 X256.9361647685596 Y179.46685126447892 Z-0.125
G01 X259.2139431668279 Y182.19619856198324 Z-0.125
G01 X261.4895790632397 Y184.92552148881327 Z-0.125
G01 X263.762889597072 Y187.65461547501286 Z-0.125
G01 X266.03402501148435 Y190.3836785208748 Z-0.125
G01 X268.3024161303799 Y193.11204103769433 Z-0.125
G01 X270.5686848377943 Y195.84046835053778 Z-0.125
G01 X272.8327573777717 Y198.56888673617686 Z-0.125
G01 X275.09448180205777 Y201.29713139760952 Z-0.125
G01 X277.35363114539086 Y204.0249446655962 Z-0.125
G01 X279.2228097500888 Y206.7483097748011 Z-0.125
G01 X281.0884129983274 Y209.47182367533082 Z-0.125
G01 X282.950281237838 Y212.19528054093644 Z-0.125
G01 X284.80853181024645 Y214.91888118991778 Z-0.125
G01 X286.6626914743863 Y217.6419581454195 Z-0.125
G01 X288.51326025321714 Y220.36527633266405 Z-0.125
G01 X290.3601704969633 Y223.0887636663697 Z-0.125
G01 X292.20328914516585 Y225.81225594971738 Z-0.125
G01 X294.04242596568974 Y228.5354994936556 Z-0.125
G01 X295.448709308622 Y231.17755132595244 Z-0.125
G01 X296.84997335293974 Y233.81943036700181 Z-0.125
G01 X298.24609212983023 Y236.46093450836884 Z-0.125
G01 X299.6371473466884 Y239.10225579634402 Z-0.125
G01 X301.0227779420518 Y241.74274394358508 Z-0.125
G01 X302.4033552528979 Y244.38314083292494 Z-0.125
G01 X303.7788205189561 Y247.0233728100925 Z-0.125
G01 X305.14906907431737 Y249.6632780648365 Z-0.125
G01 X306.5139525050697 Y252.30260712861582 Z-0.125
G01 X307.4050944415103 Y254.78142782188297 Z-0.125
G01 X308.2899676612892 Y257.25926768886507 Z-0.125
G01 X309.16849114660636 Y259.7359346487224 Z-0.125
G01 X310.0407111098857 Y262.2116007399859 Z-0.125
G01 X310.9064008922064 Y264.68565350779795 Z-0.125
G01 X311.7657883795214 Y267.1587797330619 Z-0.125
G01 X312.61883237926327 Y269.6309060150304 Z-0.125
G01 X313.46546560965476 Y272.1018755788991 Z-0.125
G01 X314.30559415310177 Y274.57144847388304 Z-0.125
G01 X314.63418940741985 Y276.79895233212596 Z-0.125
G01 X314.95565109686186 Y279.02420871387267 Z-0.125
G01 X315.2699486780907 Y281.2470355158498 Z-0.125
G01 X315.5770981400144 Y283.46758061212313 Z-0.125
G01 X315.877019994899 Y285.6852861042332 Z-0.125
G01 X316.169791582676 Y287.90075965666074 Z-0.125
G01 X316.4553984933332 Y290.11392614265264 Z-0.125
G01 X316.7338177517827 Y292.32463775782844 Z-0.125
G01 X317.0050162330415 Y294.53267171966945 Z-0.125
G01 X316.7308300187615 Y296.41526018713876 Z-0.125
G01 X316.4491674209007 Y298.2939253475729 Z-0.125
G01 X316.1600543990128 Y300.16850433261743 Z-0.125
G01 X315.8634751727013 Y302.0391109883192 Z-0.125
G01 X315.5595102514719 Y303.9052676126637 Z-0.125
G01 X315.24808332523526 Y305.7674770488952 Z-0.125
G01 X314.92920672754394 Y307.62566733099425 Z-0.125
G01 X314.6029057767655 Y309.4797027341224 Z-0.125
G01 X314.2692181251027 Y311.3293883171998 Z-0.125
G01 X313.45186489955563 Y312.6253389761805 Z-0.125
G01 X312.6286383317363 Y313.9165186490129 Z-0.125
G01 X311.79962371179295 Y315.20279347390533 Z-0.125
G01 X310.9648638406395 Y316.48410173432626 Z-0.125
G01 X310.12433376557397 Y317.7604897036358 Z-0.125
G01 X309.2781040134703 Y319.0318516862842 Z-0.125
G01 X308.42594745719316 Y320.2985310590682 Z-0.125
G01 X307.56817402400384 Y321.56006760114747 Z-0.125
G01 X306.7046205325621 Y322.81670826369805 Z-0.125
G01 X305.83540909224234 Y324.06827260727346 Z-0.125
G01 X304.49624022398825 Y324.8414287556021 Z-0.125
G01 X303.15229382089956 Y325.60866931725286 Z-0.125
G01 X301.80370635582267 Y326.369909825734 Z-0.125
G01 X300.45054364864563 Y327.12511280739 Z-0.125
G01 X299.0927558680871 Y327.874302011626 Z-0.125
G01 X297.7304556803972 Y328.61741514445237 Z-0.125
G01 X296.36327171406583 Y329.3546486532987 Z-0.125
G01 X294.9916979133932 Y330.08573256127613 Z-0.125
G01 X293.6154646045645 Y330.8108064373424 Z-0.125
G01 X292.23476820243195 Y331.5297659217075 Z-0.125
G01 X290.3067063301705 Y331.7528762948533 Z-0.125
G01 X288.3747062725138 Y331.9683977646225 Z-0.125
G01 X286.43893454704676 Y332.1763106610571 Z-0.125
G01 X284.49926875505207 Y332.3766228483561 Z-0.125
G01 X282.55620652593643 Y332.5692850949322 Z-0.125
G01 X280.60922233842007 Y332.75434604372583 Z-0.125
G01 X278.65838686749566 Y332.9317957004282 Z-0.125
G01 X276.7038396812577 Y333.1016196172501 Z-0.125
G01 X274.74578131726275 Y333.263797036255 Z-0.125
G01 X272.47888031721527 Y332.8829338433394 Z-0.125
G01 X270.2096618008002 Y332.4948107337299 Z-0.125
G01 X267.9383094247323 Y332.0994644153981 Z-0.125
G01 X265.66467024549115 Y331.6968740741589 Z-0.125
G01 X263.3893155234425 Y331.2871486155277 Z-0.125
G01 X261.1116190305156 Y330.8701822018729 Z-0.125
G01 X258.83165461168255 Y330.4459936282649 Z-0.125
G01 X256.5495715389741 Y330.014615738271 Z-0.125
G01 X254.26559750625347 Y329.57609945534534 Z-0.125
G01 X251.75670319275355 Y328.6319944941781 Z-0.125
G01 X249.246691586525 Y327.6814935350069 Z-0.125
G01 X246.73575699669482 Y326.72468429814467 Z-0.125
G01 X244.22372274907366 Y325.76151489466747 Z-0.125
G01 X241.71121207351098 Y324.79224145484534 Z-0.125
G01 X239.19752323673765 Y323.81660826983625 Z-0.125
G01 X236.68273051779374 Y322.83465894156166 Z-0.125
G01 X234.16699146462315 Y321.8464693539645 Z-0.125
G01 X231.65054784471158 Y320.85215122139493 Z-0.125
G01 X228.99114566131902 Y319.39350054579427 Z-0.125
G01 X226.33135459169762 Y317.92970931036484 Z-0.125
G01 X223.67137604546633 Y316.46090966811835 Z-0.125
G01 X221.01101640937054 Y314.987014734347 Z-0.125
G01 X218.35092869730056 Y313.50840823065187 Z-0.125
G01 X215.69036896892158 Y312.02469700018173 Z-0.125
G01 X213.02940646803154 Y310.5359390228125 Z-0.125
G01 X210.36820473433136 Y309.04224610260053 Z-0.125
G01 X207.7070135806091 Y307.5437791564941 Z-0.125
G01 X204.98252062233473 Y305.6251163127947 Z-0.125
G01 X202.25787317286154 Y303.7027629108952 Z-0.125
G01 X199.53327656604642 Y301.77688470719045 Z-0.125
G01 X196.80853032810978 Y299.8473591445288 Z-0.125
G01 X194.08430222146467 Y297.914678427283 Z-0.125
G01 X191.35982687234355 Y295.9783212662717 Z-0.125
G01 X188.6351764459498 Y294.03835555272167 Z-0.125
G01 X185.91051421908764 Y292.09491755061913 Z-0.125
G01 X183.18609573930667 Y290.1482088967459 Z-0.125
G01 X180.47545406699146 Y287.8271574004334 Z-0.125
G01 X177.76439494519605 Y285.503839968228 Z-0.125
G01 X175.05312568610134 Y283.1784463286126 Z-0.125
G01 X172.34144742347098 Y280.8508187217474 Z-0.125
G01 X169.63002702122276 Y278.5215413049409 Z-0.125
G01 X166.91810353454844 Y276.1899737614708 Z-0.125
G01 X164.20575243342614 Y273.8561913762592 Z-0.125
G01 X161.49313788220388 Y271.52034837104566 Z-0.125
G01 X158.78051392093676 Y269.1826747407056 Z-0.125
G01 X156.4183740332951 Y266.7834937079035 Z-0.125
G01 X154.0552504109544 Y264.3834040386628 Z-0.125
G01 X151.69135901668665 Y261.98262522669165 Z-0.125
G01 X149.32678593806122 Y259.5812453888723 Z-0.125
G01 X146.96141847102217 Y257.1791485433844 Z-0.125
G01 X144.59542246232627 Y254.77650515615687 Z-0.125
G01 X142.22813148715795 Y252.37263642027574 Z-0.125
G01 X139.86037207233244 Y249.96838328562285 Z-0.125
G01 X137.4916554375991 Y247.56324774912082 Z-0.125
G01 X135.12228876854078 Y245.15754335397241 Z-0.125
G01 X135.12228876854078 Y245.15754335397241 Z-0.125
S80 (pen up)
G00 Z1

(End cutting path id: path4136)


(Footer)
M5
G00 X0 Y0
M2
(Using default footer. To add your own footer create file "footer" in the output dir.)
(end)
%