%
(Header)
(Generated by gcodetools from Inkscape.)
(Using default header. To add your own header create file "header" in the output dir.)
M3
(Header end.)
G21 (All units in mm)

(Start cutting path id: path12)
(Change tool to Default tool)

S80 (pen up)
G00 Z5.000000
G00 X-8.145327 Y29.166690

S83 (pen up)
G01 Z-1.000000 F100.0(Penetrate)
G01 X-8.728671 Y29.017778 Z-1.000000 F400.000000
G01 X-9.177315 Y28.513712 Z-1.000000
G01 X-9.790458 Y27.287373 Z-1.000000
G01 X-10.403537 Y26.061159 Z-1.000000
G01 X-11.016492 Y24.835196 Z-1.000000
G01 X-11.629619 Y23.608887 Z-1.000000
G01 X-12.242814 Y22.382444 Z-1.000000
G01 X-12.855764 Y21.156489 Z-1.000000
G01 X-13.468922 Y19.930120 Z-1.000000
G01 X-14.081838 Y18.704234 Z-1.000000
G01 X-14.694763 Y17.478329 Z-1.000000
G01 X-15.307933 Y16.251937 Z-1.000000
G01 X-15.920939 Y15.025871 Z-1.000000
G01 X-16.534189 Y13.799316 Z-1.000000
G01 X-17.147381 Y12.572878 Z-1.000000
G01 X-17.760393 Y11.346801 Z-1.000000
G01 X-18.373442 Y10.120648 Z-1.000000
G01 X-18.986552 Y8.894374 Z-1.000000
G01 X-19.109334 Y8.317184 Z-1.000000
G01 X-18.935462 Y7.753279 Z-1.000000
G01 X-18.508965 Y7.345451 Z-1.000000
G01 X-17.937846 Y7.196976 Z-1.000000
G01 X-16.571787 Y7.196976 Z-1.000000
G01 X-15.205644 Y7.196976 Z-1.000000
G01 X-13.839446 Y7.196976 Z-1.000000
G01 X-12.473229 Y7.196976 Z-1.000000
G01 X-11.107165 Y7.196976 Z-1.000000
G01 X-9.741106 Y7.196976 Z-1.000000
G01 X-8.375092 Y7.196976 Z-1.000000
G01 X-7.009085 Y7.196976 Z-1.000000
G01 X-5.642888 Y7.196976 Z-1.000000
G01 X-4.276770 Y7.196976 Z-1.000000
G01 X-3.656042 Y7.365486 Z-1.000000
G01 X-3.227631 Y7.845238 Z-1.000000
G01 X-2.784867 Y9.054765 Z-1.000000
G01 X-2.342102 Y10.264292 Z-1.000000
G01 X-2.113212 Y11.581972 Z-1.000000
G01 X-1.884321 Y12.899652 Z-1.000000
G01 X-1.861444 Y14.285038 Z-1.000000
G01 X-1.838567 Y15.670425 Z-1.000000
G01 X-1.926237 Y16.376987 Z-1.000000
G01 X-2.013847 Y17.083070 Z-1.000000
G01 X-2.101457 Y17.789153 Z-1.000000
G01 X-2.189127 Y18.495715 Z-1.000000
G01 X-2.371980 Y19.195682 Z-1.000000
G01 X-2.554709 Y19.895175 Z-1.000000
G01 X-2.737438 Y20.594667 Z-1.000000
G01 X-2.920291 Y21.294634 Z-1.000000
G01 X-3.194396 Y21.967776 Z-1.000000
G01 X-3.468316 Y22.640462 Z-1.000000
G01 X-3.742235 Y23.313147 Z-1.000000
G01 X-4.016341 Y23.986289 Z-1.000000
G01 X-4.377769 Y24.612375 Z-1.000000
G01 X-4.738953 Y25.238036 Z-1.000000
G01 X-5.100137 Y25.863698 Z-1.000000
G01 X-5.461566 Y26.489784 Z-1.000000
G01 X-5.906387 Y27.048584 Z-1.000000
G01 X-6.350907 Y27.607005 Z-1.000000
G01 X-6.795428 Y28.165427 Z-1.000000
G01 X-7.240249 Y28.724227 Z-1.000000
G01 X-8.145327 Y29.166690 Z-1.000000
G01 X-8.145327 Y29.166690 Z-1.000000
G00 Z5.000000

(End cutting path id: path12)


(Start cutting path id: path12)
(Change tool to Default tool)
S80 (pen up)
G00 Z5.000000
G00 X0.998929 Y47.196671

S83 (pen up)
G01 Z-1.000000 F100.0(Penetrate)
G01 X0.434933 Y47.040673 Z-1.000000 F400.000000
G01 X-0.042917 Y46.568561 Z-1.000000
G01 X-0.490021 Y45.744265 Z-1.000000
G01 X-0.937110 Y44.919997 Z-1.000000
G01 X-1.384199 Y44.095729 Z-1.000000
G01 X-1.831303 Y43.271433 Z-1.000000
G01 X-2.148829 Y42.435269 Z-1.000000
G01 X-2.466550 Y41.598593 Z-1.000000
G01 X-2.784270 Y40.761918 Z-1.000000
G01 X-3.101797 Y39.925754 Z-1.000000
G01 X-3.297496 Y39.087220 Z-1.000000
G01 X-3.493315 Y38.248174 Z-1.000000
G01 X-3.689134 Y37.409128 Z-1.000000
G01 X-3.884834 Y36.570595 Z-1.000000
G01 X-3.966312 Y35.739456 Z-1.000000
G01 X-4.047839 Y34.907811 Z-1.000000
G01 X-4.129367 Y34.076165 Z-1.000000
G01 X-4.210845 Y33.245027 Z-1.000000
G01 X-4.185694 Y32.430526 Z-1.000000
G01 X-4.160559 Y31.616576 Z-1.000000
G01 X-4.135424 Y30.802627 Z-1.000000
G01 X-4.110273 Y29.988126 Z-1.000000
G01 X-3.986049 Y29.200567 Z-1.000000
G01 X-3.861910 Y28.413542 Z-1.000000
G01 X-3.737771 Y27.626516 Z-1.000000
G01 X-3.613547 Y26.838957 Z-1.000000
G01 X-3.397864 Y26.088113 Z-1.000000
G01 X-3.182326 Y25.337778 Z-1.000000
G01 X-2.966788 Y24.587442 Z-1.000000
G01 X-2.751104 Y23.836598 Z-1.000000
G01 X-2.451573 Y23.132240 Z-1.000000
G01 X-2.152244 Y22.428359 Z-1.000000
G01 X-1.852916 Y21.724478 Z-1.000000
G01 X-1.553384 Y21.020119 Z-1.000000
G01 X-1.004416 Y19.922147 Z-1.000000
G01 X-0.455466 Y18.824211 Z-1.000000
G01 X0.093550 Y17.726143 Z-1.000000
G01 X0.642353 Y16.628500 Z-1.000000
G01 X1.191285 Y15.530601 Z-1.000000
G01 X1.740218 Y14.432699 Z-1.000000
G01 X2.289156 Y13.334786 Z-1.000000
G01 X2.838094 Y12.236875 Z-1.000000
G01 X3.386961 Y11.139105 Z-1.000000
G01 X3.936031 Y10.040929 Z-1.000000
G01 X4.484929 Y8.943098 Z-1.000000
G01 X5.033840 Y7.845238 Z-1.000000
G01 X5.466129 Y7.372163 Z-1.000000
G01 X6.082553 Y7.196976 Z-1.000000
G01 X7.448611 Y7.196976 Z-1.000000
G01 X8.814754 Y7.196976 Z-1.000000
G01 X10.180952 Y7.196976 Z-1.000000
G01 X11.547169 Y7.196976 Z-1.000000
G01 X12.913233 Y7.196976 Z-1.000000
G01 X14.279292 Y7.196976 Z-1.000000
G01 X15.645306 Y7.196976 Z-1.000000
G01 X17.011313 Y7.196976 Z-1.000000
G01 X18.377510 Y7.196976 Z-1.000000
G01 X19.743628 Y7.196976 Z-1.000000
G01 X20.314747 Y7.345451 Z-1.000000
G01 X20.741244 Y7.753279 Z-1.000000
G01 X20.915116 Y8.317184 Z-1.000000
G01 X20.792335 Y8.894374 Z-1.000000
G01 X20.164232 Y10.150609 Z-1.000000
G01 X19.536318 Y11.406466 Z-1.000000
G01 X18.908413 Y12.662305 Z-1.000000
G01 X18.280389 Y13.918381 Z-1.000000
G01 X17.652401 Y15.174387 Z-1.000000
G01 X17.024358 Y16.430500 Z-1.000000
G01 X16.396405 Y17.686435 Z-1.000000
G01 X15.768430 Y18.942415 Z-1.000000
G01 X15.140437 Y20.198429 Z-1.000000
G01 X14.512323 Y21.454687 Z-1.000000
G01 X13.884337 Y22.710687 Z-1.000000
G01 X13.256337 Y23.966715 Z-1.000000
G01 X12.628433 Y25.222554 Z-1.000000
G01 X12.000364 Y26.478719 Z-1.000000
G01 X11.372353 Y27.734770 Z-1.000000
G01 X10.744342 Y28.990822 Z-1.000000
G01 X10.116213 Y30.247107 Z-1.000000
G01 X9.488248 Y31.503068 Z-1.000000
G01 X8.860270 Y32.759052 Z-1.000000
G01 X8.232304 Y34.015012 Z-1.000000
G01 X7.604196 Y35.271257 Z-1.000000
G01 X6.976208 Y36.527262 Z-1.000000
G01 X6.348151 Y37.783406 Z-1.000000
G01 X5.720117 Y39.039502 Z-1.000000
G01 X5.092065 Y40.295635 Z-1.000000
G01 X4.464066 Y41.551662 Z-1.000000
G01 X3.836028 Y42.807766 Z-1.000000
G01 X3.208107 Y44.063637 Z-1.000000
G01 X2.580164 Y45.319553 Z-1.000000
G01 X1.952030 Y46.575849 Z-1.000000
G01 X1.540697 Y47.040474 Z-1.000000
G01 X0.998929 Y47.196671 Z-1.000000
G01 X0.998929 Y47.196671 Z-1.000000
G00 Z5.000000

(End cutting path id: path12)


(Footer)
S83 (pen up)
M5
G00 X0.0000 Y0.0000
M2
(Using default footer. To add your own footer create file "footer" in the output dir.)
(end)
%