%
(Header)
(Generated by gcodetools from Inkscape.)
(Using default header. To add your own header create file "header" in the output dir.)
M3
(Header end.)
G21 (All units in mm)

(Start cutting path id: path12)
(Change tool to Default tool)

S80 (pen up)
G00 Z1
G00 X187.96437776652897 Y134.24314416122638

S83 (pen down)
G01 Z-1 F1000
G01 X188.95791052453365 Y130.91202865724495 Z-1 F1000
G01 X187.03459242200324 Y125.81247723260708 Z-1
G01 X180.66792568552 Y115.34791143519942 Z-1
G01 X174.23824097899774 Y104.88358907467023 Z-1
G01 X167.7473240085185 Y94.42059243767244 Z-1
G01 X161.19310246610166 Y83.9538366257375 Z-1
G01 X154.57774313097207 Y73.48515129887846 Z-1
G01 X147.90572347085072 Y63.019895900488564 Z-1
G01 X141.17316972691629 Y52.55036368096262 Z-1
G01 X134.38604057257953 Y42.08423261257576 Z-1
G01 X127.54260660559999 Y31.6172408311254 Z-1
G01 X120.64124088166523 Y21.145412168551047 Z-1
G01 X113.68747141789186 Y10.67569601927562 Z-1
G01 X106.67764922918877 Y0.20116125853905942 Z-1
G01 X99.61615682504862 Y-10.273017171359243 Z-1
G01 X92.50537963588272 Y-20.744726343867114 Z-1
G01 X85.34373670591776 Y-31.21767455721715 Z-1
G01 X78.13182739987292 Y-41.692259135388895 Z-1
G01 X74.29015704268545 Y-45.963021002602545 Z-1
G01 X69.77104078497428 Y-48.97238830380161 Z-1
G01 X65.71990239117827 Y-49.96858619458931 Z-1
G01 X63.15359556119415 Y-48.703768307438395 Z-1
G01 X59.518897254891044 Y-43.385579773039126 Z-1
G01 X55.80468496243634 Y-38.129173875700644 Z-1
G01 X52.01174451995303 Y-32.93541530113066 Z-1
G01 X48.14090469809116 Y-27.805206270710187 Z-1
G01 X44.19339835432834 Y-22.739936744412034 Z-1
G01 X40.169553026192716 Y-17.739806036256596 Z-1
G01 X36.070237041942846 Y-12.80571792547562 Z-1
G01 X31.89608425356846 Y-7.938286016953725 Z-1
G01 X27.647238827272986 Y-3.1375940998229908 Z-1
G01 X23.325277474836412 Y1.594648507785223 Z-1
G01 X22.510183449020133 Y4.878548681784878 Z-1
G01 X24.4620520480521 Y9.63464248462401 Z-1
G01 X31.409178284186282 Y19.448792635597783 Z-1
G01 X38.31638569558481 Y29.261961595161893 Z-1
G01 X46.646601766019785 Y39.08074749436378 Z-1
G01 X54.94744563836207 Y48.89238130618992 Z-1
G01 X64.38740902204177 Y58.442713863430754 Z-1
G01 X73.80758460660923 Y67.97508893388613 Z-1
G01 X78.94758474653509 Y72.47950328112461 Z-1
G01 X84.08124200910379 Y76.97289488896513 Z-1
G01 X89.21204732615865 Y81.45827469966389 Z-1
G01 X94.34342238380691 Y85.93858123369455 Z-1
G01 X99.75957521297255 Y90.02339573707923 Z-1
G01 X105.17083544597472 Y94.09351287327581 Z-1
G01 X110.58084084015354 Y98.15155483307808 Z-1
G01 X115.9932704634291 Y102.20018208766214 Z-1
G01 X121.5429337536998 Y105.71951373897878 Z-1
G01 X127.08861153647513 Y109.22043173318889 Z-1
G01 X132.6340670693428 Y112.70518786186244 Z-1
G01 X138.18306717822225 Y116.17597896757297 Z-1
G01 X143.7195745220031 Y118.98556636885905 Z-1
G01 X149.25227896282763 Y121.77344585708761 Z-1
G01 X154.78494980412643 Y124.54139556852806 Z-1
G01 X160.3212849321494 Y127.29108115057124 Z-1
G01 X165.69244841806994 Y129.25091067492667 Z-1
G01 X171.05895114100394 Y131.18653414183177 Z-1
G01 X176.42440821330683 Y133.0991668568488 Z-1
G01 X181.7924418990874 Y134.9899695035865 Z-1
G01 X187.96437776652897 Y134.24314416122638 Z-1
G01 X187.96437776652897 Y134.24314416122638 Z-1
S80 (pen up)
G00 Z1

(End cutting path id: path12)


(Start cutting path id: path12)
(Change tool to Default tool)

S80 (pen up)
G00 Z1
G00 X271.7458491687637 Y288.5754658272482

S83 (pen down)
G01 Z-1 F1000
G01 X273.16651027317903 Y285.2355627347139 Z-1 F1000
G01 X272.18404923546257 Y280.2091762805326 Z-1
G01 X268.7874124463 Y273.04031263771617 Z-1
G01 X265.3510147700018 Y265.87138604803636 Z-1
G01 X261.875189394515 Y258.70219455374024 Z-1
G01 X258.3601778843811 Y251.5324700171135 Z-1
G01 X254.20645911669794 Y244.82148864740952 Z-1
G01 X250.02106379576355 Y238.10448869698075 Z-1
G01 X245.80687234531365 Y231.3856039365769 Z-1
G01 X241.5668521506111 Y224.66898215450192 Z-1
G01 X236.80790182892224 Y218.43396215045914 Z-1
G01 X232.02591424888192 Y212.190694699779 Z-1
G01 X227.2240627150302 Y205.94307103584424 Z-1
G01 X222.40556618386267 Y199.69497078519362 Z-1
G01 X217.1840272110246 Y193.95201629092116 Z-1
G01 X211.9463393590172 Y188.19816779156372 Z-1
G01 X206.69588216639727 Y182.43703029951257 Z-1
G01 X201.4360679019651 Y176.67225829027848 Z-1
G01 X195.88057635996802 Y171.432520095992 Z-1
G01 X190.3212998682577 Y166.18587755237695 Z-1
G01 X184.75461058893552 Y160.9289392083599 Z-1
G01 X179.17683001030696 Y155.6582722426797 Z-1
G01 X173.41311253952085 Y150.9403886549244 Z-1
G01 X167.6495390957548 Y146.21229115509982 Z-1
G01 X161.882295926094 Y141.47098278426415 Z-1
G01 X156.10751284368257 Y136.71339558791806 Z-1
G01 X150.24897337721654 Y132.53419423317587 Z-1
G01 X144.39302301889916 Y128.34175098430478 Z-1
G01 X138.5357301124443 Y124.13342065231814 Z-1
G01 X132.67313661992694 Y119.90651489595848 Z-1
G01 X126.82528493744098 Y116.28572769226571 Z-1
G01 X120.98118530701572 Y112.64903242384094 Z-1
G01 X115.13690488176258 Y108.99416621198702 Z-1
G01 X109.2884445712823 Y105.3187738532356 Z-1
G01 X99.87915304900457 Y99.84638360532836 Z-1
G01 X90.47013022337637 Y94.32441119820669 Z-1
G01 X81.05996098245168 Y88.75272364997022 Z-1
G01 X71.65339195155116 Y83.13483477800719 Z-1
G01 X62.24461994451167 Y77.46797529581522 Z-1
G01 X52.835795400951156 Y71.75409782494057 Z-1
G01 X43.4268274784215 Y65.99380455606229 Z-1
G01 X34.01787651390168 Y60.187867178498664 Z-1
G01 X24.61009475265655 Y54.33764572624409 Z-1
G01 X15.198818897539013 Y48.44087841269561 Z-1
G01 X5.790456714978518 Y42.50220588352863 Z-1
G01 X-3.61815096611258 Y36.52029261413213 Z-1
G01 X-8.368300444385113 Y34.530825094876036 Z-1
G01 X-11.756384729941601 Y35.18147667996004 Z-1
G01 X-16.676411333778788 Y39.29704031575238 Z-1
G01 X-21.662791302418327 Y43.337403863443114 Z-1
G01 X-26.714665724822453 Y47.30172131589052 Z-1
G01 X-31.831151076368087 Y51.189142168879016 Z-1
G01 X-37.01083189591441 Y54.99844721181762 Z-1
G01 X-42.25350875702088 Y58.72933442853309 Z-1
G01 X-47.55826725088923 Y62.38096914889661 Z-1
G01 X-52.92452107092208 Y65.95275072735535 Z-1
G01 X-58.352286980808 Y69.44445020511876 Z-1
G01 X-63.839788702853866 Y72.85468332917117 Z-1
G01 X-65.18578713848297 Y75.33509165623559 Z-1
G01 X-64.27228420836377 Y79.33893036520112 Z-1
G01 X-61.32658862928156 Y83.86170567250429 Z-1
G01 X-57.08452139150404 Y87.75758730414123 Z-1
G01 X-46.37268671890979 Y95.32476567387334 Z-1
G01 X-35.66499927767427 Y102.83950081476883 Z-1
G01 X-24.958396011625155 Y110.30305865035734 Z-1
G01 X-14.250744617066402 Y117.71588661719011 Z-1
G01 X-3.5446831281524283 Y125.07517648222665 Z-1
G01 X7.161305915653429 Y132.38095228509223 Z-1
G01 X17.864715735587197 Y139.63048506309678 Z-1
G01 X28.567465884610783 Y146.82403584502958 Z-1
G01 X39.269391976603856 Y153.96041592406164 Z-1
G01 X49.97228499881339 Y161.0397216720453 Z-1
G01 X60.67182016239508 Y168.05797407266414 Z-1
G01 X71.37041487282545 Y175.01566436992766 Z-1
G01 X82.06620217387513 Y181.91045784322796 Z-1
G01 X92.76349496181547 Y188.74393687640122 Z-1
G01 X103.45855716749861 Y195.51255663156462 Z-1
G01 X114.15230919307942 Y202.21568736474023 Z-1
G01 X124.84668810834842 Y208.8533086564903 Z-1
G01 X135.5369016181421 Y215.42123091659732 Z-1
G01 X146.2259026739207 Y221.9200404218018 Z-1
G01 X156.91321720226347 Y228.34817796524726 Z-1
G01 X167.6014469902966 Y234.7058965145327 Z-1
G01 X178.28606800496527 Y240.98921260697057 Z-1
G01 X188.97027491110293 Y247.19868480058744 Z-1
G01 X199.6524125598694 Y253.332006315164 Z-1
G01 X210.33316321111624 Y259.38822967196995 Z-1
G01 X221.01126454591508 Y265.36527367228814 Z-1
G01 X231.6882098047256 Y271.2626041878899 Z-1
G01 X242.3613021428448 Y277.07734835245367 Z-1
G01 X253.03285797347348 Y282.80937536799354 Z-1
G01 X263.7056609344131 Y288.4587502409097 Z-1
G01 X268.4245068245772 Y289.79320466192803 Z-1
G01 X271.7458491687637 Y288.5754658272482 Z-1
G01 X271.7458491687637 Y288.5754658272482 Z-1
S80 (pen up)
G00 Z1

(End cutting path id: path12)


(Footer)
M5
G00 X0 Y0
M2
(Using default footer. To add your own footer create file "footer" in the output dir.)
(end)
%